ThanhNV-Robotics/Bipedal_Robot_Sytem_Identification/data/left_leg_simulation_data.csv
time,ref_q1,ref_q2,ref_q3,ref_q4,ref_q5,ref_q6,q1,q2,q3,q4,q5,q6,vel_q1,vel_q2,vel_q3,vel_q4,vel_q5,vel_q6,tau1,tau2,tau3,tau4,tau5,tau6,acc_q1,acc_q2,acc_q3,acc_q4,acc_q5,acc_q6
0.004000,0.000000,0.000000,0.000000,0.000000,0.000000,0.000000,-0.000004,0.000003,0.000008,0.000005,0.000028,0.000620,-0.001627,0.001006,0.002972,0.003166,0.009014,0.232100,0.002087,-0.001471,-0.004123,-0.002787,-0.001396,-0.031742,-0.511378,0.234379,0.559380,1.526749,0.939367,46.353053
0.008000,0.000000,0.000000,0.000000,0.000000,0.000000,0.000000,-0.000016,0.000009,0.000023,0.000040,0.000066,0.001882,-0.003993,0.001878,0.003935,0.012487,0.009444,0.353897,0.007475,-0.003884,-0.007698,-0.018810,-0.002008,-0.065078,-0.613823,0.210401,0.067940,2.694658,-0.189926,21.929103
0.012000,0.000000,0.000000,0.000000,0.000000,0.000000,0.000000,-0.000038,0.000018,0.000038,0.000119,0.000100,0.003426,-0.006296,0.002686,0.003370,0.024300,0.007958,0.397376,0.014962,-0.006847,-0.008842,-0.046121,-0.002179,-0.089131,-0.532952,0.197744,-0.243506,3.014992,-0.431928,5.104722
0.016000,0.000000,0.000000,0.000000,0.000000,0.000000,0.000000,-0.000067,0.000031,0.000048,0.000245,0.000127,0.005009,-0.007929,0.003456,0.001988,0.035733,0.006148,0.389605,0.023313,-0.010356,-0.008143,-0.080875,-0.002202,-0.105456,-0.320397,0.189957,-0.388999,2.698328,-0.451496,-5.484845
0.020000,0.000000,0.000000,0.000000,0.000001,0.000000,0.000000,-0.000101,0.000047,0.000052,0.000412,0.000148,0.006479,-0.008502,0.004202,0.000337,0.044796,0.004437,0.351808,0.031197,-0.014392,-0.006254,-0.119001,-0.002159,-0.115746,-0.030715,0.184592,-0.414947,1.968185,-0.409836,-11.325094
0.024000,0.000000,0.000001,0.000000,0.000002,0.000000,0.000000,-0.000134,0.000065,0.000049,0.000606,0.000162,0.007758,-0.007836,0.004930,-0.001211,0.050365,0.002943,0.299455,0.037353,-0.018928,-0.003749,-0.156745,-0.002080,-0.121579,0.285270,0.180376,-0.362656,1.032798,-0.350838,-13.805580
0.028000,0.000000,0.000001,0.000000,0.000003,0.000000,0.000000,-0.000161,0.000087,0.000041,0.000813,0.000170,0.008815,-0.005935,0.005642,-0.002429,0.052066,0.001695,0.242973,0.040723,-0.023935,-0.001097,-0.191026,-0.001982,-0.124282,0.585250,0.176477,-0.265816,0.066139,-0.288531,-14.098951
0.032000,0.000000,0.000002,0.000000,0.000006,0.000000,0.000000,-0.000177,0.000111,0.000029,0.001018,0.000174,0.009650,-0.002943,0.006337,-0.003207,0.050114,0.000692,0.188755,0.040527,-0.029374,0.001345,-0.219625,-0.001874,-0.124894,0.837866,0.172311,-0.151012,-0.801303,-0.228628,-13.114618
0.036000,0.000000,0.000004,0.000000,0.000010,0.000000,0.000000,-0.000180,0.000138,0.000015,0.001207,0.000175,0.010282,0.000895,0.007015,-0.003526,0.045135,-0.000085,0.140208,0.036295,-0.035202,0.003337,-0.241227,-0.001765,-0.124171,1.023234,0.167487,-0.038048,-1.484077,-0.174132,-11.503321
0.040000,0.000000,0.000006,0.000000,0.000015,0.000000,0.000000,-0.000165,0.000168,0.000001,0.001370,0.000173,0.010736,0.005284,0.007671,-0.003428,0.037989,-0.000661,0.098709,0.027866,-0.041368,0.004744,-0.255365,-0.001659,-0.122638,1.132122,0.161787,0.059652,-1.938043,-0.126766,-9.691513
0.044000,0.000000,0.000009,0.000000,0.000023,0.000000,0.000000,-0.000132,0.000200,-0.000011,0.001501,0.000170,0.011043,0.009917,0.008301,-0.002994,0.029624,-0.001067,0.064391,0.015354,-0.047815,0.005521,-0.262292,-0.001559,-0.120637,1.164296,0.155134,0.134339,-2.153524,-0.087345,-7.929096
0.048000,0.000000,0.000013,0.000000,0.000032,0.000000,0.000000,-0.000081,0.000235,-0.000022,0.001598,0.000165,0.011230,0.014500,0.008903,-0.002327,0.020960,-0.001335,0.036714,-0.000897,-0.054481,0.005697,-0.262822,-0.001467,-0.118388,1.126455,0.147560,0.182958,-2.147072,-0.055928,-6.338943
0.052000,0.000000,0.000017,0.000000,0.000045,0.000000,0.000000,-0.000012,0.000272,-0.000029,0.001661,0.000159,0.011320,0.018781,0.009473,-0.001530,0.012804,-0.001498,0.014871,-0.020374,-0.061299,0.005350,-0.258149,-0.001383,-0.116029,1.030068,0.139177,0.206038,-1.953106,-0.031990,-4.961199
0.056000,0.000000,0.000024,0.000000,0.000060,0.000000,0.000000,0.000072,0.000311,-0.000033,0.001694,0.000153,0.011336,0.022561,0.010007,-0.000698,0.005796,-0.001581,-0.001981,-0.042451,-0.068197,0.004590,-0.249679,-0.001307,-0.113653,0.889341,0.130148,0.206589,-1.616248,-0.014603,-3.788840
0.060000,0.000000,0.000031,0.000000,0.000080,0.000000,0.000000,0.000171,0.000352,-0.000034,0.001703,0.000146,0.011296,0.025701,0.010504,0.000089,0.000386,-0.001608,-0.014597,-0.066450,-0.075101,0.003541,-0.238876,-0.001237,-0.111331,0.719447,0.120664,0.189098,-1.184840,-0.002622,-2.793577
0.064000,0.000000,0.000040,0.000000,0.000103,0.000000,0.000000,0.000280,0.000396,-0.000032,0.001695,0.000140,0.011214,0.028121,0.010962,0.000773,-0.003165,-0.001598,-0.023602,-0.091689,-0.081935,0.002328,-0.227141,-0.001173,-0.109123,0.535101,0.110930,0.158700,-0.705866,0.005154,-1.942772
0.068000,0.000000,0.000052,0.000000,0.000132,0.000000,0.000000,0.000397,0.000441,-0.000027,0.001678,0.000133,0.011104,0.029796,0.011382,0.001314,-0.004774,-0.001566,-0.029504,-0.117526,-0.088621,0.001064,-0.215712,-0.001114,-0.107087,0.349495,0.101151,0.120536,-0.221288,0.009877,-1.208896
0.072000,0.000000,0.000065,0.000000,0.000166,0.000000,0.000000,0.000518,0.000487,-0.000021,0.001659,0.000127,0.010977,0.030750,0.011762,0.001693,-0.004508,-0.001520,-0.032720,-0.143388,-0.095080,-0.000155,-0.205605,-0.001058,-0.105273,0.173600,0.091523,0.079291,0.234294,0.012569,-0.573423
0.076000,0.000000,0.000080,0.000000,0.000205,0.000000,0.000000,0.000642,0.000535,-0.000014,0.001645,0.000121,0.010843,0.031044,0.012105,0.001909,-0.002551,-0.001466,-0.033618,-0.168793,-0.101234,-0.001253,-0.197576,-0.001006,-0.103727,0.015775,0.082232,0.038910,0.634839,0.014085,-0.026960
0.080000,0.000000,0.000099,0.000000,0.000252,0.000000,0.000000,0.000766,0.000584,-0.000006,0.001643,0.000116,0.010711,0.030764,0.012411,0.001972,0.000831,-0.001408,-0.032547,-0.193359,-0.107005,-0.002179,-0.192109,-0.000957,-0.102485,-0.118338,0.073443,0.002446,0.963116,0.015105,0.432779
0.084000,0.000000,0.000119,0.000000,0.000305,0.000000,0.000000,0.000887,0.000635,0.000002,0.001658,0.000110,0.010587,0.030015,0.012685,0.001903,0.005325,-0.001346,-0.029857,-0.216808,-0.112315,-0.002903,-0.189433,-0.000911,-0.101567,-0.225707,0.065302,-0.027977,1.210244,0.016132,0.803932
0.088000,0.000000,0.000143,0.000000,0.000367,0.000000,0.000000,0.001005,0.000686,0.000009,0.001692,0.000105,0.010477,0.028904,0.012927,0.001731,0.010600,-0.001279,-0.025910,-0.238961,-0.117090,-0.003418,-0.189540,-0.000868,-0.100978,-0.305635,0.057935,-0.051122,1.374715,0.017510,1.083484
0.092000,0.000000,0.000171,0.000000,0.000436,0.000000,0.000000,0.001117,0.000738,0.000016,0.001748,0.000100,0.010385,0.027540,0.013142,0.001486,0.016336,-0.001205,-0.021078,-0.259722,-0.121255,-0.003730,-0.192233,-0.000828,-0.100709,-0.359383,0.051448,-0.066540,1.461101,0.019447,1.269760
0.096000,0.000000,0.000202,0.000000,0.000515,0.000000,0.000000,0.001223,0.000791,0.000021,0.001829,0.000095,0.010314,0.026021,0.013334,0.001197,0.022241,-0.001122,-0.015731,-0.279073,-0.124740,-0.003861,-0.197162,-0.000793,-0.100733,-0.389726,0.045929,-0.074433,1.478592,0.022034,1.364134
0.100000,0.000000,0.000236,0.000000,0.000604,0.000000,0.000000,0.001323,0.000845,0.000025,0.001932,0.000091,0.010265,0.024430,0.013506,0.000895,0.028070,-0.001027,-0.010226,-0.297045,-0.127477,-0.003842,-0.203873,-0.000763,-0.101012,-0.400492,0.041449,-0.075508,1.439521,0.025274,1.371882
0.104000,0.000000,0.000275,0.000000,0.000704,0.000000,0.000000,0.001417,0.000899,0.000028,0.002058,0.000087,0.010237,0.022836,0.013663,0.000603,0.033632,-0.000918,-0.004886,-0.313713,-0.129398,-0.003709,-0.211854,-0.000740,-0.101495,-0.396120,0.038069,-0.070827,1.357950,0.029098,1.302269
0.108000,0.000000,0.000319,0.000000,0.000815,0.000000,0.000000,0.001505,0.000954,0.000029,0.002206,0.000084,0.010230,0.021287,0.013809,0.000341,0.038793,-0.000792,0.000010,-0.329168,-0.130441,-0.003503,-0.220575,-0.000723,-0.102130,-0.381251,0.035840,-0.061656,1.248423,0.033395,1.168011
0.112000,0.000000,0.000367,0.000000,0.000938,0.000000,0.000000,0.001586,0.001010,0.000030,0.002373,0.000081,0.010241,0.019814,0.013949,0.000124,0.043477,-0.000649,0.004241,-0.343511,-0.130546,-0.003261,-0.229524,-0.000714,-0.102858,-0.360387,0.034803,-0.049348,1.124918,0.038027,0.984320
0.116000,0.000000,0.000420,0.000000,0.001074,0.000000,0.000000,0.001662,0.001066,0.000030,0.002558,0.000079,0.010267,0.018431,0.014089,-0.000038,0.047659,-0.000486,0.007649,-0.356833,-0.129656,-0.003019,-0.238236,-0.000714,-0.103626,-0.337614,0.035000,-0.035229,1.000021,0.042841,0.767729
0.120000,0.000000,0.000479,0.000000,0.001223,0.000000,0.000000,0.001732,0.001123,0.000030,0.002758,0.000077,0.010304,0.017136,0.014232,-0.000143,0.051361,-0.000304,0.010146,-0.369210,-0.127718,-0.002807,-0.246309,-0.000724,-0.104382,-0.316403,0.036467,-0.020516,0.884353,0.047690,0.534870
0.124000,0.000000,0.000543,0.000000,0.001387,0.000000,0.000000,0.001798,0.001180,0.000029,0.002971,0.000077,0.010349,0.015915,0.014384,-0.000189,0.054642,-0.000103,0.011705,-0.380694,-0.124683,-0.002650,-0.253425,-0.000744,-0.105083,-0.299484,0.039241,-0.006259,0.786215,0.052437,0.301353
0.128000,0.000000,0.000613,0.000000,0.001566,0.000000,0.000000,0.001859,0.001238,0.000028,0.003197,0.000077,0.010398,0.014748,0.014551,-0.000182,0.057587,0.000116,0.012360,-0.391307,-0.120504,-0.002565,-0.259347,-0.000776,-0.105695,-0.288791,0.043359,0.006701,0.711451,0.056964,0.080838
0.132000,0.000000,0.000689,0.000000,0.001761,0.000000,0.000000,0.001915,0.001297,0.000028,0.003434,0.000078,0.010447,0.013605,0.014737,-0.000127,0.060300,0.000353,0.012189,-0.401043,-0.115141,-0.002564,-0.263924,-0.000819,-0.106194,-0.285464,0.048855,0.017747,0.663488,0.061173,-0.115633
0.136000,0.000000,0.000772,0.000000,0.001973,0.000000,0.000000,0.001966,0.001356,0.000027,0.003682,0.000080,0.010494,0.012456,0.014949,-0.000033,0.062890,0.000605,0.011312,-0.409867,-0.108556,-0.002653,-0.267084,-0.000874,-0.106563,-0.289906,0.055765,0.026486,0.643525,0.064991,-0.280025
0.140000,0.000000,0.000862,0.000000,0.002203,0.000000,0.000000,0.002013,0.001417,0.000028,0.003940,0.000083,0.010536,0.011270,0.015193,0.000089,0.065468,0.000872,0.009868,-0.417720,-0.100717,-0.002830,-0.268823,-0.000941,-0.106799,-0.301870,0.064124,0.032738,0.650829,0.068367,-0.407436
0.144000,0.000000,0.000959,0.000000,0.002451,0.000000,0.000000,0.002055,0.001478,0.000028,0.004209,0.000087,0.010571,0.010019,0.015473,0.000229,0.068139,0.001151,0.008012,-0.424519,-0.091594,-0.003091,-0.269195,-0.001022,-0.106902,-0.320586,0.073962,0.036505,0.683103,0.071274,-0.495973
0.148000,0.000000,0.001063,0.000000,0.002718,0.000000,0.000000,0.002092,0.001541,0.000030,0.004488,0.000092,0.010597,0.008680,0.015797,0.000379,0.070994,0.001440,0.005899,-0.430167,-0.081164,-0.003427,-0.268296,-0.001115,-0.106882,-0.344881,0.085309,0.037945,0.736892,0.073698,-0.546443
0.152000,0.000000,0.001176,0.000000,0.003005,0.000000,0.000000,0.002123,0.001605,0.000031,0.004780,0.000099,0.010616,0.007232,0.016170,0.000530,0.074108,0.001737,0.003672,-0.434555,-0.069409,-0.003827,-0.266251,-0.001221,-0.106753,-0.373326,0.098190,0.037333,0.807991,0.075645,-0.561901
0.156000,0.000000,0.001296,0.000000,0.003312,0.000000,0.000000,0.002148,0.001671,0.000034,0.005085,0.000107,0.010625,0.005664,0.016598,0.000674,0.077540,0.002041,0.001462,-0.437574,-0.056315,-0.004279,-0.263200,-0.001341,-0.106533,-0.404358,0.112623,0.035023,0.891836,0.077131,-0.547115
0.160000,0.000000,0.001425,0.000000,0.003642,0.000000,0.000000,0.002166,0.001738,0.000037,0.005404,0.000116,0.010625,0.003968,0.017088,0.000805,0.081328,0.002350,-0.000626,-0.439110,-0.041874,-0.004769,-0.259286,-0.001473,-0.106241,-0.436400,0.128623,0.031413,0.983847,0.078181,-0.507998
0.164000,0.000000,0.001563,0.000000,0.003994,0.000000,0.000000,0.002178,0.001808,0.000040,0.005740,0.000126,0.010618,0.002145,0.017645,0.000919,0.085496,0.002662,-0.002511,-0.439060,-0.026081,-0.005286,-0.254646,-0.001619,-0.105896,-0.467959,0.146197,0.026912,1.079718,0.078822,-0.451045
0.168000,0.000000,0.001710,0.000000,0.004369,0.000000,0.000000,0.002182,0.001880,0.000044,0.006093,0.000137,0.010604,0.000201,0.018277,0.001013,0.090047,0.002975,-0.004138,-0.437329,-0.008939,-0.005817,-0.249400,-0.001777,-0.105517,-0.497707,0.165344,0.021914,1.175646,0.079089,-0.382833
0.172000,0.000000,0.001866,0.000000,0.004769,0.000000,0.000000,0.002177,0.001955,0.000049,0.006465,0.000150,0.010584,-0.001856,0.018990,0.001088,0.094975,0.003289,-0.005476,-0.433835,0.009545,-0.006352,-0.243650,-0.001947,-0.105119,-0.524531,0.186058,0.016773,1.268480,0.079011,-0.309582
0.176000,0.000000,0.002032,0.000000,0.005193,0.000000,0.000000,0.002165,0.002033,0.000053,0.006858,0.000164,0.010559,-0.004011,0.019789,0.001142,0.100262,0.003601,-0.006521,-0.428514,0.029359,-0.006883,-0.237471,-0.002131,-0.104716,-0.547573,0.208320,0.011791,1.355815,0.078618,-0.236813
0.180000,0.000000,0.002208,0.000000,0.005643,0.000000,0.000000,0.002143,0.002114,0.000058,0.007273,0.000179,0.010531,-0.006247,0.020681,0.001177,0.105879,0.003911,-0.007286,-0.421315,0.050486,-0.007404,-0.230915,-0.002326,-0.104319,-0.566233,0.232109,0.007204,1.436016,0.077938,-0.169111
0.184000,0.000000,0.002395,0.000000,0.006119,0.000000,0.000000,0.002112,0.002199,0.000062,0.007712,0.000195,0.010501,-0.008545,0.021672,0.001195,0.111798,0.004218,-0.007800,-0.412205,0.072903,-0.007910,-0.224009,-0.002533,-0.103933,-0.580171,0.257391,0.003181,1.508195,0.076991,-0.109980
0.188000,0.000000,0.002592,0.000000,0.006623,0.000000,0.000000,0.002072,0.002289,0.000067,0.008174,0.000213,0.010469,-0.010888,0.022768,0.001198,0.117984,0.004519,-0.008104,-0.401170,0.096583,-0.008398,-0.216759,-0.002752,-0.103564,-0.589285,0.284125,-0.000176,1.572142,0.075794,-0.061794
0.192000,0.000000,0.002800,0.000000,0.007155,0.000000,0.000000,0.002023,0.002383,0.000072,0.008662,0.000232,0.010436,-0.013255,0.023974,0.001190,0.124406,0.004816,-0.008245,-0.388208,0.121494,-0.008867,-0.209149,-0.002982,-0.103211,-0.593674,0.312265,-0.002830,1.628225,0.074360,-0.025825
0.196000,0.000000,0.003019,0.000000,0.007716,0.000000,0.000000,0.001964,0.002482,0.000077,0.009176,0.000252,0.010403,-0.015628,0.025296,0.001173,0.131034,0.005106,-0.008274,-0.373335,0.147598,-0.009317,-0.201153,-0.003222,-0.102873,-0.593604,0.341755,-0.004794,1.677267,0.072697,-0.002344
0.200000,0.000000,0.003251,0.000000,0.008307,0.000000,0.000000,0.001895,0.002587,0.000081,0.009717,0.000273,0.010370,-0.017990,0.026739,0.001150,0.137842,0.005389,-0.008237,-0.356574,0.174854,-0.009748,-0.192733,-0.003473,-0.102547,-0.589465,0.372533,-0.006129,1.720423,0.070808,0.009237
0.204000,0.000000,0.003494,0.000000,0.008928,0.000000,0.000000,0.001818,0.002698,0.000086,0.010286,0.000295,0.010337,-0.020327,0.028309,0.001122,0.144812,0.005663,-0.008182,-0.337965,0.203217,-0.010163,-0.183844,-0.003735,-0.102227,-0.581727,0.404529,-0.006929,1.759044,0.068697,0.010189
0.208000,0.000000,0.003749,0.000000,0.009581,0.000000,0.000000,0.001731,0.002815,0.000090,0.010883,0.000319,0.010305,-0.022624,0.030009,0.001093,0.151927,0.005929,-0.008144,-0.317550,0.232636,-0.010562,-0.174443,-0.004005,-0.101907,-0.570897,0.437671,-0.007307,1.794563,0.066362,0.002276
0.212000,0.000000,0.004017,0.000000,0.010265,0.000000,0.000000,0.001634,0.002940,0.000094,0.011509,0.000343,0.010272,-0.024872,0.031845,0.001063,0.159179,0.006184,-0.008156,-0.295383,0.263057,-0.010948,-0.164488,-0.004285,-0.101583,-0.557486,0.471878,-0.007390,1.828382,0.063802,-0.012440
0.216000,0.000000,0.004297,0.000000,0.010982,0.000000,0.000000,0.001529,0.003072,0.000099,0.012164,0.000368,0.010240,-0.027061,0.033820,0.001032,0.166565,0.006429,-0.008239,-0.271521,0.294423,-0.011322,-0.153941,-0.004573,-0.101247,-0.541979,0.507066,-0.007302,1.861793,0.061017,-0.031775
0.220000,0.000000,0.004591,0.000000,0.011733,0.000000,0.000000,0.001416,0.003212,0.000103,0.012849,0.000395,0.010206,-0.029183,0.035937,0.001003,0.174086,0.006661,-0.008405,-0.246025,0.326672,-0.011684,-0.142776,-0.004869,-0.100894,-0.524811,0.543147,-0.007164,1.895905,0.058008,-0.053583
0.224000,0.000000,0.004898,0.000000,0.012518,0.000000,0.000000,0.001294,0.003362,0.000107,0.013564,0.000422,0.010172,-0.031233,0.038202,0.000974,0.181746,0.006881,-0.008660,-0.218958,0.359742,-0.012035,-0.130971,-0.005172,-0.100520,-0.506350,0.580027,-0.007078,1.931603,0.054776,-0.075886
0.228000,0.000000,0.005219,0.000000,0.013338,0.000000,0.000000,0.001164,0.003521,0.000110,0.014311,0.000450,0.010137,-0.033206,0.040615,0.000944,0.189555,0.007088,-0.009001,-0.190387,0.393563,-0.012375,-0.118519,-0.005482,-0.100121,-0.486889,0.617613,-0.007132,1.969528,0.051327,-0.096971
0.232000,0.000000,0.005554,0.000000,0.014194,0.000000,0.000000,0.001027,0.003689,0.000114,0.015089,0.000479,0.010100,-0.035100,0.043181,0.000914,0.197521,0.007280,-0.009420,-0.160381,0.428068,-0.012702,-0.105422,-0.005798,-0.099695,-0.466646,0.655805,-0.007388,2.010068,0.047668,-0.115459
0.236000,0.000000,0.005903,0.000000,0.015086,0.000000,0.000000,0.000882,0.003869,0.000118,0.015899,0.000508,0.010061,-0.036911,0.045900,0.000883,0.205656,0.007457,-0.009904,-0.129007,0.463184,-0.013015,-0.091690,-0.006119,-0.099242,-0.445763,0.694502,-0.007890,2.053374,0.043810,-0.130333
0.240000,0.000000,0.006267,0.000000,0.016016,0.000000,0.000000,0.000730,0.004060,0.000121,0.016742,0.000538,0.010020,-0.038637,0.048775,0.000848,0.213971,0.007618,-0.010436,-0.096336,0.498837,-0.013311,-0.077344,-0.006444,-0.098760,-0.424318,0.733602,-0.008657,2.099387,0.039765,-0.140953
0.244000,0.000000,0.006645,0.000000,0.016983,0.000000,0.000000,0.000571,0.004262,0.000124,0.017619,0.000569,0.009977,-0.040275,0.051808,0.000810,0.222476,0.007762,-0.010999,-0.062441,0.534952,-0.013587,-0.062412,-0.006773,-0.098252,-0.402331,0.772999,-0.009689,2.147867,0.035549,-0.147027
0.248000,0.000000,0.007039,0.000000,0.017988,0.000000,0.000000,0.000406,0.004477,0.000128,0.018531,0.000601,0.009932,-0.041824,0.054998,0.000767,0.231179,0.007889,-0.011575,-0.027395,0.571451,-0.013841,-0.046928,-0.007105,-0.097718,-0.379781,0.812589,-0.010969,2.198440,0.031181,-0.148581
0.252000,0.000000,0.007448,0.000000,0.019033,0.000000,0.000000,0.000235,0.004706,0.000130,0.019478,0.000632,0.009884,-0.043282,0.058348,0.000719,0.240089,0.007998,-0.012145,0.008726,0.608257,-0.014069,-0.030931,-0.007440,-0.097161,-0.356619,0.852262,-0.012467,2.250634,0.026680,-0.145901
0.256000,0.000000,0.007872,0.000000,0.020118,0.000000,0.000000,0.000058,0.004948,0.000133,0.020461,0.000665,0.009834,-0.044645,0.061855,0.000664,0.249211,0.008089,-0.012696,0.045844,0.645291,-0.014266,-0.014464,-0.007775,-0.096584,-0.332779,0.891913,-0.014141,2.303926,0.022068,-0.139480
0.260000,0.000000,0.008312,0.000000,0.021242,0.000000,0.000000,-0.000123,0.005204,0.000136,0.021481,0.000697,0.009782,-0.045911,0.065522,0.000602,0.258547,0.008161,-0.013212,0.083879,0.682474,-0.014431,0.002431,-0.008111,-0.095990,-0.308192,0.931431,-0.015944,2.357775,0.017366,-0.129949
0.264000,0.000000,0.008768,0.000000,0.022408,0.000000,0.000000,-0.000310,0.005476,0.000138,0.022539,0.000730,0.009728,-0.047076,0.069345,0.000532,0.268098,0.008214,-0.013683,0.122747,0.719726,-0.014558,0.019708,-0.008447,-0.095382,-0.282797,0.970710,-0.017826,2.411657,0.012598,-0.118019
0.268000,0.000000,0.009241,0.000000,0.023616,0.000000,0.000000,-0.000501,0.005763,0.000140,0.023635,0.000763,0.009672,-0.048137,0.073325,0.000455,0.277863,0.008247,-0.014102,0.162362,0.756968,-0.014644,0.037326,-0.008782,-0.094765,-0.256550,1.009641,-0.019737,2.465092,0.007787,-0.104424
0.272000,0.000000,0.009730,0.000000,0.024865,0.000000,0.000000,-0.000696,0.006067,0.000141,0.024772,0.000796,0.009615,-0.049092,0.077460,0.000370,0.287840,0.008262,-0.014463,0.202634,0.794123,-0.014688,0.055240,-0.009115,-0.094139,-0.229428,1.048116,-0.021629,2.517661,0.002955,-0.089871
0.276000,0.000000,0.010236,0.000000,0.026158,0.000000,0.000000,-0.000894,0.006387,0.000143,0.025948,0.000829,0.009557,-0.049935,0.081747,0.000278,0.298024,0.008257,-0.014765,0.243472,0.831112,-0.014685,0.073413,-0.009445,-0.093509,-0.201436,1.086030,-0.023461,2.569022,-0.001875,-0.075003
0.280000,0.000000,0.010758,0.000000,0.027494,0.000000,0.000000,-0.001096,0.006725,0.000143,0.027166,0.000862,0.009497,-0.050664,0.086184,0.000179,0.308410,0.008232,-0.015008,0.284780,0.867858,-0.014633,0.091804,-0.009772,-0.092877,-0.172608,1.123277,-0.025196,2.618911,-0.006682,-0.060370
0.284000,0.000000,0.011298,0.000000,0.028873,0.000000,0.000000,-0.001300,0.007081,0.000144,0.028426,0.000895,0.009436,-0.051276,0.090768,0.000073,0.318990,0.008189,-0.015193,0.326462,0.904287,-0.014530,0.110381,-0.010095,-0.092245,-0.143004,1.159756,-0.026805,2.667145,-0.011445,-0.046408
0.288000,0.000000,0.011855,0.000000,0.030297,0.000000,0.000000,-0.001506,0.007456,0.000144,0.029729,0.000927,0.009375,-0.051768,0.095496,-0.000039,0.329759,0.008126,-0.015324,0.368419,0.940325,-0.014374,0.129108,-0.010413,-0.091614,-0.112713,1.195365,-0.028268,2.713615,-0.016144,-0.033438
0.292000,0.000000,0.012430,0.000000,0.031766,0.000000,0.000000,-0.001714,0.007850,0.000143,0.031076,0.000960,0.009314,-0.052137,0.100364,-0.000157,0.340709,0.008045,-0.015407,0.410549,0.975901,-0.014164,0.147955,-0.010725,-0.090986,-0.081845,1.230006,-0.029570,2.758278,-0.020760,-0.021657
0.296000,0.000000,0.013023,0.000000,0.033280,0.000000,0.000000,-0.001924,0.008264,0.000142,0.032466,0.000992,0.009252,-0.052381,0.105368,-0.000279,0.351833,0.007946,-0.015444,0.452750,1.010945,-0.013899,0.166893,-0.011032,-0.090363,-0.050530,1.263585,-0.030703,2.801144,-0.025276,-0.011157
0.300000,0.000000,0.013633,0.000000,0.034840,0.000000,0.000000,-0.002133,0.008699,0.000141,0.033902,0.001023,0.009191,-0.052500,0.110503,-0.000406,0.363124,0.007829,-0.015443,0.494920,1.045393,-0.013578,0.185894,-0.011331,-0.089745,-0.018909,1.296010,-0.031666,2.842264,-0.029674,-0.001930
0.304000,0.000000,0.014261,0.000000,0.036446,0.000000,0.000000,-0.002343,0.009154,0.000139,0.035383,0.001054,0.009129,-0.052491,0.115765,-0.000536,0.374574,0.007694,-0.015408,0.536956,1.079178,-0.013200,0.204931,-0.011622,-0.089132,0.012864,1.327193,-0.032460,2.881717,-0.033940,0.006108
0.308000,0.000000,0.014908,0.000000,0.038099,0.000000,0.000000,-0.002553,0.009630,0.000137,0.036910,0.001084,0.009068,-0.052355,0.121148,-0.000669,0.386179,0.007543,-0.015342,0.578757,1.112242,-0.012766,0.223979,-0.011906,-0.088527,0.044634,1.357052,-0.033092,2.919594,-0.038057,0.013102
0.312000,0.000000,0.015573,0.000000,0.039799,0.000000,0.000000,-0.002762,0.010129,0.000133,0.038484,0.001114,0.009007,-0.052092,0.126648,-0.000804,0.397931,0.007376,-0.015251,0.620219,1.144527,-0.012274,0.243012,-0.012180,-0.087928,0.076243,1.385507,-0.033571,2.955990,-0.042012,0.019234
0.316000,0.000000,0.016257,0.000000,0.041546,0.000000,0.000000,-0.002969,0.010649,0.000130,0.040105,0.001143,0.008946,-0.051703,0.132257,-0.000940,0.409824,0.007193,-0.015136,0.661245,1.175979,-0.011726,0.262004,-0.012446,-0.087337,0.107541,1.412485,-0.033907,2.990993,-0.045792,0.024705
0.320000,0.000000,0.016960,0.000000,0.043342,0.000000,0.000000,-0.003175,0.011192,0.000126,0.041774,0.001171,0.008886,-0.051190,0.137971,-0.001078,0.421854,0.006996,-0.015001,0.701735,1.206547,-0.011121,0.280930,-0.012701,-0.086754,0.138380,1.437915,-0.034108,3.024675,-0.049383,0.029718
0.324000,0.000000,0.017681,0.000000,0.045185,0.000000,0.000000,-0.003378,0.011759,0.000121,0.043492,0.001199,0.008826,-0.050556,0.143782,-0.001216,0.434016,0.006785,-0.014845,0.741595,1.236187,-0.010460,0.299764,-0.012947,-0.086180,0.168626,1.461735,-0.034186,3.057087,-0.052774,0.034462
0.328000,0.000000,0.018422,0.000000,0.047078,0.000000,0.000000,-0.003578,0.012349,0.000116,0.045259,0.001225,0.008767,-0.049801,0.149684,-0.001354,0.446303,0.006561,-0.014671,0.780730,1.264854,-0.009744,0.318481,-0.013182,-0.085615,0.198152,1.483885,-0.034149,3.088260,-0.055953,0.039103
0.332000,0.000000,0.019181,0.000000,0.049019,0.000000,0.000000,-0.003776,0.012962,0.000110,0.047075,0.001251,0.008709,-0.048931,0.155671,-0.001491,0.458712,0.006325,-0.014478,0.819052,1.292512,-0.008973,0.337056,-0.013405,-0.085060,0.226845,1.504313,-0.034004,3.118197,-0.058911,0.043772
0.336000,0.000000,0.019960,0.000000,0.051009,0.000000,0.000000,-0.003969,0.013600,0.000104,0.048941,0.001276,0.008652,-0.047949,0.161735,-0.001628,0.471238,0.006077,-0.014266,0.856473,1.319126,-0.008148,0.355462,-0.013618,-0.084516,0.254602,1.522973,-0.033757,3.146878,-0.061637,0.048565
0.340000,0.000000,0.020758,0.000000,0.053049,0.000000,0.000000,-0.004158,0.014262,0.000097,0.050857,0.001299,0.008596,-0.046857,0.167869,-0.001764,0.483875,0.005819,-0.014034,0.892911,1.344668,-0.007270,0.373674,-0.013819,-0.083984,0.281332,1.539823,-0.033413,3.174265,-0.064123,0.053539
0.344000,0.000000,0.021576,0.000000,0.055138,0.000000,0.000000,-0.004342,0.014949,0.000089,0.052825,0.001322,0.008540,-0.045662,0.174066,-0.001898,0.496617,0.005552,-0.013781,0.928286,1.369111,-0.006340,0.391668,-0.014008,-0.083464,0.306955,1.554828,-0.032976,3.200298,-0.066362,0.058712
0.348000,0.000000,0.022413,0.000000,0.057278,0.000000,0.000000,-0.004522,0.015661,0.000082,0.054843,0.001344,0.008486,-0.044367,0.180318,-0.002030,0.509460,0.005277,-0.013506,0.962524,1.392436,-0.005360,0.409418,-0.014184,-0.082958,0.331398,1.567961,-0.032446,3.224906,-0.068345,0.064071
0.352000,0.000000,0.023270,0.000000,0.059467,0.000000,0.000000,-0.004696,0.016398,0.000073,0.056913,0.001364,0.008433,-0.042977,0.186618,-0.002159,0.522398,0.004994,-0.013210,0.995552,1.414627,-0.004331,0.426902,-0.014349,-0.082467,0.354601,1.579199,-0.031827,3.248009,-0.070068,0.069573
0.356000,0.000000,0.024146,0.000000,0.061707,0.000000,0.000000,-0.004864,0.017160,0.000064,0.059035,0.001383,0.008381,-0.041497,0.192958,-0.002286,0.535424,0.004705,-0.012891,1.027305,1.435672,-0.003254,0.444096,-0.014501,-0.081992,0.376505,1.588525,-0.031118,3.269522,-0.071525,0.075152
0.360000,0.000000,0.025043,0.000000,0.063998,0.000000,0.000000,-0.005026,0.017948,0.000055,0.061210,0.001401,0.008330,-0.039933,0.199331,-0.002410,0.548531,0.004411,-0.012550,1.057720,1.455566,-0.002131,0.460980,-0.014641,-0.081532,0.397062,1.595930,-0.030320,3.289360,-0.072714,0.080728
0.364000,0.000000,0.025959,0.000000,0.066340,0.000000,0.000000,-0.005182,0.018762,0.000045,0.063437,0.001418,0.008281,-0.038291,0.205729,-0.002531,0.561713,0.004113,-0.012186,1.086740,1.474305,-0.000964,0.477534,-0.014768,-0.081090,0.416226,1.601410,-0.029436,3.307441,-0.073630,0.086212
0.368000,0.000000,0.026895,0.000000,0.068732,0.000000,0.000000,-0.005331,0.019601,0.000034,0.065717,0.001434,0.008233,-0.036575,0.212143,-0.002648,0.574963,0.003812,-0.011800,1.114311,1.491892,0.000245,0.493739,-0.014883,-0.080667,0.433956,1.604968,-0.028467,3.323691,-0.074274,0.091511
0.372000,0.000000,0.027851,0.000000,0.071175,0.000000,0.000000,-0.005472,0.020465,0.000023,0.068050,0.001448,0.008187,-0.034792,0.218567,-0.002760,0.588273,0.003509,-0.011394,1.140386,1.508336,0.001494,0.509580,-0.014985,-0.080262,0.450213,1.606612,-0.027416,3.338042,-0.074645,0.096536
0.376000,0.000000,0.028827,0.000000,0.073670,0.000000,0.000000,-0.005607,0.021355,0.000012,0.070436,0.001462,0.008143,-0.032947,0.224993,-0.002869,0.601635,0.003205,-0.010968,1.164922,1.523646,0.002781,0.525042,-0.015076,-0.079877,0.464963,1.606358,-0.026288,3.350440,-0.074743,0.101205
0.380000,0.000000,0.029823,0.000000,0.076216,0.000000,0.000000,-0.005734,0.022271,0.000000,0.072876,0.001474,0.008100,-0.031047,0.231413,-0.002972,0.615042,0.002902,-0.010525,1.187879,1.537839,0.004104,0.540113,-0.015154,-0.079512,0.478172,1.604225,-0.025088,3.360840,-0.074571,0.105446
0.384000,0.000000,0.030840,0.000000,0.078813,0.000000,0.000000,-0.005853,0.023213,-0.000012,0.075370,0.001484,0.008059,-0.029099,0.237820,-0.003071,0.628485,0.002600,-0.010065,1.209226,1.550936,0.005460,0.554781,-0.015220,-0.079167,0.489812,1.600241,-0.023824,3.369210,-0.074133,0.109201
0.388000,0.000000,0.031876,0.000000,0.081461,0.000000,0.000000,-0.005965,0.024180,-0.000025,0.077917,0.001494,0.008020,-0.027108,0.244207,-0.003164,0.641956,0.002301,-0.009592,1.228935,1.562959,0.006848,0.569038,-0.015274,-0.078843,0.499855,1.594437,-0.022504,3.375528,-0.073432,0.112427
0.392000,0.000000,0.032932,0.000000,0.084160,0.000000,0.000000,-0.006068,0.025173,-0.000037,0.080519,0.001503,0.007983,-0.025080,0.250565,-0.003253,0.655447,0.002005,-0.009107,1.246983,1.573939,0.008263,0.582878,-0.015317,-0.078540,0.508277,1.586851,-0.021137,3.379784,-0.072474,0.115093
0.396000,0.000000,0.034009,0.000000,0.086911,0.000000,0.000000,-0.006163,0.026191,-0.000051,0.083174,0.001510,0.007948,-0.023023,0.256890,-0.003335,0.668950,0.001714,-0.008612,1.263352,1.583907,0.009705,0.596295,-0.015349,-0.078258,0.515059,1.577527,-0.019735,3.381976,-0.071267,0.117183
0.400000,0.000000,0.035105,0.000000,0.089714,0.000000,0.000000,-0.006250,0.027235,-0.000064,0.085884,0.001516,0.007915,-0.020943,0.263172,-0.003412,0.682457,0.001428,-0.008110,1.278031,1.592898,0.011171,0.609287,-0.015370,-0.077997,0.520185,1.566512,-0.018309,3.382109,-0.069816,0.118694
0.404000,0.000000,0.036222,0.000000,0.092567,0.000000,0.000000,-0.006329,0.028303,-0.000078,0.088647,0.001521,0.007884,-0.018846,0.269407,-0.003483,0.695958,0.001149,-0.007604,1.291014,1.600952,0.012658,0.621852,-0.015380,-0.077757,0.523644,1.553859,-0.016872,3.380196,-0.068132,0.119631
0.408000,0.000000,0.037358,0.000000,0.095472,0.000000,0.000000,-0.006399,0.029396,-0.000092,0.091465,0.001525,0.007855,-0.016740,0.275586,-0.003549,0.709447,0.000877,-0.007095,1.302300,1.608113,0.014164,0.633991,-0.015381,-0.077538,0.525429,1.539626,-0.015438,3.376255,-0.066223,0.120012
0.412000,0.000000,0.038515,0.000000,0.098427,0.000000,0.000000,-0.006460,0.030514,-0.000107,0.094336,0.001528,0.007828,-0.014631,0.281705,-0.003608,0.722915,0.000614,-0.006586,1.311892,1.614424,0.015687,0.645707,-0.015372,-0.077339,0.525540,1.523874,-0.014019,3.370306,-0.064100,0.119856
0.416000,0.000000,0.039692,0.000000,0.101434,0.000000,0.000000,-0.006514,0.031656,-0.000121,0.097261,0.001529,0.007803,-0.012526,0.287758,-0.003662,0.736354,0.000359,-0.006078,1.319800,1.619937,0.017224,0.657002,-0.015354,-0.077161,0.523983,1.506669,-0.012631,3.362372,-0.061773,0.119189
0.420000,0.000000,0.040888,0.000000,0.104492,0.000000,0.000000,-0.006558,0.032822,-0.000136,0.100240,0.001530,0.007780,-0.010431,0.293738,-0.003711,0.749756,0.000115,-0.005575,1.326040,1.624700,0.018774,0.667884,-0.015327,-0.077002,0.520768,1.488081,-0.011287,3.352478,-0.059255,0.118040
0.424000,0.000000,0.042104,0.000000,0.107600,0.000000,0.000000,-0.006595,0.034011,-0.000151,0.103273,0.001530,0.007759,-0.008352,0.299640,-0.003754,0.763114,-0.000119,-0.005077,1.330631,1.628769,0.020334,0.678358,-0.015293,-0.076863,0.515913,1.468184,-0.010000,3.340650,-0.056558,0.116436
0.428000,0.000000,0.043341,0.000000,0.110759,0.000000,0.000000,-0.006623,0.035224,-0.000166,0.106358,0.001529,0.007740,-0.006298,0.305460,-0.003793,0.776419,-0.000342,-0.004586,1.333599,1.632199,0.021904,0.688434,-0.015251,-0.076742,0.509441,1.447052,-0.008784,3.326912,-0.053695,0.114406
0.432000,0.000000,0.044596,0.000000,0.113969,0.000000,0.000000,-0.006643,0.036461,-0.000181,0.109497,0.001527,0.007723,-0.004273,0.311192,-0.003827,0.789665,-0.000553,-0.004104,1.334974,1.635049,0.023481,0.698120,-0.015201,-0.076640,0.501383,1.424766,-0.007651,3.311292,-0.050679,0.111973
0.436000,0.000000,0.045872,0.000000,0.117228,0.000000,0.000000,-0.006655,0.037719,-0.000197,0.112689,0.001524,0.007708,-0.002284,0.316833,-0.003856,0.802843,-0.000751,-0.003633,1.334791,1.637376,0.025064,0.707429,-0.015146,-0.076555,0.491774,1.401405,-0.006613,3.293814,-0.047524,0.109163
0.440000,0.000000,0.047167,0.000000,0.120538,0.000000,0.000000,-0.006660,0.039001,-0.000212,0.115933,0.001521,0.007695,-0.000337,0.322377,-0.003882,0.815947,-0.000936,-0.003174,1.333091,1.639243,0.026653,0.716373,-0.015085,-0.076487,0.480655,1.377055,-0.005681,3.274504,-0.044246,0.105995
0.444000,0.000000,0.048481,0.000000,0.123897,0.000000,0.000000,-0.006656,0.040304,-0.000228,0.119229,0.001517,0.007683,0.001561,0.327822,-0.003904,0.828969,-0.001108,-0.002729,1.329917,1.640712,0.028246,0.724966,-0.015018,-0.076435,0.468075,1.351800,-0.004866,3.253388,-0.040858,0.102486
0.448000,0.000000,0.049815,0.000000,0.127306,0.000000,0.000000,-0.006645,0.041629,-0.000244,0.122577,0.001512,0.007674,0.003406,0.333164,-0.003923,0.841902,-0.001265,-0.002298,1.325319,1.641844,0.029842,0.733222,-0.014947,-0.076399,0.454084,1.325726,-0.004177,3.230493,-0.037377,0.098654
0.452000,0.000000,0.051168,0.000000,0.130764,0.000000,0.000000,-0.006627,0.042974,-0.000259,0.125977,0.001506,0.007665,0.005191,0.338399,-0.003940,0.854739,-0.001409,-0.001883,1.319350,1.642703,0.031442,0.741159,-0.014872,-0.076377,0.438741,1.298922,-0.003623,3.205846,-0.033817,0.094509
0.456000,0.000000,0.052541,0.000000,0.134270,0.000000,0.000000,-0.006602,0.044341,-0.000275,0.129428,0.001500,0.007659,0.006912,0.343526,-0.003954,0.867474,-0.001538,-0.001486,1.312066,1.643354,0.033046,0.748793,-0.014793,-0.076369,0.422107,1.271474,-0.003210,3.179476,-0.030194,0.090065
0.460000,0.000000,0.053932,0.000000,0.137826,0.000000,0.000000,-0.006570,0.045727,-0.000291,0.132929,0.001494,0.007654,0.008563,0.348542,-0.003968,0.880098,-0.001652,-0.001107,1.303529,1.643859,0.034653,0.756143,-0.014712,-0.076374,0.404247,1.243472,-0.002946,3.151413,-0.026523,0.085333
0.464000,0.000000,0.055342,0.000000,0.141429,0.000000,0.000000,-0.006532,0.047134,-0.000307,0.136481,0.001487,0.007651,0.010140,0.353444,-0.003981,0.892606,-0.001751,-0.000748,1.293803,1.644283,0.036264,0.763229,-0.014629,-0.076391,0.385232,1.215004,-0.002835,3.121690,-0.022821,0.080322
0.468000,0.000000,0.056771,0.000000,0.145080,0.000000,0.000000,-0.006488,0.048560,-0.000323,0.140082,0.001480,0.007649,0.011638,0.358231,-0.003994,0.904990,-0.001836,-0.000409,1.282956,1.644687,0.037879,0.770070,-0.014544,-0.076419,0.365133,1.186158,-0.002881,3.090340,-0.019103,0.075045
0.472000,0.000000,0.058218,0.000000,0.148779,0.000000,0.000000,-0.006438,0.050004,-0.000339,0.143733,0.001472,0.007648,0.013053,0.362903,-0.004007,0.917246,-0.001905,-0.000092,1.271057,1.645135,0.039501,0.776688,-0.014458,-0.076457,0.344026,1.157020,-0.003088,3.057402,-0.015384,0.069512
0.476000,0.000000,0.059684,0.000000,0.152525,0.000000,0.000000,-0.006382,0.051467,-0.000355,0.147432,0.001464,0.007648,0.014381,0.367457,-0.004022,0.929366,-0.001959,0.000202,1.258181,1.645686,0.041129,0.783106,-0.014372,-0.076504,0.321990,1.127677,-0.003458,3.022913,-0.011681,0.063738
0.480000,0.000000,0.061168,0.000000,0.156317,0.000000,0.000000,-0.006321,0.052948,-0.000371,0.151179,0.001457,0.007650,0.015619,0.371893,-0.004038,0.941343,-0.001999,0.000473,1.244404,1.646402,0.042767,0.789346,-0.014287,-0.076558,0.299106,1.098212,-0.003990,2.986915,-0.008008,0.057737
0.484000,0.000000,0.062670,0.000000,0.160156,0.000000,0.000000,-0.006256,0.054447,-0.000387,0.154974,0.001448,0.007653,0.016764,0.376212,-0.004057,0.953174,-0.002024,0.000719,1.229803,1.647339,0.044414,0.795431,-0.014202,-0.076620,0.275455,1.068708,-0.004685,2.949452,-0.004381,0.051526
0.488000,0.000000,0.064190,0.000000,0.164040,0.000000,0.000000,-0.006186,0.055962,-0.000404,0.158816,0.001440,0.007656,0.017812,0.380413,-0.004080,0.964851,-0.002034,0.000939,1.214458,1.648555,0.046075,0.801385,-0.014118,-0.076687,0.251123,1.039245,-0.005542,2.910569,-0.000814,0.045122
0.492000,0.000000,0.065727,0.000000,0.167970,0.000000,0.000000,-0.006113,0.057494,-0.000420,0.162704,0.001432,0.007661,0.018761,0.384496,-0.004106,0.976368,-0.002031,0.001134,1.198452,1.650104,0.047750,0.807234,-0.014037,-0.076759,0.226194,1.009902,-0.006556,2.870313,0.002680,0.038546
0.496000,0.000000,0.067283,0.000000,0.171944,0.000000,0.000000,-0.006035,0.059042,-0.000437,0.166638,0.001424,0.007666,0.019610,0.388462,-0.004136,0.987722,-0.002013,0.001302,1.181867,1.652038,0.049442,0.813001,-0.013957,-0.076834,0.200758,0.980752,-0.007725,2.828735,0.006085,0.031819
0.500000,0.000000,0.068855,0.000000,0.175963,0.000000,0.000000,-0.005955,0.060605,-0.000453,0.170617,0.001416,0.007671,0.020355,0.392312,-0.004171,0.998906,-0.001982,0.001442,1.164788,1.654407,0.051155,0.818711,-0.013881,-0.076912,0.174901,0.951868,-0.009042,2.785884,0.009388,0.024963
0.504000,0.000000,0.070445,0.000000,0.180025,0.000000,0.000000,-0.005872,0.062184,-0.000470,0.174640,0.001408,0.007678,0.020997,0.396047,-0.004212,1.009916,-0.001938,0.001555,1.147300,1.657258,0.052891,0.824391,-0.013809,-0.076990,0.148712,0.923318,-0.010502,2.741811,0.012578,0.018003
0.508000,0.000000,0.072051,0.000000,0.184131,0.000000,0.000000,-0.005786,0.063777,-0.000487,0.178707,0.001401,0.007684,0.021532,0.399669,-0.004260,1.020746,-0.001881,0.001639,1.129488,1.660635,0.054654,0.830064,-0.013740,-0.077069,0.122280,0.895168,-0.012096,2.696569,0.015641,0.010964
0.512000,0.000000,0.073674,0.000000,0.188279,0.000000,0.000000,-0.005699,0.065385,-0.000504,0.182816,0.001393,0.007691,0.021962,0.403180,-0.004314,1.031393,-0.001812,0.001696,1.111438,1.664579,0.056446,0.835757,-0.013675,-0.077146,0.095695,0.867477,-0.013817,2.650211,0.018567,0.003870
0.516000,0.000000,0.075314,0.000000,0.192469,0.000000,0.000000,-0.005611,0.067006,-0.000522,0.186968,0.001386,0.007698,0.022285,0.406582,-0.004375,1.041851,-0.001732,0.001723,1.093236,1.669129,0.058271,0.841494,-0.013615,-0.077220,0.069047,0.840304,-0.015653,2.602790,0.021345,-0.003253
0.520000,0.000000,0.076970,0.000000,0.196701,0.000000,0.000000,-0.005521,0.068641,-0.000539,0.191161,0.001379,0.007705,0.022502,0.409876,-0.004443,1.052118,-0.001641,0.001722,1.074967,1.674320,0.060132,0.847301,-0.013560,-0.077291,0.042423,0.813701,-0.017595,2.554358,0.023964,-0.010379
0.524000,0.000000,0.078642,0.000000,0.200974,0.000000,0.000000,-0.005430,0.070288,-0.000557,0.195395,0.001373,0.007712,0.022612,0.413065,-0.004520,1.062188,-0.001540,0.001693,1.056717,1.680183,0.062035,0.853203,-0.013510,-0.077358,0.015914,0.787715,-0.019630,2.504969,0.026416,-0.017485
0.528000,0.000000,0.080330,0.000000,0.205287,0.000000,0.000000,-0.005340,0.071948,-0.000576,0.199668,0.001367,0.007719,0.022617,0.416151,-0.004605,1.072059,-0.001429,0.001635,1.038569,1.686746,0.063981,0.859222,-0.013466,-0.077418,-0.010394,0.762391,-0.021744,2.454675,0.028692,-0.024546
0.532000,0.000000,0.082033,0.000000,0.209639,0.000000,0.000000,-0.005250,0.073620,-0.000594,0.203981,0.001362,0.007725,0.022517,0.419139,-0.004699,1.081726,-0.001310,0.001549,1.020606,1.694034,0.065976,0.865384,-0.013428,-0.077472,-0.036414,0.737768,-0.023925,2.403529,0.030785,-0.031537
0.536000,0.000000,0.083751,0.000000,0.214030,0.000000,0.000000,-0.005160,0.075304,-0.000613,0.208331,0.001357,0.007731,0.022314,0.422029,-0.004801,1.091187,-0.001183,0.001435,1.002909,1.702067,0.068022,0.871711,-0.013396,-0.077517,-0.062061,0.713880,-0.026157,2.351582,0.032688,-0.038436
0.540000,0.000000,0.085484,0.000000,0.218460,0.000000,0.000000,-0.005072,0.076999,-0.000633,0.212719,0.001352,0.007737,0.022009,0.424826,-0.004912,1.100438,-0.001048,0.001294,0.985558,1.710863,0.070124,0.878225,-0.013371,-0.077553,-0.087252,0.690755,-0.028425,2.298885,0.034395,-0.045222
0.544000,0.000000,0.087232,0.000000,0.222927,0.000000,0.000000,-0.004984,0.078705,-0.000653,0.217143,0.001348,0.007741,0.021605,0.427533,-0.005033,1.109477,-0.000907,0.001125,0.968631,1.720435,0.072286,0.884950,-0.013351,-0.077579,-0.111905,0.668417,-0.030714,2.245487,0.035901,-0.051872
0.548000,0.000000,0.088995,0.000000,0.227430,0.000000,0.000000,-0.004899,0.080422,-0.000673,0.221603,0.001345,0.007746,0.021104,0.430152,-0.005162,1.118300,-0.000761,0.000931,0.952203,1.730792,0.074511,0.891906,-0.013339,-0.077594,-0.135941,0.646886,-0.033005,2.191440,0.037203,-0.058368
0.552000,0.000000,0.090771,0.000000,0.231970,0.000000,0.000000,-0.004816,0.082149,-0.000694,0.226098,0.001342,0.007749,0.020509,0.432687,-0.005301,1.126906,-0.000610,0.000710,0.936347,1.741939,0.076802,0.899113,-0.013333,-0.077597,-0.159284,0.626175,-0.035284,2.136790,0.038298,-0.064690
0.556000,0.000000,0.092561,0.000000,0.236546,0.000000,0.000000,-0.004736,0.083886,-0.000716,0.230627,0.001340,0.007751,0.019822,0.435141,-0.005449,1.135292,-0.000455,0.000465,0.921133,1.753880,0.079165,0.906591,-0.013334,-0.077587,-0.181858,0.606294,-0.037532,2.081586,0.039182,-0.070820
0.560000,0.000000,0.094365,0.000000,0.241156,0.000000,0.000000,-0.004658,0.085632,-0.000738,0.235188,0.001339,0.007752,0.019046,0.437518,-0.005605,1.143457,-0.000297,0.000195,0.906630,1.766612,0.081600,0.914358,-0.013341,-0.077563,-0.203594,0.587244,-0.039733,2.025874,0.039856,-0.076741
0.564000,0.000000,0.096182,0.000000,0.245799,0.000000,0.000000,-0.004584,0.087388,-0.000761,0.239782,0.001338,0.007753,0.018186,0.439820,-0.005771,1.151397,-0.000136,-0.000098,0.892901,1.780129,0.084113,0.922431,-0.013355,-0.077524,-0.224423,0.569026,-0.041868,1.969701,0.040319,-0.082436
0.568000,0.000000,0.098012,0.000000,0.250476,0.000000,0.000000,-0.004514,0.089153,-0.000784,0.244407,0.001338,0.007752,0.017245,0.442052,-0.005944,1.159111,0.000025,-0.000413,0.880007,1.794423,0.086706,0.930827,-0.013376,-0.077470,-0.244281,0.551633,-0.043922,1.913110,0.040572,-0.087891
0.572000,0.000000,0.099855,0.000000,0.255185,0.000000,0.000000,-0.004447,0.090927,-0.000809,0.249062,0.001338,0.007749,0.016227,0.444216,-0.006126,1.166599,0.000188,-0.000750,0.868007,1.809480,0.089381,0.939561,-0.013404,-0.077400,-0.263107,0.535052,-0.045876,1.856145,0.040617,-0.093091
0.576000,0.000000,0.101710,0.000000,0.259926,0.000000,0.000000,-0.004385,0.092709,-0.000834,0.253746,0.001339,0.007745,0.015137,0.446316,-0.006315,1.173858,0.000350,-0.001107,0.856954,1.825284,0.092141,0.948646,-0.013438,-0.077313,-0.280844,0.519269,-0.047716,1.798849,0.040455,-0.098022
0.580000,0.000000,0.103577,0.000000,0.264697,0.000000,0.000000,-0.004328,0.094499,-0.000859,0.258459,0.001341,0.007740,0.013978,0.448355,-0.006511,1.180887,0.000511,-0.001483,0.846897,1.841816,0.094989,0.958096,-0.013478,-0.077208,-0.297440,0.504262,-0.049423,1.741263,0.040092,-0.102672
0.584000,0.000000,0.105456,0.000000,0.269499,0.000000,0.000000,-0.004275,0.096298,-0.000886,0.263200,0.001344,0.007733,0.012756,0.450336,-0.006713,1.187685,0.000670,-0.001878,0.837885,1.859052,0.097925,0.967921,-0.013524,-0.077086,-0.312845,0.490006,-0.050984,1.683428,0.039529,-0.107028
0.588000,0.000000,0.107346,0.000000,0.274329,0.000000,0.000000,-0.004227,0.098104,-0.000913,0.267967,0.001347,0.007725,0.011475,0.452261,-0.006921,1.194252,0.000826,-0.002289,0.829957,1.876967,0.100953,0.978132,-0.013577,-0.076944,-0.327014,0.476471,-0.052384,1.625381,0.038775,-0.111080
0.592000,0.000000,0.109247,0.000000,0.279187,0.000000,0.000000,-0.004184,0.099918,-0.000942,0.272760,0.001350,0.007715,0.010140,0.454134,-0.007134,1.200586,0.000979,-0.002716,0.823153,1.895532,0.104073,0.988737,-0.013635,-0.076784,-0.339909,0.463624,-0.053608,1.567160,0.037833,-0.114817
0.596000,0.000000,0.111159,0.000000,0.284073,0.000000,0.000000,-0.004147,0.101739,-0.000971,0.277578,0.001355,0.007703,0.008758,0.455957,-0.007352,1.206687,0.001127,-0.003157,0.817506,1.914713,0.107285,0.999745,-0.013699,-0.076604,-0.351492,0.451427,-0.054644,1.508802,0.036710,-0.118229
0.600000,0.000000,0.113081,0.000000,0.288985,0.000000,0.000000,-0.004116,0.103567,-0.001001,0.282419,0.001359,0.007689,0.007332,0.457733,-0.007573,1.212555,0.001271,-0.003611,0.813045,1.934478,0.110591,1.011160,-0.013767,-0.076404,-0.361733,0.439838,-0.055480,1.450340,0.035416,-0.121309
0.604000,0.000000,0.115013,0.000000,0.293922,0.000000,0.000000,-0.004090,0.105402,-0.001032,0.287283,0.001365,0.007674,0.005869,0.459465,-0.007798,1.218188,0.001409,-0.004077,0.809794,1.954789,0.113990,1.022987,-0.013841,-0.076184,-0.370605,0.428812,-0.056105,1.391807,0.033956,-0.124048
0.608000,0.000000,0.116955,0.000000,0.298884,0.000000,0.000000,-0.004070,0.107244,-0.001063,0.292170,0.001371,0.007656,0.004373,0.461153,-0.008024,1.223588,0.001541,-0.004554,0.807775,1.975606,0.117482,1.035230,-0.013919,-0.075944,-0.378086,0.418301,-0.056510,1.333236,0.032342,-0.126441
0.612000,0.000000,0.118906,0.000000,0.303870,0.000000,0.000000,-0.004056,0.109093,-0.001096,0.297077,0.001377,0.007637,0.002851,0.462800,-0.008251,1.228753,0.001666,-0.005039,0.807002,1.996889,0.121066,1.047889,-0.014001,-0.075683,-0.384161,0.408255,-0.056687,1.274655,0.030581,-0.128481
0.616000,0.000000,0.120866,0.000000,0.308879,0.000000,0.000000,-0.004049,0.110948,-0.001130,0.302004,0.001384,0.007616,0.001309,0.464409,-0.008478,1.233685,0.001783,-0.005532,0.807486,2.018593,0.124742,1.060965,-0.014087,-0.075401,-0.388816,0.398619,-0.056630,1.216093,0.028684,-0.130164
0.620000,0.000000,0.122834,0.000000,0.313910,0.000000,0.000000,-0.004047,0.112810,-0.001164,0.306951,0.001392,0.007592,-0.000249,0.465979,-0.008704,1.238382,0.001893,-0.006031,0.809235,2.040675,0.128508,1.074457,-0.014177,-0.075099,-0.392044,0.389338,-0.056332,1.157577,0.026662,-0.131486
0.624000,0.000000,0.124811,0.000000,0.318961,0.000000,0.000000,-0.004052,0.114678,-0.001199,0.311916,0.001399,0.007567,-0.001817,0.467513,-0.008928,1.242846,0.001995,-0.006534,0.812249,2.063088,0.132361,1.088362,-0.014269,-0.074775,-0.393842,0.380353,-0.055790,1.099130,0.024526,-0.132445
0.628000,0.000000,0.126795,0.000000,0.324033,0.000000,0.000000,-0.004064,0.116551,-0.001236,0.316897,0.001408,0.007540,-0.003387,0.469012,-0.009150,1.247077,0.002087,-0.007041,0.816526,2.085784,0.136300,1.102676,-0.014365,-0.074431,-0.394214,0.371604,-0.055002,1.040777,0.022287,-0.133040
0.632000,0.000000,0.128787,0.000000,0.329123,0.000000,0.000000,-0.004081,0.118431,-0.001273,0.321896,0.001416,0.007510,-0.004956,0.470477,-0.009368,1.251074,0.002170,-0.007550,0.822058,2.108714,0.140322,1.117393,-0.014462,-0.074067,-0.393166,0.363030,-0.053967,0.982538,0.019957,-0.133270
0.636000,0.000000,0.130787,0.000000,0.334232,0.000000,0.000000,-0.004105,0.120317,-0.001311,0.326910,0.001425,0.007479,-0.006518,0.471907,-0.009581,1.254839,0.002244,-0.008059,0.828835,2.131830,0.144423,1.132506,-0.014561,-0.073681,-0.390709,0.354569,-0.052687,0.924434,0.017549,-0.133136
0.640000,0.000000,0.132792,0.000000,0.339358,0.000000,0.000000,-0.004135,0.122208,-0.001350,0.331938,0.001434,0.007446,-0.008066,0.473304,-0.009788,1.258373,0.002308,-0.008567,0.836839,2.155082,0.148600,1.148006,-0.014662,-0.073276,-0.386861,0.346156,-0.051163,0.866482,0.015075,-0.132640
0.644000,0.000000,0.134804,0.000000,0.344500,0.000000,0.000000,-0.004171,0.124104,-0.001389,0.336980,0.001443,0.007410,-0.009595,0.474667,-0.009988,1.261675,0.002362,-0.009072,0.846050,2.178420,0.152850,1.163884,-0.014763,-0.072851,-0.381643,0.337730,-0.049400,0.808698,0.012548,-0.131786
0.648000,0.000000,0.136823,0.000000,0.349658,0.000000,0.000000,-0.004213,0.126006,-0.001430,0.342034,0.001453,0.007373,-0.011100,0.475996,-0.010181,1.264747,0.002406,-0.009573,0.856444,2.201793,0.157167,1.180129,-0.014865,-0.072406,-0.375080,0.329225,-0.047404,0.751098,0.009980,-0.130576
0.652000,0.000000,0.138846,0.000000,0.354829,0.000000,0.000000,-0.004261,0.127914,-0.001471,0.347100,0.001463,0.007333,-0.012576,0.477291,-0.010365,1.267589,0.002440,-0.010069,0.867991,2.225153,0.161548,1.196727,-0.014967,-0.071941,-0.367203,0.320579,-0.045181,0.693695,0.007385,-0.129017
0.656000,0.000000,0.140875,0.000000,0.360014,0.000000,0.000000,-0.004315,0.129826,-0.001513,0.352177,0.001472,0.007292,-0.014017,0.478551,-0.010540,1.270202,0.002463,-0.010558,0.880658,2.248449,0.165987,1.213666,-0.015069,-0.071459,-0.358045,0.311727,-0.042742,0.636500,0.004776,-0.127114
0.660000,0.000000,0.142909,0.000000,0.365211,0.000000,0.000000,-0.004374,0.131743,-0.001556,0.357264,0.001482,0.007248,-0.015418,0.479774,-0.010704,1.272587,0.002475,-0.011039,0.894409,2.271632,0.170479,1.230931,-0.015169,-0.070957,-0.347646,0.302609,-0.040096,0.579524,0.002165,-0.124874
0.664000,0.000000,0.144947,0.000000,0.370419,0.000000,0.000000,-0.004440,0.133665,-0.001599,0.362359,0.001492,0.007203,-0.016775,0.480961,-0.010858,1.274745,0.002477,-0.011510,0.909203,2.294656,0.175018,1.248505,-0.015269,-0.070438,-0.336049,0.293162,-0.037256,0.522775,-0.000434,-0.122306
0.668000,0.000000,0.146989,0.000000,0.375638,0.000000,0.000000,-0.004510,0.135592,-0.001643,0.367463,0.001502,0.007156,-0.018082,0.482108,-0.010999,1.276677,0.002469,-0.011971,0.924996,2.317473,0.179600,1.266371,-0.015367,-0.069902,-0.323300,0.283328,-0.034234,0.466260,-0.003008,-0.119418
0.672000,0.000000,0.149034,0.000000,0.380865,0.000000,0.000000,-0.004585,0.137523,-0.001687,0.372574,0.001512,0.007107,-0.019336,0.483216,-0.011128,1.278384,0.002451,-0.012419,0.941741,2.340039,0.184218,1.284512,-0.015463,-0.069350,-0.309450,0.273048,-0.031046,0.409986,-0.005546,-0.116220
0.676000,0.000000,0.151083,0.000000,0.386101,0.000000,0.000000,-0.004666,0.139459,-0.001732,0.377692,0.001522,0.007056,-0.020532,0.484280,-0.011244,1.279867,0.002422,-0.012855,0.959386,2.362308,0.188866,1.302907,-0.015556,-0.068781,-0.294553,0.262267,-0.027706,0.353958,-0.008034,-0.112724
0.680000,0.000000,0.153135,0.000000,0.391344,0.000000,0.000000,-0.004751,0.141399,-0.001777,0.382814,0.001531,0.007004,-0.021666,0.485301,-0.011346,1.281126,0.002384,-0.013276,0.977877,2.384240,0.193538,1.321536,-0.015647,-0.068197,-0.278666,0.250932,-0.024234,0.298178,-0.010461,-0.108940
0.684000,0.000000,0.155189,0.000000,0.396594,0.000000,0.000000,-0.004840,0.143342,-0.001823,0.387941,0.001541,0.006950,-0.022734,0.486274,-0.011434,1.282163,0.002336,-0.013681,0.997160,2.405794,0.198228,1.340379,-0.015735,-0.067600,-0.261851,0.238993,-0.020646,0.242650,-0.012815,-0.104882
0.688000,0.000000,0.157245,0.000000,0.401848,0.000000,0.000000,-0.004933,0.145290,-0.001868,0.393072,0.001550,0.006894,-0.023733,0.487199,-0.011507,1.282979,0.002279,-0.014070,1.017173,2.426933,0.202928,1.359414,-0.015819,-0.066988,-0.244172,0.226401,-0.016962,0.187374,-0.015084,-0.100562
0.692000,0.000000,0.159303,0.000000,0.407107,0.000000,0.000000,-0.005031,0.147241,-0.001915,0.398205,0.001559,0.006837,-0.024659,0.488071,-0.011565,1.283575,0.002213,-0.014442,1.037856,2.447619,0.207633,1.378618,-0.015899,-0.066364,-0.225695,0.213112,-0.013201,0.132352,-0.017258,-0.095995
0.696000,0.000000,0.161362,0.000000,0.412369,0.000000,0.000000,-0.005131,0.149195,-0.001961,0.403341,0.001567,0.006779,-0.025509,0.488888,-0.011608,1.283952,0.002139,-0.014794,1.059145,2.467821,0.212337,1.397968,-0.015976,-0.065728,-0.206490,0.199085,-0.009386,0.077582,-0.019326,-0.091194
0.700000,0.000000,0.163421,0.000000,0.417633,0.000000,0.000000,-0.005235,0.151152,-0.002008,0.408477,0.001576,0.006719,-0.026281,0.489647,-0.011636,1.284110,0.002057,-0.015128,1.080974,2.487508,0.217032,1.417440,-0.016048,-0.065081,-0.186628,0.184283,-0.005536,0.023064,-0.021278,-0.086175
0.704000,0.000000,0.165482,0.000000,0.422898,0.000000,0.000000,-0.005342,0.153113,-0.002054,0.413613,0.001584,0.006657,-0.026972,0.490345,-0.011648,1.284051,0.001967,-0.015441,1.103277,2.506650,0.221713,1.437010,-0.016116,-0.064424,-0.166183,0.168672,-0.001675,-0.031206,-0.023105,-0.080955
0.708000,0.000000,0.167542,0.000000,0.428163,0.000000,0.000000,-0.005452,0.155076,-0.002101,0.418749,0.001591,0.006595,-0.027581,0.490978,-0.011645,1.283776,0.001870,-0.015733,1.125984,2.525225,0.226373,1.456652,-0.016178,-0.063758,-0.145232,0.152222,0.002175,-0.085228,-0.024799,-0.075550
0.712000,0.000000,0.169602,0.000000,0.433427,0.000000,0.000000,-0.005563,0.157041,-0.002147,0.423883,0.001598,0.006531,-0.028104,0.491543,-0.011626,1.283286,0.001767,-0.016004,1.149026,2.543208,0.231007,1.476343,-0.016236,-0.063084,-0.123852,0.134908,0.005993,-0.139008,-0.026350,-0.069976
0.716000,0.000000,0.171661,0.000000,0.438689,0.000000,0.000000,-0.005677,0.159009,-0.002194,0.429014,0.001605,0.006467,-0.028541,0.492037,-0.011592,1.282582,0.001658,-0.016252,1.172332,2.560582,0.235608,1.496056,-0.016289,-0.062402,-0.102122,0.116709,0.009754,-0.192548,-0.027752,-0.064251
0.720000,0.000000,0.173719,0.000000,0.443948,0.000000,0.000000,-0.005792,0.160978,-0.002240,0.434142,0.001612,0.006401,-0.028891,0.492456,-0.011544,1.281664,0.001543,-0.016478,1.195830,2.577330,0.240171,1.515766,-0.016336,-0.061714,-0.080122,0.097608,0.013437,-0.245852,-0.028999,-0.058393
0.724000,0.000000,0.175775,0.000000,0.449203,0.000000,0.000000,-0.005908,0.162948,-0.002286,0.439266,0.001617,0.006335,-0.029152,0.492796,-0.011481,1.280534,0.001424,-0.016679,1.219449,2.593439,0.244690,1.535448,-0.016379,-0.061022,-0.057933,0.077592,0.017019,-0.298926,-0.030083,-0.052422
0.728000,0.000000,0.177830,0.000000,0.454453,0.000000,0.000000,-0.006025,0.164920,-0.002332,0.444385,0.001623,0.006268,-0.029324,0.493054,-0.011403,1.279193,0.001301,-0.016858,1.243117,2.608899,0.249160,1.555076,-0.016415,-0.060325,-0.035638,0.056656,0.020477,-0.351773,-0.031000,-0.046354
0.732000,0.000000,0.179882,0.000000,0.459697,0.000000,0.000000,-0.006143,0.166893,-0.002377,0.449498,0.001628,0.006200,-0.029407,0.493226,-0.011313,1.277641,0.001175,-0.017012,1.266762,2.623705,0.253578,1.574623,-0.016447,-0.059624,-0.013317,0.034794,0.023790,-0.404398,-0.031746,-0.040211
0.736000,0.000000,0.181931,0.000000,0.464934,0.000000,0.000000,-0.006260,0.168866,-0.002422,0.454604,0.001632,0.006132,-0.029401,0.493308,-0.011209,1.275879,0.001047,-0.017141,1.290313,2.637853,0.257937,1.594066,-0.016472,-0.058922,0.008946,0.012011,0.026937,-0.456807,-0.032316,-0.034010
0.740000,0.000000,0.183977,0.000000,0.470163,0.000000,0.000000,-0.006378,0.170839,-0.002467,0.459703,0.001636,0.006063,-0.029306,0.493296,-0.011094,1.273909,0.000916,-0.017247,1.313700,2.651344,0.262235,1.613378,-0.016493,-0.058219,0.031070,-0.011689,0.029897,-0.509002,-0.032708,-0.027772
0.744000,0.000000,0.186019,0.000000,0.475383,0.000000,0.000000,-0.006495,0.172812,-0.002511,0.464793,0.001639,0.005994,-0.029123,0.493188,-0.010966,1.271730,0.000785,-0.017327,1.336852,2.664181,0.266467,1.632534,-0.016507,-0.057515,0.052973,-0.036293,0.032650,-0.560990,-0.032920,-0.021517
0.748000,0.000000,0.188058,0.000000,0.480593,0.000000,0.000000,-0.006610,0.174785,-0.002554,0.469874,0.001642,0.005924,-0.028854,0.492979,-0.010829,1.269345,0.000653,-0.017383,1.359702,2.676371,0.270631,1.651512,-0.016517,-0.056812,0.074573,-0.061785,0.035177,-0.612774,-0.032950,-0.015264
0.752000,0.000000,0.190092,0.000000,0.485792,0.000000,0.000000,-0.006725,0.176756,-0.002597,0.474945,0.001644,0.005855,-0.028499,0.492666,-0.010682,1.266753,0.000521,-0.017414,1.382181,2.687923,0.274724,1.670285,-0.016521,-0.056111,0.095792,-0.088146,0.037462,-0.664357,-0.032798,-0.009033
0.756000,0.000000,0.192122,0.000000,0.490978,0.000000,0.000000,-0.006838,0.178725,-0.002639,0.480005,0.001646,0.005785,-0.028060,0.492245,-0.010527,1.263955,0.000390,-0.017421,1.404225,2.698851,0.278743,1.688832,-0.016520,-0.055413,0.116549,-0.115348,0.039487,-0.715743,-0.032465,-0.002845
0.760000,0.000000,0.194146,0.000000,0.496152,0.000000,0.000000,-0.006949,0.180693,-0.002681,0.485053,0.001647,0.005716,-0.027540,0.491713,-0.010364,1.260953,0.000261,-0.017403,1.425771,2.709172,0.282688,1.707129,-0.016514,-0.054718,0.136769,-0.143362,0.041238,-0.766934,-0.031952,0.003281
0.764000,0.000000,0.196165,0.000000,0.501312,0.000000,0.000000,-0.007057,0.182658,-0.002722,0.490089,0.001648,0.005646,-0.026941,0.491067,-0.010194,1.257747,0.000135,-0.017362,1.446756,2.718904,0.286557,1.725154,-0.016504,-0.054029,0.156374,-0.172155,0.042699,-0.817932,-0.031260,0.009324
0.768000,0.000000,0.198179,0.000000,0.506457,0.000000,0.000000,-0.007164,0.184621,-0.002763,0.495112,0.001648,0.005577,-0.026265,0.490305,-0.010020,1.254337,0.000012,-0.017297,1.467123,2.728069,0.290349,1.742886,-0.016489,-0.053344,0.175292,-0.201687,0.043861,-0.868738,-0.030392,0.015266
0.772000,0.000000,0.200186,0.000000,0.511585,0.000000,0.000000,-0.007267,0.186580,-0.002802,0.500120,0.001648,0.005508,-0.025515,0.489422,-0.009842,1.250725,-0.000108,-0.017208,1.486816,2.736693,0.294064,1.760306,-0.016469,-0.052667,0.193452,-0.231915,0.044710,-0.919352,-0.029352,0.021085
0.776000,0.000000,0.202186,0.000000,0.516697,0.000000,0.000000,-0.007367,0.188535,-0.002841,0.505113,0.001647,0.005439,-0.024694,0.488417,-0.009661,1.246912,-0.000222,-0.017098,1.505780,2.744803,0.297703,1.777393,-0.016446,-0.051996,0.210784,-0.262793,0.045239,-0.969773,-0.028145,0.026764
0.780000,0.000000,0.204179,0.000000,0.521792,0.000000,0.000000,-0.007463,0.190486,-0.002879,0.510091,0.001646,0.005371,-0.023807,0.487287,-0.009479,1.242897,-0.000332,-0.016965,1.523965,2.752429,0.301268,1.794129,-0.016418,-0.051333,0.227222,-0.294270,0.045441,-1.020000,-0.026774,0.032283
0.784000,0.000000,0.206165,0.000000,0.526867,0.000000,0.000000,-0.007556,0.192432,-0.002917,0.515052,0.001644,0.005304,-0.022857,0.486030,-0.009297,1.238682,-0.000435,-0.016811,1.541325,2.759604,0.304759,1.810497,-0.016388,-0.050680,0.242704,-0.326292,0.045309,-1.070027,-0.025247,0.037623
0.788000,0.000000,0.208144,0.000000,0.531923,0.000000,0.000000,-0.007645,0.194373,-0.002953,0.519996,0.001642,0.005237,-0.021847,0.484643,-0.009116,1.234268,-0.000532,-0.016636,1.557817,2.766362,0.308178,1.826481,-0.016354,-0.050036,0.257170,-0.358801,0.044839,-1.119852,-0.023569,0.042766
0.792000,0.000000,0.210114,0.000000,0.536958,0.000000,0.000000,-0.007730,0.196307,-0.002990,0.524921,0.001640,0.005171,-0.020782,0.483125,-0.008938,1.229656,-0.000622,-0.016442,1.573399,2.772741,0.311530,1.842067,-0.016317,-0.049402,0.270562,-0.391737,0.044031,-1.169468,-0.021747,0.047695
0.796000,0.000000,0.212076,0.000000,0.541972,0.000000,0.000000,-0.007810,0.198236,-0.003025,0.529828,0.001637,0.005106,-0.019666,0.481474,-0.008764,1.224846,-0.000705,-0.016229,1.588036,2.778779,0.314816,1.857240,-0.016278,-0.048779,0.282829,-0.425036,0.042884,-1.218868,-0.019790,0.052392
0.800000,0.000000,0.214029,0.000000,0.546964,0.000000,0.000000,-0.007886,0.200157,-0.003059,0.534715,0.001634,0.005042,-0.018504,0.479690,-0.008596,1.219839,-0.000779,-0.015998,1.601695,2.784517,0.318042,1.871989,-0.016238,-0.048167,0.293921,-0.458632,0.041399,-1.268042,-0.017704,0.056841
0.804000,0.000000,0.215973,0.000000,0.551932,0.000000,0.000000,-0.007957,0.202071,-0.003093,0.539581,0.001631,0.004978,-0.017301,0.477771,-0.008434,1.214636,-0.000845,-0.015750,1.614349,2.789997,0.321211,1.886302,-0.016195,-0.047568,0.303793,-0.492456,0.039581,-1.316980,-0.015500,0.061027
0.808000,0.000000,0.217908,0.000000,0.556876,0.000000,0.000000,-0.008023,0.203977,-0.003127,0.544426,0.001628,0.004916,-0.016062,0.475715,-0.008281,1.209239,-0.000901,-0.015487,1.625973,2.795262,0.324327,1.900171,-0.016152,-0.046981,0.312404,-0.526438,0.037435,-1.365670,-0.013186,0.064933
0.812000,0.000000,0.219833,0.000000,0.561796,0.000000,0.000000,-0.008084,0.205875,-0.003160,0.549249,0.001624,0.004855,-0.014791,0.473524,-0.008137,1.203647,-0.000948,-0.015209,1.636547,2.800357,0.327398,1.913587,-0.016107,-0.046407,0.319718,-0.560504,0.034969,-1.414097,-0.010772,0.068546
0.816000,0.000000,0.221748,0.000000,0.566689,0.000000,0.000000,-0.008140,0.207763,-0.003192,0.554050,0.001620,0.004795,-0.013495,0.471197,-0.008003,1.197863,-0.000985,-0.014917,1.646055,2.805328,0.330428,1.926543,-0.016063,-0.045847,0.325704,-0.594581,0.032193,-1.462244,-0.008269,0.071851
0.820000,0.000000,0.223652,0.000000,0.571556,0.000000,0.000000,-0.008191,0.209642,-0.003223,0.558826,0.001616,0.004736,-0.012178,0.468733,-0.007882,1.191888,-0.001012,-0.014614,1.654488,2.810220,0.333423,1.939036,-0.016019,-0.045300,0.330332,-0.628593,0.029116,-1.510095,-0.005686,0.074837
0.824000,0.000000,0.225546,0.000000,0.576395,0.000000,0.000000,-0.008236,0.211510,-0.003255,0.563578,0.001612,0.004678,-0.010846,0.466133,-0.007773,1.185721,-0.001028,-0.014299,1.661838,2.815081,0.336391,1.951060,-0.015975,-0.044767,0.333582,-0.662464,0.025752,-1.557628,-0.003034,0.077492
0.828000,0.000000,0.227429,0.000000,0.581207,0.000000,0.000000,-0.008276,0.213368,-0.003286,0.568305,0.001608,0.004622,-0.009505,0.463399,-0.007678,1.179366,-0.001034,-0.013976,1.668102,2.819958,0.339338,1.962616,-0.015932,-0.044249,0.335435,-0.696117,0.022116,-1.604822,-0.000325,0.079804
0.832000,0.000000,0.229300,0.000000,0.585989,0.000000,0.000000,-0.008311,0.215214,-0.003316,0.573006,0.001604,0.004567,-0.008160,0.460531,-0.007599,1.172824,-0.001029,-0.013644,1.673285,2.824899,0.342273,1.973702,-0.015891,-0.043744,0.335878,-0.729475,0.018224,-1.651652,0.002430,0.081765
0.836000,0.000000,0.231160,0.000000,0.590742,0.000000,0.000000,-0.008340,0.217049,-0.003346,0.577681,0.001599,0.004513,-0.006817,0.457530,-0.007536,1.166095,-0.001012,-0.013305,1.677392,2.829950,0.345201,1.984319,-0.015852,-0.043254,0.334904,-0.762462,0.014092,-1.698091,0.005221,0.083365
0.840000,0.000000,0.233008,0.000000,0.595464,0.000000,0.000000,-0.008364,0.218871,-0.003376,0.582328,0.001596,0.004461,-0.005481,0.454398,-0.007490,1.159181,-0.000985,-0.012961,1.680436,2.835158,0.348133,1.994472,-0.015816,-0.042779,0.332510,-0.794999,0.009741,-1.744110,0.008034,0.084597
0.844000,0.000000,0.234843,0.000000,0.600155,0.000000,0.000000,-0.008383,0.220681,-0.003406,0.586947,0.001592,0.004410,-0.004158,0.451138,-0.007462,1.152085,-0.000946,-0.012614,1.682433,2.840571,0.351075,2.004164,-0.015783,-0.042318,0.328699,-0.827010,0.005189,-1.789679,0.010860,0.085455
0.848000,0.000000,0.236666,0.000000,0.604814,0.000000,0.000000,-0.008396,0.222477,-0.003436,0.591537,0.001588,0.004360,-0.002855,0.447751,-0.007453,1.144809,-0.000895,-0.012265,1.683403,2.846235,0.354037,2.013402,-0.015752,-0.041871,0.323478,-0.858422,0.000460,-1.834764,0.013685,0.085934
0.852000,0.000000,0.238477,0.000000,0.609440,0.000000,0.000000,-0.008404,0.224259,-0.003466,0.596098,0.001585,0.004312,-0.001575,0.444240,-0.007463,1.137353,-0.000834,-0.011914,1.683372,2.852193,0.357026,2.022194,-0.015726,-0.041438,0.316860,-0.889158,-0.004425,-1.879329,0.016500,0.086029
0.856000,0.000000,0.240274,0.000000,0.614033,0.000000,0.000000,-0.008407,0.226027,-0.003496,0.600628,0.001581,0.004265,-0.000326,0.440608,-0.007493,1.129721,-0.000761,-0.011565,1.682369,2.858491,0.360052,2.030549,-0.015705,-0.041020,0.308862,-0.919148,-0.009443,-1.923335,0.019292,0.085738
0.860000,0.000000,0.242058,0.000000,0.618593,0.000000,0.000000,-0.008406,0.227780,-0.003526,0.605128,0.001579,0.004220,0.000888,0.436857,-0.007543,1.121914,-0.000677,-0.011218,1.680428,2.865172,0.363124,2.038478,-0.015687,-0.040615,0.299510,-0.948319,-0.014569,-1.966743,0.022050,0.085060
0.864000,0.000000,0.243828,0.000000,0.623117,0.000000,0.000000,-0.008399,0.229518,-0.003556,0.609595,0.001576,0.004176,0.002061,0.432993,-0.007614,1.113936,-0.000582,-0.010875,1.677587,2.872276,0.366249,2.045993,-0.015676,-0.040223,0.288829,-0.976604,-0.019779,-2.009508,0.024763,0.083995
0.868000,0.000000,0.245585,0.000000,0.627607,0.000000,0.000000,-0.008388,0.231240,-0.003587,0.614031,0.001574,0.004133,0.003188,0.429018,-0.007706,1.105788,-0.000477,-0.010537,1.673888,2.879843,0.369438,2.053110,-0.015669,-0.039844,0.276854,-1.003936,-0.025047,-2.051586,0.027420,0.082545
0.872000,0.000000,0.247328,0.000000,0.632060,0.000000,0.000000,-0.008373,0.232946,-0.003618,0.618433,0.001572,0.004092,0.004263,0.424936,-0.007819,1.097474,-0.000361,-0.010207,1.669378,2.887912,0.372698,2.059842,-0.015669,-0.039477,0.263622,-1.030251,-0.030348,-2.092929,0.030012,0.080711
0.876000,0.000000,0.249057,0.000000,0.636478,0.000000,0.000000,-0.008353,0.234635,-0.003650,0.622802,0.001571,0.004052,0.005283,0.420751,-0.007953,1.088997,-0.000235,-0.009885,1.664106,2.896520,0.376039,2.066208,-0.015675,-0.039123,0.249177,-1.055488,-0.035657,-2.133487,0.032527,0.078498
0.880000,0.000000,0.250771,0.000000,0.640858,0.000000,0.000000,-0.008329,0.236308,-0.003682,0.627137,0.001571,0.004013,0.006242,0.416468,-0.008109,1.080360,-0.000099,-0.009573,1.658125,2.905700,0.379468,2.072226,-0.015687,-0.038779,0.233566,-1.079589,-0.040946,-2.173206,0.034957,0.075912
0.884000,0.000000,0.252470,0.000000,0.645202,0.000000,0.000000,-0.008302,0.237963,-0.003715,0.631436,0.001571,0.003976,0.007136,0.412092,-0.008285,1.071567,0.000047,-0.009273,1.651493,2.915485,0.382994,2.077914,-0.015707,-0.038447,0.216840,-1.102500,-0.046191,-2.212033,0.037292,0.072959
0.888000,0.000000,0.254155,0.000000,0.649507,0.000000,0.000000,-0.008272,0.239600,-0.003748,0.635700,0.001571,0.003939,0.007960,0.407627,-0.008483,1.062621,0.000202,-0.008985,1.644270,2.925905,0.386626,2.083296,-0.015734,-0.038124,0.199057,-1.124168,-0.051365,-2.249910,0.039524,0.069648
0.892000,0.000000,0.255824,0.000000,0.653774,0.000000,0.000000,-0.008238,0.241219,-0.003783,0.639928,0.001572,0.003904,0.008710,0.403079,-0.008701,1.053526,0.000365,-0.008712,1.636518,2.936988,0.390370,2.088391,-0.015769,-0.037810,0.180277,-1.144547,-0.056446,-2.286778,0.041644,0.065988
0.896000,0.000000,0.257479,0.000000,0.658002,0.000000,0.000000,-0.008201,0.242820,-0.003818,0.644119,0.001574,0.003870,0.009383,0.398453,-0.008939,1.044286,0.000536,-0.008455,1.628303,2.948759,0.394235,2.093224,-0.015811,-0.037505,0.160565,-1.163591,-0.061407,-2.322575,0.043644,0.061991
0.900000,0.000000,0.259118,0.000000,0.662191,0.000000,0.000000,-0.008162,0.244402,-0.003855,0.648273,0.001577,0.003837,0.009975,0.393753,-0.009196,1.034906,0.000715,-0.008214,1.619695,2.961241,0.398227,2.097819,-0.015862,-0.037207,0.139988,-1.181261,-0.066225,-2.357238,0.045518,0.057667
0.904000,0.000000,0.260742,0.000000,0.666340,0.000000,0.000000,-0.008121,0.245965,-0.003892,0.652388,0.001580,0.003804,0.010482,0.388987,-0.009473,1.025391,0.000902,-0.007992,1.610764,2.974455,0.402354,2.102202,-0.015921,-0.036916,0.118619,-1.197520,-0.070878,-2.390702,0.047260,0.053032
0.908000,0.000000,0.262350,0.000000,0.670449,0.000000,0.000000,-0.008078,0.247509,-0.003931,0.656466,0.001584,0.003773,0.010902,0.384159,-0.009767,1.015745,0.001095,-0.007790,1.601583,2.988418,0.406622,2.106399,-0.015989,-0.036631,0.096533,-1.212337,-0.075343,-2.422899,0.048863,0.048099
0.912000,0.000000,0.263942,0.000000,0.674518,0.000000,0.000000,-0.008034,0.249033,-0.003970,0.660504,0.001589,0.003742,0.011232,0.379276,-0.010079,1.005974,0.001294,-0.007608,1.592227,3.003146,0.411037,2.110436,-0.016065,-0.036350,0.073806,-1.225682,-0.079602,-2.453760,0.050323,0.042885
0.916000,0.000000,0.265518,0.000000,0.678546,0.000000,0.000000,-0.007988,0.250538,-0.004012,0.664504,0.001595,0.003712,0.011470,0.374343,-0.010407,0.996083,0.001498,-0.007448,1.582772,3.018652,0.415603,2.114342,-0.016150,-0.036073,0.050521,-1.237531,-0.083633,-2.483214,0.051636,0.037406
0.920000,0.000000,0.267078,0.000000,0.682534,0.000000,0.000000,-0.007942,0.252023,-0.004054,0.668463,0.001601,0.003683,0.011613,0.369367,-0.010751,0.986078,0.001708,-0.007310,1.573296,3.034945,0.420328,2.118146,-0.016245,-0.035799,0.026760,-1.247866,-0.087419,-2.511188,0.052798,0.031681
0.924000,0.000000,0.268622,0.000000,0.686480,0.000000,0.000000,-0.007895,0.253488,-0.004098,0.672382,0.001609,0.003654,0.011661,0.364353,-0.011110,0.975966,0.001921,-0.007196,1.563878,3.052033,0.425214,2.121875,-0.016348,-0.035526,0.002608,-1.256669,-0.090945,-2.537610,0.053805,0.025729
0.928000,0.000000,0.270150,0.000000,0.690384,0.000000,0.000000,-0.007849,0.254933,-0.004143,0.676260,0.001617,0.003625,0.011610,0.359307,-0.011482,0.965751,0.002139,-0.007107,1.554597,3.069920,0.430266,2.125561,-0.016461,-0.035254,-0.021849,-1.263929,-0.094195,-2.562403,0.054657,0.019571
0.932000,0.000000,0.271662,0.000000,0.694247,0.000000,0.000000,-0.007803,0.256357,-0.004190,0.680098,0.001626,0.003597,0.011462,0.354237,-0.011866,0.955442,0.002359,-0.007043,1.545533,3.088610,0.435488,2.129233,-0.016582,-0.034982,-0.046522,-1.269639,-0.097156,-2.585492,0.055352,0.013226
0.936000,0.000000,0.273157,0.000000,0.698069,0.000000,0.000000,-0.007757,0.257762,-0.004239,0.683893,0.001636,0.003569,0.011214,0.349147,-0.012261,0.945045,0.002582,-0.007005,1.536766,3.108101,0.440882,2.132920,-0.016713,-0.034707,-0.071323,-1.273796,-0.099818,-2.606799,0.055890,0.006718
0.940000,0.000000,0.274636,0.000000,0.701848,0.000000,0.000000,-0.007713,0.259145,-0.004289,0.687647,0.001647,0.003541,0.010867,0.344045,-0.012666,0.934568,0.002806,-0.006994,1.528376,3.128391,0.446451,2.136654,-0.016854,-0.034430,-0.096161,-1.276398,-0.102171,-2.626247,0.056270,0.000068
0.944000,0.000000,0.276098,0.000000,0.705585,0.000000,0.000000,-0.007671,0.260509,-0.004340,0.691359,0.001659,0.003513,0.010420,0.338936,-0.013080,0.924018,0.003032,-0.007009,1.520443,3.149476,0.452197,2.140465,-0.017003,-0.034149,-0.120947,-1.277452,-0.104208,-2.643755,0.056493,-0.006699
0.948000,0.000000,0.277544,0.000000,0.709280,0.000000,0.000000,-0.007631,0.261852,-0.004394,0.695029,0.001671,0.003485,0.009875,0.333827,-0.013501,0.913403,0.003258,-0.007052,1.513045,3.171346,0.458121,2.144383,-0.017162,-0.033862,-0.145591,-1.276964,-0.105923,-2.659246,0.056562,-0.013562
0.952000,0.000000,0.278974,0.000000,0.712933,0.000000,0.000000,-0.007593,0.263174,-0.004449,0.698656,0.001685,0.003456,0.009232,0.328724,-0.013928,0.902731,0.003484,-0.007123,1.506260,3.193994,0.464224,2.148439,-0.017329,-0.033570,-0.170003,-1.274946,-0.107312,-2.672639,0.056480,-0.020494
0.956000,0.000000,0.280387,0.000000,0.716544,0.000000,0.000000,-0.007557,0.264476,-0.004506,0.702240,0.001699,0.003428,0.008492,0.323632,-0.014360,0.892011,0.003709,-0.007222,1.500165,3.217407,0.470506,2.152662,-0.017506,-0.033270,-0.194095,-1.271414,-0.108376,-2.683855,0.056248,-0.027472
0.960000,0.000000,0.281783,0.000000,0.720113,0.000000,0.000000,-0.007526,0.265758,-0.004564,0.705781,0.001715,0.003398,0.007656,0.318559,-0.014796,0.881252,0.003933,-0.007348,1.494834,3.241572,0.476967,2.157082,-0.017691,-0.032961,-0.217780,-1.266385,-0.109114,-2.692813,0.055872,-0.034470
0.964000,0.000000,0.283163,0.000000,0.723639,0.000000,0.000000,-0.007497,0.267020,-0.004624,0.709279,0.001731,0.003369,0.006727,0.313509,-0.015233,0.870463,0.004156,-0.007503,1.490341,3.266473,0.483607,2.161730,-0.017885,-0.032643,-0.240971,-1.259880,-0.109528,-2.699434,0.055356,-0.041465
0.968000,0.000000,0.284527,0.000000,0.727124,0.000000,0.000000,-0.007473,0.268261,-0.004686,0.712734,0.001748,0.003338,0.005706,0.308489,-0.015672,0.859654,0.004375,-0.007686,1.486757,3.292093,0.490424,2.166632,-0.018088,-0.032314,-0.263585,-1.251924,-0.109625,-2.703639,0.054705,-0.048431
0.972000,0.000000,0.285874,0.000000,0.730567,0.000000,0.000000,-0.007453,0.269483,-0.004750,0.716146,0.001766,0.003307,0.004597,0.303504,-0.016110,0.848834,0.004592,-0.007897,1.484150,3.318413,0.497415,2.171818,-0.018299,-0.031973,-0.285541,-1.242544,-0.109410,-2.705349,0.053925,-0.055343
0.976000,0.000000,0.287205,0.000000,0.733968,0.000000,0.000000,-0.007437,0.270685,-0.004816,0.719514,0.001785,0.003275,0.003402,0.298560,-0.016546,0.838014,0.004806,-0.008135,1.482587,3.345414,0.504580,2.177315,-0.018518,-0.031618,-0.306760,-1.231767,-0.108892,-2.704486,0.053023,-0.062176
0.980000,0.000000,0.288520,0.000000,0.737328,0.000000,0.000000,-0.007427,0.271866,-0.004883,0.722839,0.001805,0.003242,0.002123,0.293663,-0.016980,0.827204,0.005015,-0.008401,1.482131,3.373072,0.511915,2.183150,-0.018745,-0.031250,-0.327165,-1.219626,-0.108081,-2.700974,0.052006,-0.068907
0.984000,0.000000,0.289818,0.000000,0.740646,0.000000,0.000000,-0.007422,0.273029,-0.004952,0.726121,0.001826,0.003207,0.000765,0.288818,-0.017409,0.816415,0.005221,-0.008693,1.482843,3.401367,0.519418,2.189348,-0.018980,-0.030867,-0.346685,-1.206154,-0.106991,-2.694735,0.050881,-0.075512
0.988000,0.000000,0.291101,0.000000,0.743924,0.000000,0.000000,-0.007422,0.274172,-0.005023,0.729360,0.001847,0.003172,-0.000668,0.284030,-0.017834,0.805657,0.005421,-0.009011,1.484778,3.430274,0.527084,2.195934,-0.019222,-0.030468,-0.365251,-1.191385,-0.105635,-2.685697,0.049657,-0.081966
0.992000,0.000000,0.292367,0.000000,0.747161,0.000000,0.000000,-0.007429,0.275297,-0.005095,0.732555,0.001869,0.003135,-0.002173,0.279304,-0.018253,0.794943,0.005616,-0.009355,1.487991,3.459769,0.534911,2.202931,-0.019471,-0.030052,-0.382798,-1.175356,-0.104029,-2.673784,0.048343,-0.088249
0.996000,0.000000,0.293618,0.000000,0.750358,0.000000,0.000000,-0.007441,0.276402,-0.005169,0.735708,0.001892,0.003097,-0.003746,0.274645,-0.018664,0.784285,0.005806,-0.009723,1.492532,3.489827,0.542894,2.210364,-0.019727,-0.029618,-0.399265,-1.158103,-0.102190,-2.658927,0.046946,-0.094337
1.000000,0.000000,0.294854,0.000000,0.753515,0.000000,0.000000,-0.007460,0.277489,-0.005245,0.738819,0.001916,0.003057,-0.005382,0.270059,-0.019068,0.773693,0.005990,-0.010115,1.498446,3.520423,0.551030,2.218252,-0.019990,-0.029165,-0.414597,-1.139664,-0.100137,-2.641055,0.045477,-0.100210
1.004000,0.000000,0.296074,0.000000,0.756632,0.000000,0.000000,-0.007486,0.278558,-0.005319,0.741889,0.001952,0.003016,-0.007234,0.265315,-0.017831,0.763901,0.012569,-0.009860,1.540431,3.563304,0.572667,2.252951,-0.020015,-0.027085,-0.504604,-1.230243,0.657214,-2.267664,2.669465,0.223187
1.008000,0.000123,0.297319,0.000053,0.759807,0.000031,0.000059,-0.007521,0.279606,-0.005381,0.744924,0.002032,0.002981,-0.009483,0.260195,-0.013538,0.756082,0.024450,-0.008106,1.614026,3.617561,0.597203,2.304042,-0.021061,-0.024288,-0.593870,-1.304235,1.296046,-1.758820,2.977614,0.554985
1.012000,0.000366,0.298591,0.000157,0.763038,0.000091,0.000176,-0.007565,0.280634,-0.005420,0.747934,0.002157,0.002955,-0.012015,0.254892,-0.007194,0.750362,0.035649,-0.005231,1.713681,3.681314,0.621285,2.364419,-0.022277,-0.021202,-0.652486,-1.333670,1.743790,-1.227871,2.674177,0.809886
1.016000,0.000729,0.299887,0.000312,0.766324,0.000182,0.000351,-0.007620,0.281640,-0.005429,0.750925,0.002325,0.002944,-0.014690,0.249575,0.000572,0.746763,0.045553,-0.001446,1.839081,3.754337,0.645141,2.432635,-0.023443,-0.017837,-0.673656,-1.322398,2.046814,-0.701462,2.363241,1.024671
1.020000,0.001210,0.301208,0.000518,0.769664,0.000302,0.000583,-0.007685,0.282625,-0.005406,0.753908,0.002529,0.002949,-0.017343,0.244396,0.009233,0.745208,0.054412,0.003150,1.989754,3.836295,0.669042,2.507404,-0.024538,-0.014218,-0.651689,-1.274174,2.225707,-0.202118,2.134363,1.221906
1.024000,0.001807,0.302554,0.000774,0.773059,0.000452,0.000871,-0.007761,0.283591,-0.005346,0.756889,0.002767,0.002975,-0.019791,0.239492,0.018346,0.745545,0.062566,0.008515,2.165061,3.926762,0.693334,2.587628,-0.025579,-0.010375,-0.582690,-1.193859,2.301432,0.253203,1.988296,1.412171
1.028000,0.002519,0.303924,0.001080,0.776507,0.000630,0.001214,-0.007845,0.284537,-0.005250,0.759876,0.003037,0.003024,-0.021841,0.234977,0.027553,0.747567,0.070311,0.014629,2.364196,4.025239,0.718400,2.672403,-0.026594,-0.006343,-0.464575,-1.087013,2.296992,0.653049,1.909936,1.597382
1.032000,0.003345,0.305318,0.001434,0.780008,0.000836,0.001612,-0.007936,0.285467,-0.005117,0.762874,0.003337,0.003099,-0.023295,0.230944,0.036594,0.751035,0.077873,0.021465,2.586191,4.131180,0.744611,2.761014,-0.027609,-0.002156,-0.296941,-0.959358,2.235636,0.991015,1.881874,1.774092
1.036000,0.004282,0.306736,0.001836,0.783560,0.001071,0.002064,-0.008032,0.286382,-0.004949,0.765890,0.003667,0.003204,-0.023957,0.227461,0.045294,0.755695,0.085412,0.028973,2.829919,4.244002,0.772292,2.852922,-0.028651,0.002158,-0.080872,-0.816348,2.139095,1.265128,1.887627,1.936315
1.040000,0.005330,0.308176,0.002285,0.787164,0.001333,0.002569,-0.008127,0.287284,-0.004747,0.768926,0.004027,0.003340,-0.023638,0.224578,0.053563,0.761296,0.093027,0.037080,3.094114,4.363107,0.801702,2.947744,-0.029741,0.006576,0.181279,-0.662865,2.026345,1.477156,1.912774,2.077718
1.044000,0.006488,0.309640,0.002781,0.790818,0.001622,0.003126,-0.008218,0.288177,-0.004513,0.771987,0.004418,0.003509,-0.022163,0.222325,0.061375,0.767599,0.100765,0.045688,3.377378,4.487894,0.833020,3.045228,-0.030894,0.011081,0.486125,-0.503054,1.912915,1.631875,1.945458,2.193133
1.048000,0.007752,0.311127,0.003323,0.794522,0.001938,0.003736,-0.008300,0.289062,-0.004249,0.775074,0.004841,0.003715,-0.019370,0.220721,0.068757,0.774394,0.108631,0.054687,3.678202,4.617760,0.866342,3.145226,-0.032122,0.015665,0.829477,-0.340243,1.810635,1.736331,1.976524,2.279443
1.052000,0.009123,0.312635,0.003911,0.798274,0.002281,0.004396,-0.008368,0.289942,-0.003956,0.778189,0.005295,0.003956,-0.015119,0.219769,0.075778,0.781499,0.116603,0.063956,3.994981,4.752114,0.901684,3.247663,-0.033430,0.020324,1.206581,-0.176956,1.727720,1.799134,1.999426,2.335942
1.056000,0.010598,0.314166,0.004544,0.802076,0.002650,0.005106,-0.008414,0.290820,-0.003636,0.781333,0.005781,0.004236,-0.009285,0.219468,0.082526,0.788772,0.124637,0.073379,4.326034,4.890376,0.938991,3.352510,-0.034821,0.025059,1.612328,-0.014976,1.669105,1.829790,2.009976,2.364293
1.060000,0.012177,0.315719,0.005221,0.805924,0.003044,0.005866,-0.008433,0.291699,-0.003290,0.784507,0.006300,0.004553,-0.001769,0.219809,0.089105,0.796109,0.132677,0.082854,4.669621,5.031981,0.978147,3.459760,-0.036290,0.029875,2.041461,0.144553,1.636912,1.838107,2.005996,2.368204
1.064000,0.013857,0.317293,0.005941,0.809820,0.003464,0.006674,-0.008417,0.292580,-0.002917,0.787710,0.006850,0.004908,0.007511,0.220780,0.095622,0.803444,0.140663,0.092294,5.023961,5.176377,1.018985,3.569397,-0.037832,0.034777,2.488746,0.301003,1.631002,1.833668,1.986924,2.352930
1.068000,0.015638,0.318889,0.006705,0.813762,0.003910,0.007531,-0.008360,0.293467,-0.002518,0.790942,0.007432,0.005301,0.018614,0.222369,0.102178,0.810749,0.148536,0.101639,5.387246,5.323024,1.061303,3.681384,-0.039439,0.039771,2.949125,0.454140,1.649532,1.825401,1.953425,2.324704
1.072000,0.017518,0.320505,0.007512,0.817750,0.004380,0.008435,-0.008254,0.294362,-0.002093,0.794203,0.008046,0.005730,0.031582,0.224562,0.108862,0.818029,0.156243,0.110853,5.757659,5.471394,1.104876,3.795638,-0.041100,0.044860,3.417829,0.603998,1.689486,1.821234,1.907018,2.290169
1.076000,0.019496,0.322142,0.008360,0.821782,0.004874,0.009386,-0.008091,0.295267,-0.001640,0.797493,0.008689,0.006196,0.046435,0.227347,0.115751,0.825318,0.163735,0.119928,6.133384,5.620971,1.149462,3.912026,-0.042804,0.050045,3.890480,0.750772,1.747146,1.827842,1.849755,2.255851
1.080000,0.021570,0.323799,0.009250,0.825859,0.005392,0.010382,-0.007864,0.296185,-0.001159,0.800813,0.009362,0.006699,0.063179,0.230712,0.122907,0.832671,0.170977,0.128879,6.512621,5.771245,1.194816,4.030350,-0.044539,0.055323,4.363144,0.894724,1.818490,1.850490,1.783951,2.227735
1.084000,0.023738,0.325476,0.010181,0.829979,0.005935,0.011424,-0.007565,0.297117,-0.000649,0.804162,0.010063,0.007236,0.081807,0.234646,0.130373,0.840164,0.177939,0.137744,6.893593,5.921717,1.240696,4.150345,-0.046293,0.060686,4.832368,1.036105,1.899505,1.892955,1.711967,2.210923
1.088000,0.026000,0.327173,0.011152,0.834141,0.006500,0.012511,-0.007187,0.298067,-0.000108,0.807542,0.010792,0.007809,0.102297,0.239140,0.138180,0.847882,0.184602,0.146580,7.274554,6.071893,1.286867,4.271682,-0.048055,0.066122,5.295191,1.175107,1.986422,1.957529,1.636057,2.209415
1.092000,0.028355,0.328890,0.012163,0.838346,0.007089,0.013641,-0.006723,0.299036,0.000465,0.810953,0.011546,0.008418,0.124616,0.244183,0.146342,0.855915,0.190956,0.155454,7.653799,6.221287,1.333109,4.393968,-0.049815,0.071614,5.749130,1.311815,2.075882,2.045085,1.558252,2.225992
1.096000,0.030800,0.330626,0.013213,0.842593,0.007700,0.014814,-0.006165,0.300026,0.001071,0.814398,0.012325,0.009062,0.148725,0.249768,0.154861,0.864356,0.196998,0.164443,8.029664,6.369419,1.379215,4.516753,-0.051562,0.077142,6.192147,1.446192,2.165025,2.155197,1.480297,2.262181
1.100000,0.033334,0.332380,0.014301,0.846880,0.008334,0.016030,-0.005506,0.301040,0.001713,0.817877,0.013127,0.009743,0.174574,0.255885,0.163731,0.873290,0.202731,0.173627,8.400535,6.515821,1.424997,4.639537,-0.053288,0.082680,6.622609,1.578068,2.251541,2.286311,1.403619,2.318312
1.104000,0.035957,0.334154,0.015428,0.851207,0.008989,0.017287,-0.004739,0.302080,0.002390,0.821394,0.013951,0.010461,0.202111,0.262521,0.172937,0.882795,0.208162,0.183084,8.764846,6.660030,1.470281,4.761783,-0.054984,0.088201,7.039225,1.707144,2.333667,2.435932,1.329320,2.393623
1.108000,0.038666,0.335945,0.016592,0.855573,0.009666,0.018585,-0.003858,0.303148,0.003106,0.824950,0.014797,0.011218,0.231278,0.269667,0.182458,0.892939,0.213304,0.192886,9.121087,6.801598,1.514913,4.882927,-0.056645,0.093674,7.440989,1.833003,2.410155,2.600841,1.258194,2.486419
1.112000,0.041461,0.337755,0.017793,0.859979,0.010365,0.019923,-0.002857,0.304246,0.003860,0.828549,0.015662,0.012014,0.262013,0.277306,0.192268,0.903772,0.218171,0.203098,9.467799,6.940088,1.558753,5.002388,-0.058262,0.099068,7.827112,1.955131,2.480220,2.777312,1.190753,2.594254
1.116000,0.044339,0.339583,0.019030,0.864422,0.011085,0.021301,-0.001729,0.305375,0.004654,0.832193,0.016546,0.012853,0.294252,0.285423,0.202342,0.915331,0.222777,0.213773,9.803583,7.075082,1.601676,5.119582,-0.059833,0.104350,8.196961,2.072934,2.543475,2.961326,1.127270,2.714123
1.120000,0.047301,0.341428,0.020304,0.868902,0.011825,0.022718,-0.000468,0.306538,0.005489,0.835885,0.017448,0.013736,0.327928,0.294000,0.212652,0.927637,0.227139,0.224949,10.127092,7.206175,1.643569,5.233931,-0.061351,0.109487,8.549995,2.185765,2.599853,3.148770,1.067816,2.842661
1.124000,0.050344,0.343291,0.021612,0.873419,0.012586,0.024173,0.000931,0.307737,0.006366,0.839628,0.018366,0.014665,0.362973,0.303014,0.223171,0.940691,0.231273,0.236654,10.437041,7.332987,1.684331,5.344871,-0.062812,0.114449,8.885714,2.292950,2.649538,3.335620,1.012303,2.976332
1.128000,0.053467,0.345170,0.022955,0.877972,0.013367,0.025666,0.002474,0.308972,0.007285,0.843425,0.019301,0.015642,0.399317,0.312441,0.233873,0.954484,0.235194,0.248899,10.732204,7.455157,1.723870,5.451867,-0.064214,0.119203,9.203611,2.393811,2.692888,3.518093,0.960528,3.111593
1.132000,0.056669,0.347067,0.024333,0.882561,0.014167,0.027195,0.004164,0.310246,0.008248,0.847279,0.020251,0.016670,0.436887,0.322254,0.244733,0.968988,0.238917,0.261682,11.011416,7.572350,1.762103,5.554415,-0.065554,0.123722,9.503135,2.487685,2.730372,3.692771,0.912212,3.245048
1.136000,0.059949,0.348980,0.025745,0.887184,0.014987,0.028760,0.006008,0.311561,0.009254,0.851192,0.021215,0.017749,0.475607,0.332423,0.255729,0.984164,0.242454,0.274986,11.273576,7.684258,1.798952,5.652048,-0.066829,0.127979,9.783668,2.573948,2.762515,3.856699,0.867029,3.373562
1.140000,0.063305,0.350909,0.027189,0.891841,0.015826,0.030361,0.008010,0.312916,0.010305,0.855168,0.022194,0.018884,0.515401,0.342918,0.266843,0.999965,0.245817,0.288787,11.517648,7.790601,1.834347,5.744345,-0.068036,0.131950,10.044501,2.652031,2.789841,4.007440,0.824638,3.494358
1.144000,0.066736,0.352854,0.028667,0.896531,0.016684,0.031996,0.010173,0.314315,0.011400,0.859209,0.023185,0.020074,0.556187,0.353703,0.278054,1.016331,0.249017,0.303046,11.742668,7.891128,1.868221,5.830926,-0.069174,0.135615,10.284832,2.721430,2.812846,4.143114,0.784707,3.605081
1.148000,0.070241,0.354815,0.030176,0.901254,0.017560,0.033665,0.012502,0.315757,0.012541,0.863316,0.024188,0.021323,0.597881,0.364743,0.289348,1.033199,0.252062,0.317719,11.947740,7.985619,1.900511,5.911460,-0.070240,0.138955,10.503767,2.781722,2.831958,4.262396,0.746928,3.703833
1.152000,0.073819,0.356791,0.031718,0.906009,0.018455,0.035368,0.014999,0.317244,0.013726,0.867492,0.025203,0.022632,0.640395,0.376001,0.300709,1.050501,0.254961,0.332753,12.132045,8.073887,1.931161,5.985660,-0.071233,0.141954,10.700330,2.832569,2.847525,4.364498,0.711033,3.789189
1.156000,0.077467,0.358783,0.033290,0.910795,0.019367,0.037103,0.017669,0.318777,0.014958,0.871738,0.026230,0.024001,0.683637,0.387438,0.312124,1.068168,0.257720,0.348094,12.294844,8.155777,1.960117,6.053288,-0.072152,0.144602,10.873477,2.873723,2.859800,4.449128,0.676800,3.860183
1.160000,0.081186,0.360790,0.034893,0.915611,0.020297,0.038870,0.020513,0.320356,0.016235,0.876055,0.027267,0.025432,0.727511,0.399015,0.323581,1.086131,0.260345,0.363681,12.435480,8.231166,1.987330,6.114143,-0.072994,0.146889,11.022121,2.905030,2.868938,4.516430,0.644060,3.916284
1.164000,0.084974,0.362811,0.036527,0.920458,0.021243,0.040668,0.023534,0.321981,0.017558,0.880445,0.028315,0.026926,0.771915,0.410693,0.335067,1.104320,0.262843,0.379455,12.553382,8.299963,2.012754,6.168069,-0.073759,0.148807,11.145155,2.926428,2.874998,4.566919,0.612695,3.957349
1.168000,0.088829,0.364847,0.038190,0.925334,0.022207,0.042497,0.026734,0.323653,0.018927,0.884908,0.029372,0.028484,0.816746,0.422431,0.346569,1.122671,0.265219,0.395357,12.648068,8.362110,2.036351,6.214944,-0.074445,0.150353,11.241479,2.937946,2.877954,4.601402,0.582638,3.983575
1.172000,0.092751,0.366897,0.039882,0.930238,0.023188,0.044356,0.030113,0.325372,0.020342,0.889445,0.030438,0.030105,0.861892,0.434191,0.358075,1.141122,0.267477,0.411327,12.719151,8.417582,2.058087,6.254681,-0.075051,0.151524,11.310030,2.939699,2.877702,4.620904,0.553871,3.995436
1.176000,0.096738,0.368961,0.041603,0.935170,0.024184,0.046243,0.033674,0.327138,0.021803,0.894056,0.031513,0.031790,0.907241,0.445934,0.369571,1.159617,0.269623,0.427310,12.766338,8.466380,2.077934,6.287220,-0.075576,0.152320,11.349812,2.931885,2.874077,4.626587,0.526411,3.993620
1.180000,0.100788,0.371039,0.043353,0.940130,0.025197,0.048160,0.037417,0.328951,0.023310,0.898741,0.032597,0.033540,0.952676,0.457623,0.381045,1.178102,0.271662,0.443254,12.789439,8.508540,2.095871,6.312529,-0.076021,0.152743,11.359915,2.914779,2.866872,4.619680,0.500312,3.978967
1.184000,0.104902,0.373131,0.045130,0.945116,0.026225,0.050104,0.041341,0.330811,0.024863,0.903499,0.033688,0.035352,0.998074,0.469220,0.392480,1.196531,0.273600,0.459109,12.788362,8.544124,2.111885,6.330600,-0.076383,0.152796,11.339547,2.888724,2.855851,4.601410,0.475652,3.952409
1.188000,0.109077,0.375235,0.046934,0.950129,0.027269,0.052076,0.045446,0.332716,0.026461,0.908331,0.034787,0.037228,1.043314,0.480692,0.403861,1.214861,0.275443,0.474830,12.763118,8.573218,2.125970,6.341443,-0.076664,0.152484,11.288049,2.854126,2.840772,4.572952,0.452525,3.914918
1.192000,0.113312,0.377353,0.048765,0.955166,0.028328,0.054074,0.049732,0.334667,0.028105,0.913236,0.035893,0.039166,1.088268,0.492005,0.415171,1.233054,0.277197,0.490377,12.713826,8.595938,2.138129,6.345087,-0.076862,0.151811,11.204915,2.811446,2.821399,4.535375,0.431032,3.867452
1.196000,0.117607,0.379483,0.050623,0.960229,0.029402,0.056097,0.054197,0.336663,0.029793,0.918213,0.037006,0.041166,1.132811,0.503128,0.426392,1.251076,0.278869,0.505710,12.640705,8.612419,2.148373,6.341577,-0.076980,0.150786,11.089804,2.761194,2.797521,4.489612,0.411278,3.810924
1.200000,0.121959,0.381627,0.052506,0.965315,0.030490,0.058146,0.058838,0.338703,0.031527,0.923262,0.038125,0.043227,1.176812,0.514033,0.437507,1.268897,0.280466,0.520797,12.544084,8.622821,2.156721,6.330973,-0.077017,0.149414,10.942550,2.703919,2.768963,4.436433,0.393357,3.746166
1.204000,0.126368,0.383782,0.054415,0.970425,0.031592,0.060220,0.063654,0.340786,0.033304,0.928382,0.039251,0.045347,1.220144,0.524692,0.448495,1.286487,0.281997,0.535605,12.424394,8.627319,2.163203,6.313348,-0.076975,0.147706,10.763169,2.640205,2.735602,4.376434,0.377352,3.673911
1.208000,0.130833,0.385950,0.056349,0.975557,0.032708,0.062317,0.068641,0.342911,0.035125,0.933571,0.040382,0.047526,1.262679,0.535081,0.459337,1.303822,0.283467,0.550108,12.282168,8.626110,2.167856,6.288788,-0.076855,0.145670,10.551858,2.570659,2.697372,4.310027,0.363327,3.594777
1.212000,0.135353,0.388129,0.058307,0.980711,0.033838,0.064438,0.073796,0.345077,0.036989,0.938829,0.041519,0.049762,1.304289,0.545179,0.470015,1.320875,0.284887,0.564278,12.118045,8.619403,2.170725,6.257395,-0.076659,0.143317,10.308996,2.495911,2.654273,4.237451,0.351320,3.509265
1.216000,0.139925,0.390320,0.060289,0.985887,0.034981,0.066581,0.079115,0.347282,0.038896,0.944155,0.042662,0.052054,1.344850,0.554967,0.480508,1.337623,0.286263,0.578090,11.932761,8.607421,2.171863,6.219282,-0.076389,0.140657,10.035140,2.416602,2.606377,4.158783,0.341345,3.417757
1.220000,0.144550,0.392522,0.062295,0.991084,0.036138,0.068746,0.084593,0.349525,0.040844,0.949546,0.043810,0.054400,1.384240,0.564427,0.490798,1.354042,0.287604,0.591523,11.727146,8.590398,2.171331,6.174578,-0.076048,0.137702,9.731019,2.333380,2.553826,4.073951,0.333386,3.320531
1.224000,0.149226,0.394736,0.064324,0.996301,0.037307,0.070932,0.090226,0.351806,0.042832,0.955003,0.044964,0.056799,1.422339,0.573546,0.500867,1.370104,0.288917,0.604553,11.502129,8.568578,2.169197,6.123428,-0.075637,0.134464,9.397526,2.246894,2.496835,3.982763,0.327399,3.217766
1.228000,0.153952,0.396961,0.066376,1.001537,0.038488,0.073138,0.096008,0.354122,0.044860,0.960522,0.046123,0.059248,1.459034,0.582312,0.510697,1.385786,0.290211,0.617158,11.258723,8.542210,2.165533,6.065995,-0.075161,0.130957,9.035710,2.157788,2.435687,3.884929,0.323309,3.109560
1.232000,0.158727,0.399196,0.068450,1.006792,0.039682,0.075365,0.101932,0.356473,0.046927,0.966104,0.047286,0.061748,1.494213,0.590717,0.520273,1.401059,0.291493,0.629317,10.998030,8.511549,2.160419,6.002457,-0.074623,0.127195,8.646762,2.066695,2.370731,3.780090,0.321012,2.995952
1.236000,0.163549,0.401442,0.070545,1.012065,0.040887,0.077611,0.107993,0.358856,0.049031,0.971745,0.048455,0.064294,1.527771,0.598754,0.529581,1.415895,0.292770,0.641008,10.721229,8.476852,2.153938,5.933014,-0.074025,0.123193,8.232012,1.974236,2.302371,3.667844,0.320379,2.876937
1.240000,0.168418,0.403698,0.072662,1.017356,0.042104,0.079875,0.114185,0.361270,0.051172,0.977445,0.049629,0.066887,1.559608,0.606418,0.538608,1.430262,0.294048,0.652210,10.429578,8.438378,2.146174,5.857886,-0.073371,0.118967,7.792910,1.881007,2.231065,3.547773,0.321258,2.752483
1.244000,0.173332,0.405964,0.074800,1.022664,0.043333,0.082157,0.120499,0.363714,0.053349,0.983201,0.050809,0.069522,1.589632,0.613710,0.547343,1.444128,0.295332,0.662900,10.124402,8.396384,2.137215,5.777313,-0.072666,0.114533,7.331021,1.787584,2.157311,3.419469,0.323474,2.622556
1.248000,0.178291,0.408240,0.076959,1.027988,0.044573,0.084457,0.126928,0.366186,0.055559,0.989011,0.051993,0.072199,1.617755,0.620628,0.555779,1.457460,0.296628,0.673057,9.807093,8.351125,2.127151,5.691560,-0.071913,0.109909,6.848016,1.694511,2.081638,3.282559,0.326840,2.487128
1.252000,0.183292,0.410525,0.079137,1.033328,0.045823,0.086773,0.133465,0.368685,0.057803,0.994873,0.053183,0.074916,1.643897,0.627176,0.563908,1.470222,0.297939,0.682658,9.479099,8.302853,2.116071,5.600912,-0.071115,0.105114,6.345657,1.602298,2.004600,3.136721,0.331153,2.346200
1.256000,0.188336,0.412820,0.081335,1.038682,0.047084,0.089106,0.140102,0.371210,0.060078,1.000784,0.054378,0.077669,1.667985,0.633358,0.571727,1.482377,0.299269,0.691682,9.141922,8.251813,2.104063,5.505679,-0.070278,0.100167,5.825793,1.511421,1.926761,2.981704,0.336206,2.199806
1.260000,0.193421,0.415125,0.083552,1.044052,0.048355,0.091453,0.146829,0.373758,0.062384,1.006743,0.055578,0.080457,1.689954,0.639181,0.579234,1.493890,0.300620,0.700107,8.797109,8.198243,2.091214,5.406195,-0.069404,0.095090,5.290352,1.422311,1.848686,2.817342,0.341785,2.048027
1.264000,0.198545,0.417438,0.085788,1.049435,0.049636,0.093816,0.153639,0.376328,0.064719,1.012745,0.056784,0.083277,1.709747,0.644653,0.586429,1.504721,0.301995,0.707912,8.446246,8.142375,2.077606,5.302817,-0.068498,0.089902,4.741330,1.335356,1.770934,2.643565,0.347680,1.890997
1.268000,0.203709,0.419760,0.088043,1.054831,0.050927,0.096193,0.160523,0.378920,0.067082,1.018790,0.057995,0.086127,1.727314,0.649783,0.593315,1.514834,0.303393,0.715076,8.090953,8.084431,2.063320,5.195924,-0.067562,0.084626,4.180786,1.250897,1.694045,2.460404,0.353685,1.728905
1.272000,0.208910,0.422090,0.090315,1.060239,0.052228,0.098583,0.167471,0.381531,0.069471,1.024873,0.059212,0.089004,1.742615,0.654582,0.599897,1.524192,0.304814,0.721580,7.732874,8.024623,2.048431,5.085920,-0.066602,0.079285,3.610839,1.169223,1.618532,2.267998,0.359603,1.562002
1.276000,0.214148,0.424429,0.092605,1.065660,0.053537,0.100986,0.174475,0.384161,0.071887,1.030991,0.060435,0.091905,1.755617,0.659062,0.606182,1.532757,0.306258,0.727405,7.373671,7.963153,2.033011,4.973227,-0.065620,0.073902,3.033654,1.090570,1.544874,2.066597,0.365250,1.390593
1.280000,0.219422,0.426776,0.094912,1.071091,0.054855,0.103401,0.181525,0.386807,0.074327,1.037142,0.061663,0.094828,1.766298,0.663235,0.612177,1.540495,0.307724,0.732534,7.015018,7.900212,2.017125,4.858289,-0.064619,0.068500,2.451443,1.015118,1.473508,1.856558,0.370455,1.215043
1.284000,0.224730,0.429130,0.097236,1.076534,0.056182,0.105828,0.188611,0.389470,0.076790,1.043321,0.062897,0.097769,1.774641,0.667115,0.617894,1.547372,0.309208,0.736952,6.658593,7.835980,2.000832,4.741569,-0.063603,0.063105,1.866456,0.942991,1.404825,1.638346,0.375069,1.035768
1.288000,0.230072,0.431493,0.099576,1.081986,0.057518,0.108266,0.195726,0.392148,0.079275,1.049526,0.064138,0.100726,1.780643,0.670714,0.623343,1.553357,0.310709,0.740644,6.306070,7.770628,1.984185,4.623545,-0.062575,0.057741,1.280975,0.874253,1.339159,1.412528,0.378959,0.853233
1.292000,0.235446,0.433863,0.101931,1.087448,0.058861,0.110714,0.202858,0.394839,0.081781,1.055752,0.065384,0.103697,1.784307,0.674048,0.628539,1.558421,0.312224,0.743599,5.959111,7.704314,1.967230,4.504712,-0.061537,0.052433,0.697310,0.808913,1.276790,1.179771,0.382016,0.667948
1.296000,0.240851,0.436240,0.104303,1.092919,0.060213,0.113172,0.209999,0.397543,0.084308,1.061997,0.066637,0.106677,1.785645,0.677128,0.633493,1.562539,0.313748,0.745807,5.619362,7.637185,1.950009,4.385576,-0.060491,0.047205,0.117787,0.746918,1.217936,0.940833,0.384153,0.480461
1.300000,0.246287,0.438624,0.106689,1.098398,0.061572,0.115640,0.217140,0.400259,0.086854,1.068255,0.067896,0.109664,1.784681,0.679968,0.638221,1.565687,0.315277,0.747261,5.288440,7.569379,1.932553,4.266654,-0.059441,0.042084,-0.455253,0.688159,1.162751,0.696558,0.385306,0.291352
1.304000,0.251753,0.441016,0.109090,1.103884,0.062938,0.118115,0.224272,0.402985,0.089418,1.074523,0.069160,0.112655,1.781446,0.682581,0.642738,1.567847,0.316809,0.747956,4.967929,7.501026,1.914891,4.148470,-0.058389,0.037094,-1.019465,0.632471,1.111327,0.447867,0.385433,0.101230
1.308000,0.257246,0.443413,0.111505,1.109377,0.064312,0.120599,0.231384,0.405722,0.092000,1.080798,0.070431,0.115647,1.775982,0.684979,0.647059,1.569004,0.318338,0.747890,4.659372,7.432244,1.897043,4.031556,-0.057335,0.032260,-1.572510,0.579635,1.063691,0.195756,0.384519,-0.089273
1.312000,0.262767,0.445818,0.113935,1.114877,0.065692,0.123090,0.238470,0.408467,0.094598,1.087075,0.071708,0.118637,1.768338,0.687172,0.651198,1.569145,0.319861,0.747062,4.364265,7.363148,1.879025,3.916442,-0.056282,0.027606,-2.112060,0.529381,1.019805,-0.058719,0.382566,-0.279508
1.316000,0.268314,0.448228,0.116377,1.120383,0.067079,0.125588,0.245520,0.411221,0.097213,1.093349,0.072991,0.121621,1.758575,0.689169,0.655171,1.568266,0.321373,0.745476,4.084045,7.293842,1.860845,3.803662,-0.055232,0.023157,-2.635808,0.481391,0.979572,-0.314442,0.379603,-0.468807
1.320000,0.273887,0.450645,0.118833,1.125893,0.068472,0.128092,0.252525,0.413982,0.099843,1.099618,0.074280,0.124597,1.746761,0.690980,0.658992,1.566363,0.322871,0.743136,3.820087,7.224429,1.842510,3.693742,-0.054186,0.018937,-3.141484,0.435306,0.942831,-0.570249,0.375676,-0.656496
1.324000,0.279484,0.453068,0.121302,1.131408,0.069871,0.130601,0.259478,0.416750,0.102489,1.105876,0.075575,0.127563,1.732975,0.692610,0.662675,1.563439,0.324351,0.740051,3.573696,7.155006,1.824019,3.587205,-0.053145,0.014968,-3.626856,0.390728,0.909367,-0.824931,0.370850,-0.841886
1.328000,0.285104,0.455496,0.123783,1.136927,0.071276,0.133116,0.266371,0.419524,0.105148,1.112121,0.076876,0.130513,1.717303,0.694064,0.666231,1.559502,0.325809,0.736232,3.346100,7.085669,1.805369,3.484563,-0.052110,0.011273,-4.089750,0.347230,0.878910,-1.077248,0.365208,-1.024284
1.332000,0.290746,0.457930,0.126276,1.142450,0.072687,0.135634,0.273198,0.422304,0.107822,1.118347,0.078183,0.133447,1.699840,0.695346,0.669673,1.554565,0.327242,0.731692,3.138443,7.016512,1.786555,3.386314,-0.051082,0.007873,-4.528058,0.304357,0.851142,-1.325928,0.358848,-1.202991
1.336000,0.296410,0.460369,0.128780,1.147975,0.074102,0.138157,0.279950,0.425088,0.110509,1.124550,0.079495,0.136361,1.680689,0.696457,0.673009,1.548645,0.328649,0.726448,2.951778,6.947632,1.767569,3.292941,-0.050063,0.004788,-4.939749,0.261638,0.825700,-1.569682,0.351879,-1.377302
1.340000,0.302094,0.462813,0.131296,1.153502,0.075523,0.140683,0.286621,0.427876,0.113209,1.130728,0.080813,0.139252,1.659963,0.697397,0.676248,1.541765,0.330026,0.720520,2.787064,6.879126,1.748400,3.204908,-0.049054,0.002039,-5.322883,0.218591,0.802181,-1.807204,0.344425,-1.546510
1.344000,0.307797,0.465262,0.133822,1.159031,0.076949,0.143211,0.293206,0.430668,0.115922,1.136876,0.082137,0.142118,1.637779,0.698163,0.679398,1.533953,0.331372,0.713930,2.645155,6.811098,1.729041,3.122656,-0.048054,-0.000358,-5.675622,0.174731,0.780151,-2.037187,0.336613,-1.709904
1.348000,0.313519,0.467716,0.136359,1.164561,0.078380,0.145741,0.299698,0.433462,0.118647,1.142990,0.083465,0.144956,1.614265,0.698750,0.682462,1.525244,0.332686,0.706702,2.526801,6.743656,1.709482,3.046600,-0.047066,-0.002385,-5.996245,0.129580,0.759146,-2.258326,0.328582,-1.866773
1.352000,0.319258,0.470174,0.138907,1.170091,0.079814,0.148273,0.306094,0.436258,0.121384,1.149067,0.084799,0.147763,1.589551,0.699152,0.685443,1.515674,0.333968,0.698864,2.432640,6.676915,1.689715,2.977127,-0.046090,-0.004026,-6.283156,0.082675,0.738682,-2.469328,0.320470,-2.016404
1.356000,0.325013,0.472636,0.141463,1.175621,0.081253,0.150806,0.312388,0.439055,0.124133,1.155104,0.086138,0.150538,1.563778,0.699361,0.688343,1.505289,0.335217,0.690448,2.363192,6.610999,1.669734,2.914592,-0.045127,-0.005269,-6.534900,0.033572,0.718260,-2.668920,0.312420,-2.158087
1.360000,0.330784,0.475103,0.144030,1.181150,0.082696,0.153339,0.318577,0.441853,0.126894,1.161098,0.087482,0.153278,1.537088,0.699368,0.691160,1.494137,0.336435,0.681486,2.318859,6.546043,1.649539,2.859315,-0.044178,-0.006101,-6.750172,-0.018136,0.697375,-2.855864,0.304571,-2.291116
1.364000,0.336569,0.477574,0.146605,1.186678,0.084142,0.155871,0.324657,0.444650,0.129665,1.167045,0.088830,0.155980,1.509631,0.699160,0.693892,1.482272,0.337621,0.672016,2.299919,6.482190,1.629130,2.811579,-0.043245,-0.006512,-6.927831,-0.072821,0.675518,-3.028961,0.297062,-2.414789
1.368000,0.342368,0.480048,0.149189,1.192204,0.085592,0.158403,0.330625,0.447445,0.132447,1.172943,0.090184,0.158643,1.481559,0.698725,0.696532,1.469751,0.338779,0.662076,2.306524,6.419597,1.608515,2.771627,-0.042329,-0.006492,-7.066905,-0.130806,0.652188,-3.187063,0.290024,-2.528416
1.372000,0.348180,0.482526,0.151781,1.197727,0.087045,0.160933,0.336480,0.450239,0.135240,1.178789,0.091541,0.161266,1.453029,0.698050,0.699075,1.456638,0.339910,0.651708,2.338699,6.358434,1.587705,2.739660,-0.041432,-0.006036,-7.166609,-0.192359,0.626894,-3.329087,0.283582,-2.631321
1.376000,0.354003,0.485008,0.154381,1.203247,0.088501,0.163462,0.342220,0.453029,0.138042,1.184582,0.092904,0.163846,1.424200,0.697119,0.701511,1.442999,0.341017,0.640957,2.396340,6.298883,1.566719,2.715832,-0.040555,-0.005140,-7.226348,-0.257683,0.599164,-3.454025,0.277850,-2.722847
1.380000,0.359837,0.487492,0.156988,1.208764,0.089959,0.165988,0.347845,0.455814,0.140854,1.190319,0.094270,0.166382,1.395233,0.695917,0.703828,1.428905,0.342103,0.629870,2.479212,6.241138,1.545583,2.700255,-0.039699,-0.003801,-7.245728,-0.326918,0.568555,-3.560953,0.272932,-2.802360
1.384000,0.365681,0.489980,0.159603,1.214276,0.091420,0.168510,0.353353,0.458594,0.143675,1.195998,0.095641,0.168873,1.366290,0.694428,0.706015,1.414430,0.343171,0.618496,2.586950,6.185410,1.524329,2.692988,-0.038868,-0.002019,-7.224562,-0.400124,0.534649,-3.649046,0.268918,-2.869261
1.388000,0.371534,0.492470,0.162225,1.219783,0.092883,0.171030,0.358747,0.461367,0.146504,1.201619,0.097017,0.171319,1.337533,0.692636,0.708058,1.399652,0.344226,0.606887,2.719062,6.131919,1.502998,2.694044,-0.038063,0.000204,-7.162878,-0.477287,0.497070,-3.717587,0.265882,-2.922987
