ThanhNV-Robotics/Bipedal_Robot_Sytem_Identification/data/left_leg_simulation_data.csv
time,ref_q1,ref_q2,ref_q3,ref_q4,ref_q5,ref_q6,q1,q2,q3,q4,q5,q6,vel_q1,vel_q2,vel_q3,vel_q4,vel_q5,vel_q6,tau1,tau2,tau3,tau4,tau5,tau6
0.004000,0.000000,0.000000,0.000000,0.000000,0.000000,-0.000000,0.000001,0.000000,-0.000000,0.000004,-0.000000,0.000036,0.000242,0.000078,-0.000000,0.001720,-0.000028,0.013162,-0.000459,-0.000155,0.000002,-0.002958,0.000052,-0.022015
0.008000,0.000000,0.000000,0.000000,0.000000,0.000000,-0.000000,0.000002,0.000001,0.000000,0.000015,-0.000000,0.000103,0.000464,0.000130,0.000003,0.003005,-0.000023,0.017885,-0.001456,-0.000438,-0.000003,-0.008159,0.000080,-0.047117
0.012000,0.000000,0.000000,0.000000,0.000000,0.000000,-0.000000,0.000004,0.000001,0.000000,0.000029,-0.000000,0.000175,0.000656,0.000165,0.000007,0.003941,-0.000010,0.017774,-0.002832,-0.000781,-0.000011,-0.014408,0.000080,-0.066468
0.016000,0.000000,0.000000,0.000000,0.000000,0.000000,-0.000000,0.000008,0.000002,0.000000,0.000047,-0.000000,0.000240,0.000815,0.000188,0.000009,0.004602,0.000002,0.015284,-0.004519,-0.001159,-0.000020,-0.021365,0.000066,-0.080318
0.020000,0.000000,0.000000,0.000000,0.000000,0.000000,-0.000000,0.000011,0.000003,0.000000,0.000066,-0.000000,0.000293,0.000944,0.000204,0.000010,0.005046,0.000009,0.011959,-0.006456,-0.001555,-0.000028,-0.028763,0.000049,-0.089552
0.024000,0.000000,0.000000,0.000000,0.000000,0.000000,-0.000000,0.000015,0.000004,0.000000,0.000087,-0.000000,0.000333,0.001046,0.000214,0.000010,0.005324,0.000012,0.008678,-0.008586,-0.001954,-0.000035,-0.036393,0.000033,-0.095246
0.028000,0.000000,0.000000,0.000000,0.000001,0.000000,-0.000000,0.000020,0.000004,0.000000,0.000109,-0.000000,0.000360,0.001123,0.000221,0.000009,0.005477,0.000011,0.005871,-0.010864,-0.002342,-0.000040,-0.044098,0.000021,-0.098419
0.032000,0.000000,0.000000,0.000000,0.000001,0.000000,-0.000000,0.000024,0.000005,0.000000,0.000131,-0.000000,0.000378,0.001181,0.000225,0.000008,0.005535,0.000010,0.003682,-0.013251,-0.002710,-0.000043,-0.051757,0.000012,-0.099922
0.036000,0.000000,0.000001,0.000000,0.000002,0.000000,-0.000000,0.000029,0.000006,0.000000,0.000153,-0.000000,0.000389,0.001223,0.000228,0.000006,0.005526,0.000007,0.002098,-0.015716,-0.003045,-0.000044,-0.059278,0.000006,-0.100405
0.040000,0.000000,0.000001,0.000000,0.000003,0.000000,-0.000001,0.000034,0.000007,0.000000,0.000175,-0.000000,0.000394,0.001253,0.000230,0.000004,0.005468,0.000005,0.001029,-0.018235,-0.003337,-0.000045,-0.066591,0.000003,-0.100329
0.044000,0.000000,0.000002,0.000000,0.000004,0.000000,-0.000001,0.000039,0.000008,0.000000,0.000197,-0.000000,0.000397,0.001272,0.000231,0.000003,0.005377,0.000004,0.000357,-0.020789,-0.003574,-0.000045,-0.073643,0.000001,-0.099997
0.048000,0.000000,0.000002,0.000000,0.000006,0.000000,-0.000001,0.000044,0.000009,0.000000,0.000218,-0.000000,0.000397,0.001284,0.000231,0.000001,0.005264,0.000002,-0.000029,-0.023364,-0.003745,-0.000044,-0.080390,0.000001,-0.099594
0.052000,0.000000,0.000003,0.000000,0.000008,0.000000,-0.000001,0.000049,0.000010,0.000000,0.000239,-0.000000,0.000396,0.001290,0.000232,-0.000000,0.005138,0.000001,-0.000224,-0.025949,-0.003836,-0.000042,-0.086799,0.000000,-0.099220
0.056000,0.000000,0.000004,0.000000,0.000010,0.000000,-0.000002,0.000054,0.000011,0.000000,0.000259,-0.000000,0.000395,0.001292,0.000232,-0.000001,0.005004,0.000001,-0.000304,-0.028536,-0.003835,-0.000040,-0.092842,0.000001,-0.098921
0.060000,0.000000,0.000005,0.000000,0.000013,0.000000,-0.000002,0.000060,0.000012,0.000000,0.000279,-0.000000,0.000394,0.001290,0.000232,-0.000002,0.004868,0.000000,-0.000319,-0.031117,-0.003729,-0.000038,-0.098493,0.000001,-0.098707
0.064000,0.000000,0.000007,0.000000,0.000017,0.000000,-0.000003,0.000065,0.000013,0.000000,0.000298,-0.000000,0.000393,0.001286,0.000232,-0.000002,0.004733,-0.000000,-0.000306,-0.033689,-0.003503,-0.000036,-0.103731,0.000001,-0.098574
0.068000,0.000000,0.000008,0.000000,0.000022,0.000000,-0.000004,0.000070,0.000014,0.000000,0.000316,-0.000000,0.000391,0.001279,0.000233,-0.000003,0.004602,-0.000000,-0.000285,-0.036247,-0.003141,-0.000034,-0.108536,0.000002,-0.098508
0.072000,0.000000,0.000010,0.000000,0.000027,0.000000,-0.000005,0.000075,0.000015,0.000000,0.000334,-0.000000,0.000390,0.001272,0.000233,-0.000003,0.004477,-0.000000,-0.000269,-0.038788,-0.002628,-0.000031,-0.112888,0.000002,-0.098493
0.076000,0.000000,0.000013,0.000000,0.000033,0.000000,-0.000006,0.000080,0.000016,0.000000,0.000352,-0.000000,0.000389,0.001262,0.000234,-0.000003,0.004359,-0.000000,-0.000264,-0.041311,-0.001949,-0.000029,-0.116768,0.000002,-0.098516
0.080000,0.000000,0.000016,0.000000,0.000040,0.000000,-0.000007,0.000085,0.000017,0.000000,0.000369,-0.000000,0.000388,0.001253,0.000234,-0.000003,0.004250,-0.000000,-0.000271,-0.043814,-0.001085,-0.000027,-0.120158,0.000003,-0.098564
0.084000,0.000000,0.000019,0.000000,0.000048,0.000000,-0.000008,0.000090,0.000017,0.000000,0.000386,-0.000000,0.000387,0.001242,0.000235,-0.000004,0.004150,-0.000000,-0.000290,-0.046295,-0.000018,-0.000024,-0.123040,0.000003,-0.098630
0.088000,0.000000,0.000022,0.000000,0.000057,0.000000,-0.000010,0.000095,0.000018,0.000000,0.000402,-0.000000,0.000386,0.001231,0.000237,-0.000004,0.004062,-0.000000,-0.000319,-0.048754,0.001268,-0.000022,-0.125395,0.000004,-0.098707
0.092000,0.000000,0.000027,0.000000,0.000068,0.000000,-0.000012,0.000100,0.000019,0.000000,0.000418,-0.000000,0.000384,0.001219,0.000238,-0.000004,0.003985,-0.000000,-0.000358,-0.051189,0.002794,-0.000020,-0.127206,0.000004,-0.098793
0.096000,0.000000,0.000031,0.000000,0.000080,0.000000,-0.000014,0.000105,0.000020,0.000000,0.000434,-0.000000,0.000383,0.001207,0.000240,-0.000004,0.003920,-0.000001,-0.000405,-0.053600,0.004578,-0.000018,-0.128452,0.000005,-0.098886
0.100000,0.000000,0.000037,0.000000,0.000093,0.000000,-0.000016,0.000110,0.000021,0.000000,0.000450,-0.000000,0.000381,0.001195,0.000242,-0.000004,0.003868,-0.000001,-0.000458,-0.055986,0.006641,-0.000016,-0.129116,0.000006,-0.098985
0.104000,0.000000,0.000042,0.000000,0.000108,0.000000,-0.000019,0.000114,0.000022,0.000000,0.000465,-0.000000,0.000379,0.001183,0.000244,-0.000004,0.003829,-0.000001,-0.000516,-0.058348,0.009004,-0.000014,-0.129178,0.000006,-0.099089
0.108000,0.000000,0.000049,0.000000,0.000125,0.000000,-0.000022,0.000119,0.000023,0.000000,0.000480,-0.000000,0.000377,0.001170,0.000247,-0.000004,0.003805,-0.000001,-0.000580,-0.060685,0.011687,-0.000011,-0.128619,0.000007,-0.099200
0.112000,0.000000,0.000056,0.000000,0.000144,0.000000,-0.000025,0.000124,0.000024,0.000000,0.000496,-0.000000,0.000374,0.001158,0.000251,-0.000004,0.003795,-0.000001,-0.000649,-0.062996,0.014712,-0.000009,-0.127420,0.000008,-0.099316
0.116000,0.000000,0.000064,0.000000,0.000164,0.000000,-0.000029,0.000128,0.000025,0.000000,0.000511,-0.000000,0.000371,0.001145,0.000254,-0.000004,0.003801,-0.000001,-0.000723,-0.065282,0.018101,-0.000007,-0.125562,0.000009,-0.099440
0.120000,0.000000,0.000073,0.000000,0.000187,0.000000,-0.000032,0.000133,0.000026,0.000000,0.000526,-0.000000,0.000368,0.001132,0.000258,-0.000004,0.003822,-0.000001,-0.000801,-0.067542,0.021876,-0.000005,-0.123023,0.000010,-0.099572
0.124000,0.000000,0.000083,0.000000,0.000211,0.000000,-0.000037,0.000137,0.000027,0.000000,0.000541,-0.000000,0.000365,0.001119,0.000263,-0.000004,0.003860,-0.000001,-0.000884,-0.069776,0.026061,-0.000003,-0.119785,0.000011,-0.099711
0.128000,0.000000,0.000093,0.000000,0.000238,0.000000,-0.000041,0.000142,0.000028,0.000000,0.000557,-0.000000,0.000361,0.001106,0.000268,-0.000004,0.003914,-0.000001,-0.000972,-0.071985,0.030679,-0.000001,-0.115827,0.000012,-0.099858
0.132000,0.000000,0.000105,0.000000,0.000268,0.000000,-0.000047,0.000146,0.000029,0.000000,0.000573,-0.000000,0.000357,0.001093,0.000274,-0.000004,0.003986,-0.000001,-0.001065,-0.074167,0.035754,0.000002,-0.111130,0.000013,-0.100014
0.136000,0.000000,0.000117,0.000000,0.000300,0.000000,-0.000052,0.000150,0.000031,0.000000,0.000589,-0.000000,0.000352,0.001080,0.000280,-0.000004,0.004076,-0.000001,-0.001164,-0.076323,0.041309,0.000004,-0.105673,0.000014,-0.100179
0.140000,0.000000,0.000131,0.000000,0.000334,0.000000,-0.000058,0.000155,0.000032,-0.000000,0.000606,-0.000000,0.000347,0.001067,0.000287,-0.000004,0.004184,-0.000001,-0.001268,-0.078453,0.047370,0.000006,-0.099436,0.000015,-0.100353
0.144000,0.000000,0.000145,0.000000,0.000372,0.000000,-0.000065,0.000159,0.000033,-0.000000,0.000623,-0.000000,0.000342,0.001054,0.000294,-0.000004,0.004311,-0.000001,-0.001377,-0.080557,0.053960,0.000009,-0.092399,0.000016,-0.100536
0.148000,0.000000,0.000161,0.000000,0.000412,0.000000,-0.000072,0.000163,0.000034,-0.000000,0.000640,-0.000000,0.000336,0.001041,0.000303,-0.000004,0.004457,-0.000001,-0.001492,-0.082635,0.061106,0.000011,-0.084542,0.000018,-0.100729
0.152000,0.000000,0.000178,0.000000,0.000456,0.000000,-0.000079,0.000167,0.000035,-0.000000,0.000659,-0.000000,0.000329,0.001028,0.000312,-0.000004,0.004624,-0.000001,-0.001612,-0.084686,0.068833,0.000014,-0.075844,0.000019,-0.100931
0.156000,0.000000,0.000197,0.000000,0.000502,0.000000,-0.000087,0.000171,0.000037,-0.000000,0.000678,-0.000000,0.000322,0.001015,0.000321,-0.000004,0.004810,-0.000001,-0.001739,-0.086711,0.077165,0.000016,-0.066286,0.000021,-0.101143
0.160000,0.000000,0.000216,0.000000,0.000553,0.000000,-0.000096,0.000175,0.000038,-0.000000,0.000698,-0.000000,0.000315,0.001002,0.000332,-0.000004,0.005018,-0.000001,-0.001871,-0.088709,0.086130,0.000019,-0.055847,0.000022,-0.101364
0.164000,0.000000,0.000237,0.000000,0.000606,0.000000,-0.000105,0.000179,0.000039,-0.000000,0.000718,-0.000000,0.000307,0.000989,0.000343,-0.000004,0.005247,-0.000001,-0.002009,-0.090681,0.095754,0.000022,-0.044509,0.000024,-0.101596
0.168000,0.000000,0.000260,0.000000,0.000664,0.000000,-0.000115,0.000183,0.000041,-0.000000,0.000740,-0.000000,0.000298,0.000975,0.000355,-0.000004,0.005498,-0.000001,-0.002153,-0.092627,0.106063,0.000025,-0.032251,0.000025,-0.101837
0.172000,0.000000,0.000284,0.000000,0.000725,0.000000,-0.000126,0.000187,0.000042,-0.000000,0.000763,-0.000000,0.000289,0.000962,0.000368,-0.000005,0.005771,-0.000001,-0.002303,-0.094545,0.117083,0.000028,-0.019055,0.000027,-0.102089
0.176000,0.000000,0.000309,0.000000,0.000790,0.000000,-0.000137,0.000191,0.000044,-0.000000,0.000787,-0.000000,0.000279,0.000949,0.000382,-0.000005,0.006067,-0.000001,-0.002460,-0.096437,0.128842,0.000031,-0.004900,0.000029,-0.102350
0.180000,0.000000,0.000336,0.000000,0.000859,0.000000,-0.000149,0.000195,0.000045,-0.000000,0.000812,-0.000000,0.000269,0.000936,0.000397,-0.000005,0.006386,-0.000001,-0.002623,-0.098303,0.141367,0.000034,0.010233,0.000031,-0.102622
0.184000,0.000000,0.000365,0.000000,0.000932,0.000000,-0.000162,0.000198,0.000047,-0.000000,0.000838,-0.000000,0.000258,0.000922,0.000413,-0.000005,0.006729,-0.000001,-0.002792,-0.100141,0.154684,0.000038,0.026361,0.000033,-0.102904
0.188000,0.000000,0.000395,0.000000,0.001010,0.000000,-0.000176,0.000202,0.000049,-0.000000,0.000866,-0.000000,0.000246,0.000909,0.000430,-0.000005,0.007097,-0.000002,-0.002967,-0.101953,0.168823,0.000041,0.043504,0.000035,-0.103197
0.192000,0.000000,0.000428,0.000000,0.001093,0.000000,-0.000190,0.000206,0.000050,-0.000000,0.000895,-0.000000,0.000233,0.000896,0.000448,-0.000005,0.007489,-0.000002,-0.003149,-0.103737,0.183809,0.000045,0.061679,0.000037,-0.103500
0.196000,0.000000,0.000462,0.000000,0.001180,0.000000,-0.000205,0.000209,0.000052,-0.000000,0.000927,-0.000000,0.000220,0.000882,0.000467,-0.000006,0.007907,-0.000002,-0.003337,-0.105495,0.199670,0.000049,0.080905,0.000039,-0.103814
0.200000,0.000000,0.000498,0.000000,0.001272,0.000000,-0.000221,0.000213,0.000054,-0.000000,0.000959,-0.000000,0.000206,0.000869,0.000487,-0.000006,0.008350,-0.000002,-0.003532,-0.107226,0.216435,0.000053,0.101199,0.000041,-0.104138
0.204000,0.000000,0.000536,0.000000,0.001369,0.000000,-0.000238,0.000216,0.000056,-0.000000,0.000994,-0.000000,0.000191,0.000855,0.000509,-0.000006,0.008819,-0.000002,-0.003733,-0.108929,0.234131,0.000057,0.122579,0.000043,-0.104474
0.208000,0.000000,0.000576,0.000000,0.001471,0.000000,-0.000256,0.000220,0.000058,-0.000000,0.001031,-0.000000,0.000175,0.000842,0.000531,-0.000006,0.009315,-0.000002,-0.003941,-0.110605,0.252787,0.000061,0.145061,0.000046,-0.104819
0.212000,0.000000,0.000618,0.000000,0.001578,0.000000,-0.000274,0.000223,0.000060,-0.000000,0.001069,-0.000000,0.000159,0.000828,0.000555,-0.000007,0.009838,-0.000002,-0.004155,-0.112254,0.272429,0.000066,0.168663,0.000048,-0.105176
0.216000,0.000000,0.000662,0.000000,0.001691,0.000000,-0.000294,0.000226,0.000063,-0.000000,0.001110,-0.000000,0.000141,0.000815,0.000580,-0.000007,0.010389,-0.000002,-0.004376,-0.113876,0.293088,0.000070,0.193400,0.000051,-0.105544
0.220000,0.000000,0.000708,0.000000,0.001810,0.000000,-0.000315,0.000229,0.000065,-0.000000,0.001153,-0.000000,0.000123,0.000801,0.000607,-0.000007,0.010967,-0.000002,-0.004604,-0.115471,0.314789,0.000075,0.219289,0.000054,-0.105922
0.224000,0.000000,0.000757,0.000000,0.001934,0.000000,-0.000336,0.000232,0.000068,-0.000000,0.001199,-0.000000,0.000103,0.000773,0.000668,-0.000014,0.011792,-0.000015,-0.004869,-0.117001,0.337501,0.000090,0.245890,0.000078,-0.106245
0.228000,0.000000,0.000808,0.000000,0.002065,0.000000,-0.000359,0.000235,0.000071,-0.000001,0.001251,-0.000000,0.000082,0.000685,0.000842,-0.000040,0.013588,-0.000060,-0.005263,-0.118352,0.361025,0.000139,0.271742,0.000177,-0.106337
0.232000,0.000000,0.000861,0.000000,0.002201,0.000000,-0.000383,0.000238,0.000075,-0.000001,0.001313,-0.000001,0.000060,0.000562,0.001130,-0.000077,0.016244,-0.000109,-0.005691,-0.119434,0.385134,0.000225,0.295417,0.000337,-0.106200
0.236000,0.000000,0.000917,0.000000,0.002344,0.000000,-0.000408,0.000240,0.000080,-0.000001,0.001387,-0.000001,0.000035,0.000422,0.001535,-0.000118,0.019632,-0.000150,-0.006097,-0.120223,0.409623,0.000343,0.316020,0.000534,-0.105928
0.240000,0.000000,0.000976,0.000000,0.002493,0.000000,-0.000434,0.000241,0.000088,-0.000002,0.001476,-0.000002,0.000009,0.000281,0.002059,-0.000160,0.023608,-0.000179,-0.006452,-0.120721,0.434289,0.000490,0.332865,0.000752,-0.105615
0.244000,0.000000,0.001037,0.000000,0.002649,0.000000,-0.000461,0.000242,0.000098,-0.000003,0.001582,-0.000003,-0.000018,0.000149,0.002700,-0.000201,0.028020,-0.000197,-0.006749,-0.120951,0.458924,0.000660,0.345490,0.000977,-0.105337
0.248000,0.000000,0.001100,0.000000,0.002812,0.000000,-0.000489,0.000242,0.000110,-0.000004,0.001706,-0.000004,-0.000046,0.000035,0.003459,-0.000240,0.032712,-0.000207,-0.006993,-0.120952,0.483327,0.000850,0.353655,0.001204,-0.105158
0.252000,0.000000,0.001167,0.000000,0.002981,0.000000,-0.000518,0.000242,0.000126,-0.000005,0.001850,-0.000005,-0.000075,-0.000055,0.004333,-0.000274,0.037530,-0.000210,-0.007192,-0.120775,0.507296,0.001058,0.357339,0.001428,-0.105121
0.256000,0.000000,0.001236,0.000000,0.003158,0.000000,-0.000549,0.000241,0.000146,-0.000006,0.002013,-0.000005,-0.000105,-0.000119,0.005319,-0.000304,0.042326,-0.000209,-0.007360,-0.120475,0.530641,0.001279,0.356724,0.001646,-0.105254
0.260000,0.000000,0.001308,0.000000,0.003342,0.000000,-0.000581,0.000241,0.000170,-0.000007,0.002194,-0.000006,-0.000135,-0.000154,0.006414,-0.000330,0.046970,-0.000205,-0.007511,-0.120112,0.553173,0.001511,0.352170,0.001858,-0.105570
0.264000,0.000000,0.001382,0.000000,0.003533,0.000000,-0.000614,0.000240,0.000199,-0.000009,0.002394,-0.000007,-0.000167,-0.000160,0.007613,-0.000352,0.051345,-0.000199,-0.007656,-0.119741,0.574719,0.001752,0.344190,0.002061,-0.106068
0.268000,0.000000,0.001460,0.000000,0.003732,0.000000,-0.000649,0.000239,0.000233,-0.000010,0.002610,-0.000008,-0.000198,-0.000140,0.008910,-0.000370,0.055359,-0.000191,-0.007809,-0.119418,0.595114,0.001999,0.333416,0.002256,-0.106737
0.272000,0.000000,0.001541,0.000000,0.003938,0.000000,-0.000685,0.000239,0.000272,-0.000012,0.002842,-0.000009,-0.000231,-0.000096,0.010299,-0.000384,0.058943,-0.000182,-0.007977,-0.119188,0.614205,0.002249,0.320559,0.002440,-0.107561
0.276000,0.000000,0.001625,0.000000,0.004153,0.000000,-0.000722,0.000238,0.000317,-0.000013,0.003087,-0.000010,-0.000264,-0.000033,0.011774,-0.000394,0.062053,-0.000171,-0.008169,-0.119092,0.631856,0.002501,0.306378,0.002612,-0.108513
0.280000,0.000000,0.001712,0.000000,0.004375,0.000000,-0.000761,0.000238,0.000368,-0.000015,0.003342,-0.000010,-0.000298,0.000046,0.013325,-0.000400,0.064672,-0.000159,-0.008390,-0.119157,0.647945,0.002753,0.291640,0.002772,-0.109567
0.284000,0.000000,0.001802,0.000000,0.004606,0.000000,-0.000801,0.000239,0.000425,-0.000016,0.003608,-0.000011,-0.000333,0.000135,0.014946,-0.000403,0.066808,-0.000146,-0.008644,-0.119403,0.662366,0.003003,0.277086,0.002918,-0.110692
0.288000,0.000000,0.001896,0.000000,0.004845,0.000000,-0.000843,0.000239,0.000489,-0.000018,0.003880,-0.000011,-0.000369,0.000228,0.016627,-0.000403,0.068488,-0.000132,-0.008933,-0.119839,0.675031,0.003250,0.263397,0.003050,-0.111856
0.292000,0.000000,0.001993,0.000000,0.005093,0.000000,-0.000886,0.000240,0.000560,-0.000020,0.004159,-0.000012,-0.000407,0.000321,0.018360,-0.000400,0.069764,-0.000117,-0.009257,-0.120463,0.685871,0.003491,0.251176,0.003167,-0.113031
0.296000,0.000000,0.002093,0.000000,0.005349,0.000000,-0.000930,0.000242,0.000638,-0.000021,0.004441,-0.000012,-0.000445,0.000410,0.020134,-0.000394,0.070701,-0.000101,-0.009617,-0.121263,0.694836,0.003726,0.240917,0.003267,-0.114188
0.300000,0.000000,0.002197,0.000000,0.005614,0.000000,-0.000976,0.000244,0.000723,-0.000023,0.004727,-0.000013,-0.000486,0.000489,0.021942,-0.000386,0.071377,-0.000085,-0.010008,-0.122220,0.701892,0.003953,0.232997,0.003351,-0.115303
0.304000,0.000000,0.002304,0.000000,0.005888,0.000000,-0.001024,0.000246,0.000816,-0.000024,0.005015,-0.000013,-0.000528,0.000556,0.023771,-0.000375,0.071879,-0.000068,-0.010429,-0.123307,0.707028,0.004171,0.227664,0.003417,-0.116356
0.308000,0.000000,0.002415,0.000000,0.006171,0.000000,-0.001073,0.000248,0.000915,-0.000026,0.005305,-0.000014,-0.000572,0.000607,0.025615,-0.000362,0.072295,-0.000051,-0.010876,-0.124492,0.710250,0.004379,0.225038,0.003467,-0.117330
0.312000,0.000000,0.002529,0.000000,0.006464,0.000000,-0.001124,0.000250,0.001022,-0.000027,0.005596,-0.000014,-0.000618,0.000640,0.027461,-0.000347,0.072715,-0.000034,-0.011343,-0.125740,0.711585,0.004575,0.225109,0.003500,-0.118217
0.316000,0.000000,0.002647,0.000000,0.006766,0.000000,-0.001177,0.000253,0.001137,-0.000029,0.005890,-0.000014,-0.000665,0.000656,0.029302,-0.000330,0.073224,-0.000016,-0.011827,-0.127012,0.711076,0.004758,0.227752,0.003516,-0.119009
0.320000,0.000000,0.002769,0.000000,0.007077,0.000000,-0.001231,0.000255,0.001259,-0.000030,0.006186,-0.000014,-0.000715,0.000653,0.031128,-0.000310,0.073899,0.000001,-0.012321,-0.128272,0.708786,0.004928,0.232736,0.003515,-0.119707
0.324000,0.000000,0.002895,0.000000,0.007398,0.000000,-0.001287,0.000258,0.001388,-0.000031,0.006485,-0.000014,-0.000767,0.000632,0.032931,-0.000289,0.074806,0.000017,-0.012823,-0.129484,0.704795,0.005083,0.239743,0.003498,-0.120314
0.328000,0.000000,0.003025,0.000000,0.007730,0.000000,-0.001344,0.000260,0.001524,-0.000032,0.006788,-0.000014,-0.000820,0.000595,0.034701,-0.000266,0.075997,0.000034,-0.013326,-0.130615,0.699198,0.005222,0.248389,0.003466,-0.120840
0.332000,0.000000,0.003158,0.000000,0.008071,0.000000,-0.001404,0.000262,0.001667,-0.000033,0.007097,-0.000014,-0.000876,0.000544,0.036432,-0.000241,0.077512,0.000049,-0.013828,-0.131638,0.692109,0.005344,0.258242,0.003419,-0.121296
0.336000,0.000000,0.003296,0.000000,0.008423,0.000000,-0.001465,0.000264,0.001818,-0.000034,0.007414,-0.000014,-0.000934,0.000481,0.038115,-0.000215,0.079373,0.000064,-0.014324,-0.132528,0.683652,0.005449,0.268848,0.003359,-0.121697
0.340000,0.000000,0.003437,0.000000,0.008785,0.000000,-0.001528,0.000266,0.001974,-0.000035,0.007738,-0.000013,-0.000994,0.000409,0.039746,-0.000187,0.081589,0.000078,-0.014813,-0.133269,0.673966,0.005536,0.279751,0.003286,-0.122059
0.344000,0.000000,0.003583,0.000000,0.009157,0.000000,-0.001593,0.000267,0.002137,-0.000036,0.008072,-0.000013,-0.001056,0.000332,0.041316,-0.000159,0.084152,0.000091,-0.015293,-0.133850,0.663201,0.005604,0.290514,0.003201,-0.122400
0.348000,0.000000,0.003733,0.000000,0.009540,0.000000,-0.001659,0.000268,0.002306,-0.000036,0.008418,-0.000013,-0.001120,0.000252,0.042822,-0.000129,0.087044,0.000102,-0.015762,-0.134267,0.651516,0.005654,0.300733,0.003107,-0.122738
0.352000,0.000000,0.003887,0.000000,0.009934,0.000000,-0.001728,0.000269,0.002481,-0.000037,0.008775,-0.000012,-0.001185,0.000172,0.044260,-0.000099,0.090233,0.000112,-0.016221,-0.134522,0.639081,0.005685,0.310061,0.003004,-0.123089
0.356000,0.000000,0.004046,0.000000,0.010339,0.000000,-0.001798,0.000269,0.002662,-0.000037,0.009147,-0.000012,-0.001253,0.000096,0.045625,-0.000068,0.093678,0.000121,-0.016670,-0.134622,0.626069,0.005697,0.318210,0.002893,-0.123471
0.360000,0.000000,0.004209,0.000000,0.010755,0.000000,-0.001870,0.000269,0.002848,-0.000037,0.009532,-0.000012,-0.001322,0.000025,0.046915,-0.000037,0.097330,0.000129,-0.017111,-0.134578,0.612659,0.005690,0.324968,0.002777,-0.123897
0.364000,0.000000,0.004376,0.000000,0.011182,0.000000,-0.001945,0.000269,0.003039,-0.000038,0.009933,-0.000011,-0.001393,-0.000037,0.048129,-0.000007,0.101139,0.000135,-0.017544,-0.134409,0.599035,0.005666,0.330197,0.002657,-0.124378
0.368000,0.000000,0.004547,0.000000,0.011621,0.000000,-0.002021,0.000269,0.003234,-0.000038,0.010349,-0.000011,-0.001466,-0.000091,0.049265,0.000023,0.105050,0.000139,-0.017973,-0.134132,0.585379,0.005624,0.333838,0.002534,-0.124923
0.372000,0.000000,0.004724,0.000000,0.012071,0.000000,-0.002099,0.000268,0.003434,-0.000037,0.010781,-0.000010,-0.001541,-0.000134,0.050324,0.000051,0.109009,0.000142,-0.018401,-0.133770,0.571874,0.005567,0.335907,0.002410,-0.125538
0.376000,0.000000,0.004904,0.000000,0.012533,0.000000,-0.002180,0.000267,0.003638,-0.000037,0.011229,-0.000010,-0.001617,-0.000165,0.051307,0.000078,0.112966,0.000143,-0.018829,-0.133345,0.558702,0.005495,0.336489,0.002288,-0.126226
0.380000,0.000000,0.005090,0.000000,0.013007,0.000000,-0.002262,0.000266,0.003846,-0.000037,0.011693,-0.000009,-0.001695,-0.000186,0.052215,0.000104,0.116875,0.000143,-0.019261,-0.132879,0.546038,0.005409,0.335730,0.002167,-0.126986
0.384000,0.000000,0.005280,0.000000,0.013493,0.000000,-0.002347,0.000265,0.004057,-0.000036,0.012172,-0.000009,-0.001775,-0.000197,0.053051,0.000127,0.120699,0.000141,-0.019699,-0.132393,0.534053,0.005312,0.333828,0.002050,-0.127815
0.388000,0.000000,0.005475,0.000000,0.013991,0.000000,-0.002433,0.000264,0.004271,-0.000036,0.012666,-0.000008,-0.001857,-0.000197,0.053819,0.000148,0.124405,0.000137,-0.020147,-0.131906,0.522911,0.005205,0.331017,0.001939,-0.128707
0.392000,0.000000,0.005674,0.000000,0.014501,0.000000,-0.002522,0.000263,0.004488,-0.000035,0.013175,-0.000008,-0.001940,-0.000190,0.054523,0.000166,0.127971,0.000132,-0.020605,-0.131436,0.512765,0.005090,0.327559,0.001835,-0.129657
0.396000,0.000000,0.005879,0.000000,0.015023,0.000000,-0.002613,0.000263,0.004708,-0.000035,0.013698,-0.000007,-0.002026,-0.000175,0.055167,0.000182,0.131385,0.000126,-0.021077,-0.130994,0.503760,0.004969,0.323726,0.001739,-0.130653
0.400000,0.000000,0.006088,0.000000,0.015558,0.000000,-0.002706,0.000262,0.004930,-0.000034,0.014234,-0.000007,-0.002113,-0.000156,0.055758,0.000194,0.134643,0.000118,-0.021563,-0.130592,0.496028,0.004844,0.319791,0.001653,-0.131686
0.404000,0.000000,0.006302,0.000000,0.016106,0.000000,-0.002801,0.000261,0.005155,-0.000033,0.014783,-0.000007,-0.002203,-0.000133,0.056301,0.000204,0.137748,0.000109,-0.022064,-0.130234,0.489688,0.004717,0.316014,0.001577,-0.132745
0.408000,0.000000,0.006521,0.000000,0.016666,0.000000,-0.002898,0.000260,0.005382,-0.000032,0.015344,-0.000006,-0.002295,-0.000110,0.056804,0.000210,0.140714,0.000099,-0.022581,-0.129924,0.484846,0.004590,0.312631,0.001514,-0.133820
0.412000,0.000000,0.006746,0.000000,0.017239,0.000000,-0.002998,0.000260,0.005610,-0.000032,0.015916,-0.000006,-0.002388,-0.000086,0.057274,0.000213,0.143559,0.000087,-0.023113,-0.129658,0.481593,0.004465,0.309848,0.001463,-0.134901
0.416000,0.000000,0.006975,0.000000,0.017825,0.000000,-0.003100,0.000259,0.005841,-0.000031,0.016500,-0.000006,-0.002484,-0.000065,0.057717,0.000213,0.146309,0.000075,-0.023661,-0.129434,0.480002,0.004343,0.307829,0.001426,-0.135976
0.420000,0.000000,0.007210,0.000000,0.018425,0.000000,-0.003204,0.000259,0.006073,-0.000030,0.017094,-0.000006,-0.002583,-0.000047,0.058143,0.000209,0.148990,0.000062,-0.024223,-0.129243,0.480134,0.004227,0.306698,0.001403,-0.137040
0.424000,0.000000,0.007449,0.000000,0.019037,0.000000,-0.003311,0.000258,0.006307,-0.000029,0.017700,-0.000006,-0.002683,-0.000034,0.058559,0.000203,0.151635,0.000048,-0.024798,-0.129075,0.482029,0.004119,0.306531,0.001395,-0.138083
0.428000,0.000000,0.007694,0.000000,0.019664,0.000000,-0.003420,0.000258,0.006542,-0.000028,0.018315,-0.000006,-0.002786,-0.000027,0.058973,0.000195,0.154275,0.000034,-0.025385,-0.128918,0.485713,0.004018,0.307358,0.001403,-0.139102
0.432000,0.000000,0.007945,0.000000,0.020303,0.000000,-0.003531,0.000258,0.006779,-0.000028,0.018942,-0.000006,-0.002891,-0.000026,0.059395,0.000183,0.156942,0.000020,-0.025981,-0.128759,0.491193,0.003928,0.309163,0.001426,-0.140094
0.436000,0.000000,0.008200,0.000000,0.020956,0.000000,-0.003645,0.000257,0.007018,-0.000027,0.019579,-0.000006,-0.002999,-0.000031,0.059832,0.000170,0.159664,0.000005,-0.026586,-0.128586,0.498460,0.003848,0.311891,0.001465,-0.141056
0.440000,0.000000,0.008461,0.000000,0.021623,0.000000,-0.003761,0.000257,0.007259,-0.000026,0.020228,-0.000006,-0.003110,-0.000043,0.060292,0.000155,0.162467,-0.000010,-0.027197,-0.128385,0.507488,0.003779,0.315452,0.001519,-0.141988
0.444000,0.000000,0.008728,0.000000,0.022304,0.000000,-0.003879,0.000257,0.007501,-0.000026,0.020888,-0.000006,-0.003222,-0.000061,0.060784,0.000138,0.165375,-0.000025,-0.027812,-0.128143,0.518234,0.003723,0.319725,0.001589,-0.142894
0.448000,0.000000,0.009000,0.000000,0.022999,0.000000,-0.004000,0.000256,0.007746,-0.000026,0.021560,-0.000006,-0.003338,-0.000085,0.061316,0.000119,0.168402,-0.000039,-0.028430,-0.127850,0.530640,0.003679,0.324568,0.001674,-0.143775
0.452000,0.000000,0.009277,0.000000,0.023708,0.000000,-0.004123,0.000255,0.007993,-0.000025,0.022244,-0.000007,-0.003456,-0.000113,0.061895,0.000100,0.171563,-0.000053,-0.029051,-0.127496,0.544632,0.003649,0.329824,0.001773,-0.144637
0.456000,0.000000,0.009560,0.000000,0.024431,0.000000,-0.004249,0.000255,0.008242,-0.000025,0.022942,-0.000007,-0.003576,-0.000146,0.062527,0.000081,0.174863,-0.000067,-0.029671,-0.127074,0.560122,0.003630,0.335330,0.001887,-0.145485
0.460000,0.000000,0.009849,0.000000,0.025169,0.000000,-0.004377,0.000254,0.008494,-0.000025,0.023653,-0.000007,-0.003699,-0.000181,0.063221,0.000061,0.178303,-0.000080,-0.030291,-0.126577,0.577008,0.003625,0.340927,0.002013,-0.146324
0.464000,0.000000,0.010143,0.000000,0.025920,0.000000,-0.004508,0.000253,0.008749,-0.000024,0.024379,-0.000008,-0.003824,-0.000218,0.063981,0.000041,0.181879,-0.000092,-0.030910,-0.126004,0.595176,0.003631,0.346460,0.002152,-0.147162
0.468000,0.000000,0.010443,0.000000,0.026687,0.000000,-0.004641,0.000251,0.009007,-0.000024,0.025119,-0.000008,-0.003952,-0.000255,0.064813,0.000021,0.185582,-0.000104,-0.031528,-0.125352,0.614501,0.003649,0.351791,0.002302,-0.148004
0.472000,0.000000,0.010748,0.000000,0.027468,0.000000,-0.004777,0.000250,0.009269,-0.000024,0.025874,-0.000009,-0.004083,-0.000292,0.065722,0.000003,0.189401,-0.000114,-0.032145,-0.124623,0.634849,0.003677,0.356802,0.002463,-0.148855
0.476000,0.000000,0.011060,0.000000,0.028264,0.000000,-0.004915,0.000249,0.009535,-0.000025,0.026645,-0.000010,-0.004216,-0.000328,0.066712,-0.000015,0.193319,-0.000123,-0.032760,-0.123821,0.656075,0.003716,0.361399,0.002632,-0.149723
0.480000,0.000000,0.011377,0.000000,0.029074,0.000000,-0.005056,0.000247,0.009804,-0.000025,0.027431,-0.000010,-0.004352,-0.000361,0.067786,-0.000032,0.197318,-0.000132,-0.033375,-0.122950,0.678031,0.003763,0.365513,0.002809,-0.150610
0.484000,0.000000,0.011700,0.000000,0.029900,0.000000,-0.005200,0.000245,0.010079,-0.000025,0.028234,-0.000011,-0.004490,-0.000391,0.068948,-0.000048,0.201379,-0.000138,-0.033990,-0.122016,0.700559,0.003818,0.369102,0.002993,-0.151522
0.488000,0.000000,0.012029,0.000000,0.030741,0.000000,-0.005346,0.000243,0.010358,-0.000025,0.029054,-0.000012,-0.004630,-0.000418,0.070198,-0.000061,0.205483,-0.000144,-0.034605,-0.121027,0.723501,0.003880,0.372155,0.003182,-0.152460
0.492000,0.000000,0.012364,0.000000,0.031596,0.000000,-0.005495,0.000241,0.010642,-0.000026,0.029890,-0.000013,-0.004773,-0.000441,0.071539,-0.000074,0.209610,-0.000148,-0.035222,-0.119990,0.746694,0.003948,0.374683,0.003374,-0.153426
0.496000,0.000000,0.012705,0.000000,0.032467,0.000000,-0.005646,0.000239,0.010932,-0.000026,0.030742,-0.000013,-0.004919,-0.000460,0.072970,-0.000084,0.213742,-0.000151,-0.035842,-0.118913,0.769976,0.004019,0.376725,0.003569,-0.154421
0.500000,0.000000,0.013051,0.000000,0.033354,0.000000,-0.005801,0.000237,0.011228,-0.000026,0.031611,-0.000014,-0.005067,-0.000475,0.074490,-0.000092,0.217864,-0.000152,-0.036465,-0.117804,0.793185,0.004093,0.378337,0.003765,-0.155445
0.504000,0.000000,0.013404,0.000000,0.034255,0.000000,-0.005957,0.000235,0.011530,-0.000027,0.032497,-0.000015,-0.005218,-0.000487,0.076099,-0.000098,0.221962,-0.000152,-0.037093,-0.116670,0.816162,0.004169,0.379596,0.003960,-0.156495
0.508000,0.000000,0.013763,0.000000,0.035173,0.000000,-0.006117,0.000232,0.011839,-0.000027,0.033399,-0.000016,-0.005371,-0.000495,0.077794,-0.000102,0.226025,-0.000151,-0.037726,-0.115519,0.838752,0.004245,0.380587,0.004153,-0.157570
0.512000,0.000000,0.014128,0.000000,0.036105,0.000000,-0.006279,0.000230,0.012155,-0.000028,0.034317,-0.000016,-0.005527,-0.000501,0.079573,-0.000104,0.230046,-0.000148,-0.038365,-0.114355,0.860806,0.004320,0.381407,0.004342,-0.158666
0.516000,0.000000,0.014499,0.000000,0.037054,0.000000,-0.006444,0.000228,0.012478,-0.000028,0.035251,-0.000017,-0.005686,-0.000504,0.081432,-0.000104,0.234020,-0.000144,-0.039010,-0.113182,0.882180,0.004392,0.382153,0.004527,-0.159780
0.520000,0.000000,0.014877,0.000000,0.038018,0.000000,-0.006612,0.000225,0.012809,-0.000029,0.036202,-0.000018,-0.005847,-0.000505,0.083366,-0.000102,0.237948,-0.000138,-0.039662,-0.112005,0.902740,0.004461,0.382923,0.004706,-0.160909
0.524000,0.000000,0.015260,0.000000,0.038998,0.000000,-0.006782,0.000223,0.013148,-0.000029,0.037167,-0.000019,-0.006011,-0.000506,0.085371,-0.000098,0.241831,-0.000131,-0.040322,-0.110824,0.922361,0.004524,0.383806,0.004877,-0.162048
0.528000,0.000000,0.015650,0.000000,0.039994,0.000000,-0.006956,0.000221,0.013495,-0.000030,0.038149,-0.000019,-0.006177,-0.000507,0.087442,-0.000091,0.245673,-0.000123,-0.040988,-0.109639,0.940929,0.004582,0.384887,0.005041,-0.163194
0.532000,0.000000,0.016046,0.000000,0.041006,0.000000,-0.007132,0.000218,0.013850,-0.000030,0.039145,-0.000020,-0.006346,-0.000508,0.089571,-0.000083,0.249482,-0.000114,-0.041662,-0.108451,0.958343,0.004632,0.386233,0.005194,-0.164342
0.536000,0.000000,0.016448,0.000000,0.042034,0.000000,-0.007310,0.000216,0.014214,-0.000030,0.040157,-0.000021,-0.006519,-0.000509,0.091754,-0.000073,0.253267,-0.000104,-0.042342,-0.107256,0.974510,0.004674,0.387900,0.005338,-0.165490
0.540000,0.000000,0.016857,0.000000,0.043078,0.000000,-0.007492,0.000213,0.014587,-0.000031,0.041184,-0.000021,-0.006693,-0.000513,0.093983,-0.000061,0.257037,-0.000093,-0.043028,-0.106051,0.989357,0.004707,0.389929,0.005470,-0.166634
0.544000,0.000000,0.017272,0.000000,0.044139,0.000000,-0.007676,0.000211,0.014969,-0.000031,0.042226,-0.000022,-0.006871,-0.000518,0.096251,-0.000048,0.260804,-0.000081,-0.043721,-0.104834,1.002819,0.004730,0.392342,0.005590,-0.167772
0.548000,0.000000,0.017693,0.000000,0.045215,0.000000,-0.007864,0.000209,0.015360,-0.000031,0.043283,-0.000022,-0.007052,-0.000525,0.098550,-0.000033,0.264579,-0.000069,-0.044418,-0.103599,1.014850,0.004743,0.395145,0.005698,-0.168903
0.552000,0.000000,0.018121,0.000000,0.046308,0.000000,-0.008054,0.000206,0.015760,-0.000031,0.044356,-0.000023,-0.007235,-0.000534,0.100873,-0.000017,0.268372,-0.000055,-0.045120,-0.102341,1.025417,0.004744,0.398329,0.005794,-0.170024
0.556000,0.000000,0.018555,0.000000,0.047418,0.000000,-0.008247,0.000204,0.016170,-0.000031,0.045444,-0.000023,-0.007421,-0.000546,0.103212,0.000001,0.272192,-0.000042,-0.045825,-0.101057,1.034502,0.004734,0.401871,0.005875,-0.171137
0.560000,0.000000,0.018995,0.000000,0.048544,0.000000,-0.008442,0.000201,0.016589,-0.000031,0.046547,-0.000023,-0.007611,-0.000561,0.105560,0.000019,0.276049,-0.000028,-0.046534,-0.099741,1.042103,0.004711,0.405736,0.005944,-0.172240
0.564000,0.000000,0.019442,0.000000,0.049686,0.000000,-0.008641,0.000198,0.017017,-0.000031,0.047666,-0.000024,-0.007803,-0.000577,0.107908,0.000038,0.279950,-0.000014,-0.047245,-0.098388,1.048233,0.004676,0.409879,0.005999,-0.173334
0.568000,0.000000,0.019896,0.000000,0.050845,0.000000,-0.008843,0.000196,0.017455,-0.000031,0.048801,-0.000024,-0.007998,-0.000595,0.110249,0.000058,0.283900,-0.000000,-0.047958,-0.096995,1.052919,0.004628,0.414248,0.006041,-0.174422
0.572000,0.000000,0.020356,0.000000,0.052021,0.000000,-0.009047,0.000193,0.017902,-0.000031,0.049951,-0.000024,-0.008196,-0.000615,0.112575,0.000078,0.287901,0.000014,-0.048673,-0.095559,1.056204,0.004567,0.418786,0.006069,-0.175503
0.576000,0.000000,0.020823,0.000000,0.053213,0.000000,-0.009254,0.000190,0.018359,-0.000031,0.051118,-0.000024,-0.008396,-0.000637,0.114880,0.000099,0.291957,0.000028,-0.049388,-0.094077,1.058144,0.004493,0.423435,0.006085,-0.176581
0.580000,0.000000,0.021296,0.000000,0.054422,0.000000,-0.009465,0.000187,0.018824,-0.000030,0.052301,-0.000024,-0.008600,-0.000659,0.117155,0.000119,0.296065,0.000041,-0.050104,-0.092547,1.058809,0.004407,0.428139,0.006088,-0.177657
0.584000,0.000000,0.021775,0.000000,0.055648,0.000000,-0.009678,0.000184,0.019299,-0.000030,0.053502,-0.000024,-0.008807,-0.000705,0.119396,0.000139,0.300269,0.000054,-0.050820,-0.090885,1.058282,0.004311,0.432708,0.006080,-0.178730
0.588000,0.000000,0.022262,0.000000,0.056891,0.000000,-0.009894,0.000180,0.019782,-0.000029,0.054719,-0.000024,-0.009016,-0.000772,0.121595,0.000158,0.304551,0.000066,-0.051535,-0.089048,1.056655,0.004206,0.437053,0.006060,-0.179807
0.592000,0.000000,0.022755,0.000000,0.058151,0.000000,-0.010113,0.000176,0.020275,-0.000029,0.055954,-0.000024,-0.009229,-0.000851,0.123748,0.000177,0.308886,0.000078,-0.052248,-0.087015,1.054035,0.004090,0.441135,0.006031,-0.180891
0.596000,0.000000,0.023254,0.000000,0.059427,0.000000,-0.010335,0.000172,0.020775,-0.000028,0.057206,-0.000024,-0.009444,-0.000936,0.125848,0.000196,0.313250,0.000088,-0.052959,-0.084778,1.050535,0.003963,0.444947,0.005992,-0.181987
0.600000,0.000000,0.023760,0.000000,0.060721,0.000000,-0.010560,0.000167,0.021284,-0.000027,0.058476,-0.000024,-0.009663,-0.001022,0.127892,0.000215,0.317625,0.000098,-0.053669,-0.082337,1.046278,0.003825,0.448504,0.005944,-0.183098
0.604000,0.000000,0.024273,0.000000,0.062031,0.000000,-0.010788,0.000162,0.021801,-0.000026,0.059764,-0.000024,-0.009884,-0.001107,0.129875,0.000234,0.321995,0.000107,-0.054379,-0.079699,1.041395,0.003676,0.451843,0.005890,-0.184224
0.608000,0.000000,0.024793,0.000000,0.063359,0.000000,-0.011019,0.000157,0.022326,-0.000025,0.061069,-0.000023,-0.010108,-0.001189,0.131795,0.000252,0.326347,0.000115,-0.055091,-0.076873,1.036021,0.003517,0.455013,0.005829,-0.185365
0.612000,0.000000,0.025319,0.000000,0.064704,0.000000,-0.011253,0.000151,0.022858,-0.000025,0.062392,-0.000023,-0.010335,-0.001266,0.133649,0.000270,0.330672,0.000122,-0.055804,-0.073871,1.030296,0.003347,0.458073,0.005763,-0.186519
0.616000,0.000000,0.025852,0.000000,0.066066,0.000000,-0.011490,0.000145,0.023397,-0.000023,0.063732,-0.000023,-0.010565,-0.001337,0.135435,0.000287,0.334967,0.000127,-0.056520,-0.070705,1.024364,0.003169,0.461085,0.005693,-0.187685
0.620000,0.000000,0.026391,0.000000,0.067445,0.000000,-0.011730,0.000138,0.023944,-0.000022,0.065090,-0.000023,-0.010798,-0.001405,0.137151,0.000303,0.339229,0.000132,-0.057239,-0.067384,1.018370,0.002982,0.464109,0.005621,-0.188860
0.624000,0.000000,0.026938,0.000000,0.068841,0.000000,-0.011972,0.000131,0.024497,-0.000021,0.066464,-0.000022,-0.011034,-0.001468,0.138799,0.000319,0.343458,0.000135,-0.057962,-0.063918,1.012460,0.002787,0.467202,0.005547,-0.190041
0.628000,0.000000,0.027491,0.000000,0.070255,0.000000,-0.012218,0.000124,0.025057,-0.000020,0.067856,-0.000022,-0.011273,-0.001528,0.140377,0.000333,0.347658,0.000137,-0.058689,-0.060313,1.006778,0.002586,0.470416,0.005474,-0.191225
0.632000,0.000000,0.028051,0.000000,0.071685,0.000000,-0.012467,0.000117,0.025622,-0.000019,0.069264,-0.000022,-0.011515,-0.001586,0.141886,0.000345,0.351833,0.000137,-0.059420,-0.056572,1.001465,0.002378,0.473791,0.005402,-0.192410
0.636000,0.000000,0.028617,0.000000,0.073133,0.000000,-0.012719,0.000109,0.026194,-0.000017,0.070690,-0.000022,-0.011760,-0.001643,0.143330,0.000357,0.355988,0.000136,-0.060154,-0.052698,0.996659,0.002165,0.477360,0.005332,-0.193593
0.640000,0.000000,0.029191,0.000000,0.074599,0.000000,-0.012974,0.000101,0.026771,-0.000016,0.072132,-0.000021,-0.012007,-0.001700,0.144709,0.000367,0.360130,0.000135,-0.060890,-0.048689,0.992493,0.001947,0.481143,0.005267,-0.194773
0.644000,0.000000,0.029771,0.000000,0.076081,0.000000,-0.013232,0.000093,0.027354,-0.000015,0.073590,-0.000021,-0.012258,-0.001758,0.146026,0.000377,0.364266,0.000131,-0.061630,-0.044543,0.989094,0.001725,0.485152,0.005206,-0.195948
0.648000,0.000000,0.030358,0.000000,0.077581,0.000000,-0.013492,0.000085,0.027941,-0.000013,0.075066,-0.000021,-0.012512,-0.001817,0.147286,0.000386,0.368401,0.000127,-0.062372,-0.040255,0.986579,0.001499,0.489388,0.005151,-0.197117
0.652000,0.000000,0.030952,0.000000,0.079099,0.000000,-0.013756,0.000076,0.028534,-0.000012,0.076558,-0.000021,-0.012769,-0.001878,0.148492,0.000394,0.372542,0.000122,-0.063115,-0.035822,0.985058,0.001269,0.493844,0.005104,-0.198279
0.656000,0.000000,0.031552,0.000000,0.080633,0.000000,-0.014023,0.000067,0.029131,-0.000010,0.078067,-0.000020,-0.013029,-0.001941,0.149649,0.000402,0.376693,0.000115,-0.063860,-0.031237,0.984631,0.001034,0.498506,0.005064,-0.199435
0.660000,0.000000,0.032159,0.000000,0.082185,0.000000,-0.014293,0.000058,0.029733,-0.000009,0.079592,-0.000020,-0.013292,-0.002007,0.150763,0.000410,0.380858,0.000108,-0.064605,-0.026496,0.985388,0.000796,0.503354,0.005034,-0.200583
0.664000,0.000000,0.032774,0.000000,0.083755,0.000000,-0.014566,0.000048,0.030339,-0.000007,0.081135,-0.000020,-0.013558,-0.002075,0.151837,0.000417,0.385040,0.000100,-0.065351,-0.021594,0.987405,0.000554,0.508365,0.005013,-0.201725
0.668000,0.000000,0.033395,0.000000,0.085342,0.000000,-0.014842,0.000038,0.030950,-0.000006,0.082694,-0.000020,-0.013827,-0.002144,0.152879,0.000425,0.389241,0.000091,-0.066096,-0.016528,0.990750,0.000306,0.513513,0.005003,-0.202861
0.672000,0.000000,0.034022,0.000000,0.086946,0.000000,-0.015121,0.000028,0.031564,-0.000004,0.084271,-0.000020,-0.014099,-0.002215,0.153895,0.000434,0.393462,0.000081,-0.066841,-0.011294,0.995474,0.000053,0.518771,0.005004,-0.203993
0.676000,0.000000,0.034657,0.000000,0.088567,0.000000,-0.015403,0.000017,0.032183,-0.000002,0.085864,-0.000020,-0.014374,-0.002286,0.154890,0.000443,0.397701,0.000071,-0.067586,-0.005891,1.001617,-0.000205,0.524115,0.005016,-0.205120
0.680000,0.000000,0.035298,0.000000,0.090206,0.000000,-0.015688,0.000006,0.032805,-0.000001,0.087475,-0.000020,-0.014653,-0.002358,0.155871,0.000453,0.401958,0.000060,-0.068330,-0.000319,1.009206,-0.000471,0.529520,0.005041,-0.206245
0.684000,0.000000,0.035946,0.000000,0.091863,0.000000,-0.015976,-0.000005,0.033432,0.000001,0.089103,-0.000020,-0.014934,-0.002430,0.156845,0.000465,0.406230,0.000049,-0.069073,0.005421,1.018254,-0.000745,0.534966,0.005077,-0.207367
0.688000,0.000000,0.036601,0.000000,0.093537,0.000000,-0.016267,-0.000017,0.034062,0.000003,0.090748,-0.000020,-0.015218,-0.002501,0.157818,0.000477,0.410516,0.000038,-0.069815,0.011326,1.028759,-0.001027,0.540435,0.005126,-0.208488
0.692000,0.000000,0.037263,0.000000,0.095228,0.000000,-0.016561,-0.000029,0.034696,0.000005,0.092410,-0.000020,-0.015506,-0.002570,0.158797,0.000491,0.414812,0.000026,-0.070556,0.017392,1.040708,-0.001319,0.545913,0.005188,-0.209608
0.696000,0.000000,0.037932,0.000000,0.096936,0.000000,-0.016859,-0.000041,0.035335,0.000006,0.094090,-0.000021,-0.015796,-0.002637,0.159788,0.000507,0.419114,0.000015,-0.071296,0.023615,1.054073,-0.001623,0.551392,0.005261,-0.210728
0.700000,0.000000,0.038607,0.000000,0.098662,0.000000,-0.017159,-0.000054,0.035977,0.000008,0.095787,-0.000021,-0.016089,-0.002702,0.160798,0.000525,0.423421,0.000004,-0.072036,0.029989,1.068813,-0.001938,0.556866,0.005346,-0.211848
0.704000,0.000000,0.039289,0.000000,0.100406,0.000000,-0.017462,-0.000066,0.036623,0.000010,0.097502,-0.000021,-0.016386,-0.002764,0.161832,0.000544,0.427728,-0.000007,-0.072774,0.036508,1.084876,-0.002268,0.562334,0.005444,-0.212969
0.708000,0.000000,0.039978,0.000000,0.102166,0.000000,-0.017768,-0.000080,0.037273,0.000013,0.099234,-0.000022,-0.016685,-0.002824,0.162897,0.000565,0.432033,-0.000018,-0.073512,0.043166,1.102197,-0.002612,0.567796,0.005552,-0.214091
0.712000,0.000000,0.040674,0.000000,0.103944,0.000000,-0.018077,-0.000093,0.037928,0.000015,0.100983,-0.000022,-0.016988,-0.002880,0.163997,0.000588,0.436332,-0.000028,-0.074249,0.049955,1.120700,-0.002972,0.573258,0.005671,-0.215213
0.716000,0.000000,0.041376,0.000000,0.105739,0.000000,-0.018389,-0.000107,0.038588,0.000017,0.102750,-0.000022,-0.017293,-0.002934,0.165138,0.000614,0.440624,-0.000038,-0.074986,0.056869,1.140299,-0.003350,0.578726,0.005800,-0.216336
0.720000,0.000000,0.042086,0.000000,0.107552,0.000000,-0.018705,-0.000121,0.039252,0.000019,0.104534,-0.000023,-0.017602,-0.002984,0.166324,0.000641,0.444907,-0.000047,-0.075722,0.063901,1.160898,-0.003746,0.584209,0.005938,-0.217458
0.724000,0.000000,0.042802,0.000000,0.109382,0.000000,-0.019023,-0.000135,0.039921,0.000022,0.106335,-0.000024,-0.017913,-0.003032,0.167559,0.000670,0.449179,-0.000056,-0.076458,0.071046,1.182395,-0.004162,0.589716,0.006085,-0.218580
0.728000,0.000000,0.043524,0.000000,0.111229,0.000000,-0.019344,-0.000149,0.040595,0.000025,0.108154,-0.000024,-0.018227,-0.003078,0.168847,0.000701,0.453439,-0.000063,-0.077193,0.078298,1.204677,-0.004599,0.595258,0.006239,-0.219701
0.732000,0.000000,0.044254,0.000000,0.113093,0.000000,-0.019668,-0.000164,0.041274,0.000027,0.109989,-0.000025,-0.018545,-0.003123,0.170190,0.000734,0.457691,-0.000070,-0.077928,0.085658,1.227628,-0.005058,0.600832,0.006400,-0.220821
0.736000,0.000000,0.044990,0.000000,0.114975,0.000000,-0.019996,-0.000179,0.041959,0.000030,0.111842,-0.000025,-0.018865,-0.003172,0.171592,0.000768,0.461941,-0.000075,-0.078661,0.093138,1.251125,-0.005539,0.606424,0.006566,-0.221938
0.740000,0.000000,0.045733,0.000000,0.116873,0.000000,-0.020326,-0.000194,0.042649,0.000033,0.113711,-0.000026,-0.019189,-0.003224,0.173053,0.000803,0.466185,-0.000080,-0.079394,0.100741,1.275042,-0.006043,0.612035,0.006737,-0.223052
0.744000,0.000000,0.046483,0.000000,0.118789,0.000000,-0.020659,-0.000209,0.043346,0.000036,0.115598,-0.000027,-0.019515,-0.003277,0.174575,0.000841,0.470417,-0.000084,-0.080126,0.108469,1.299251,-0.006571,0.617676,0.006911,-0.224165
0.748000,0.000000,0.047239,0.000000,0.120722,0.000000,-0.020995,-0.000225,0.044049,0.000040,0.117502,-0.000027,-0.019845,-0.003330,0.176159,0.000879,0.474635,-0.000086,-0.080856,0.116320,1.323621,-0.007125,0.623359,0.007088,-0.225276
0.752000,0.000000,0.048002,0.000000,0.122672,0.000000,-0.021334,-0.000240,0.044758,0.000043,0.119423,-0.000028,-0.020177,-0.003381,0.177803,0.000919,0.478835,-0.000088,-0.081585,0.124291,1.348024,-0.007704,0.629099,0.007266,-0.226384
0.756000,0.000000,0.048772,0.000000,0.124639,0.000000,-0.021676,-0.000257,0.045474,0.000047,0.121361,-0.000029,-0.020513,-0.003431,0.179508,0.000960,0.483016,-0.000088,-0.082313,0.132378,1.372331,-0.008309,0.634909,0.007443,-0.227490
0.760000,0.000000,0.049548,0.000000,0.126623,0.000000,-0.022021,-0.000273,0.046197,0.000051,0.123315,-0.000029,-0.020851,-0.003480,0.181273,0.001002,0.487180,-0.000087,-0.083040,0.140579,1.396415,-0.008941,0.640802,0.007620,-0.228592
0.764000,0.000000,0.050331,0.000000,0.128624,0.000000,-0.022369,-0.000289,0.046927,0.000055,0.125286,-0.000030,-0.021192,-0.003528,0.183094,0.001045,0.491325,-0.000085,-0.083766,0.148891,1.420155,-0.009599,0.646790,0.007795,-0.229690
0.768000,0.000000,0.051121,0.000000,0.130642,0.000000,-0.022720,-0.000306,0.047665,0.000059,0.127274,-0.000031,-0.021537,-0.003574,0.184970,0.001087,0.495453,-0.000082,-0.084490,0.157310,1.443435,-0.010283,0.652880,0.007966,-0.230783
0.772000,0.000000,0.051917,0.000000,0.132676,0.000000,-0.023074,-0.000323,0.048410,0.000063,0.129279,-0.000032,-0.021884,-0.003619,0.186897,0.001129,0.499566,-0.000078,-0.085213,0.165834,1.466142,-0.010992,0.659078,0.008133,-0.231871
0.776000,0.000000,0.052720,0.000000,0.134728,0.000000,-0.023431,-0.000340,0.049163,0.000068,0.131300,-0.000032,-0.022234,-0.003663,0.188872,0.001171,0.503665,-0.000073,-0.085935,0.174463,1.488172,-0.011727,0.665384,0.008294,-0.232952
0.780000,0.000000,0.053529,0.000000,0.136796,0.000000,-0.023791,-0.000357,0.049924,0.000073,0.133337,-0.000033,-0.022587,-0.003707,0.190891,0.001213,0.507751,-0.000067,-0.086655,0.183196,1.509431,-0.012486,0.671799,0.008450,-0.234028
0.784000,0.000000,0.054345,0.000000,0.138881,0.000000,-0.024153,-0.000375,0.050694,0.000077,0.135391,-0.000033,-0.022943,-0.003751,0.192948,0.001253,0.511827,-0.000060,-0.087373,0.192031,1.529831,-0.013269,0.678320,0.008598,-0.235096
0.788000,0.000000,0.055167,0.000000,0.140982,0.000000,-0.024519,-0.000393,0.051471,0.000082,0.137462,-0.000034,-0.023302,-0.003794,0.195039,0.001292,0.515891,-0.000053,-0.088090,0.200969,1.549294,-0.014075,0.684942,0.008739,-0.236159
0.792000,0.000000,0.055996,0.000000,0.143101,0.000000,-0.024887,-0.000411,0.052257,0.000088,0.139549,-0.000035,-0.023664,-0.003837,0.197159,0.001330,0.519946,-0.000044,-0.088804,0.210009,1.567753,-0.014902,0.691658,0.008871,-0.237214
0.796000,0.000000,0.056831,0.000000,0.145235,0.000000,-0.025258,-0.000429,0.053052,0.000093,0.141652,-0.000035,-0.024029,-0.003880,0.199303,0.001366,0.523992,-0.000035,-0.089515,0.219148,1.585154,-0.015749,0.698462,0.008994,-0.238262
0.800000,0.000000,0.057673,0.000000,0.147386,0.000000,-0.025632,-0.000447,0.053855,0.000098,0.143771,-0.000036,-0.024397,-0.003922,0.201463,0.001400,0.528028,-0.000025,-0.090225,0.228388,1.601451,-0.016614,0.705347,0.009107,-0.239304
0.804000,0.000000,0.058521,0.000000,0.149554,0.000000,-0.026009,-0.000466,0.054667,0.000104,0.145906,-0.000036,-0.024767,-0.003963,0.203634,0.001432,0.532054,-0.000015,-0.090932,0.237724,1.616611,-0.017497,0.712307,0.009211,-0.240339
0.808000,0.000000,0.059376,0.000000,0.151738,0.000000,-0.026389,-0.000485,0.055488,0.000110,0.148058,-0.000037,-0.025141,-0.004004,0.205810,0.001462,0.536069,-0.000005,-0.091636,0.247155,1.630614,-0.018396,0.719336,0.009304,-0.241367
0.812000,0.000000,0.060237,0.000000,0.153938,0.000000,-0.026772,-0.000504,0.056317,0.000115,0.150226,-0.000037,-0.025517,-0.004042,0.207985,0.001489,0.540072,0.000006,-0.092337,0.256676,1.643452,-0.019309,0.726429,0.009387,-0.242390
0.816000,0.000000,0.061104,0.000000,0.156155,0.000000,-0.027157,-0.000523,0.057155,0.000121,0.152410,-0.000037,-0.025897,-0.004079,0.210153,0.001514,0.544062,0.000017,-0.093035,0.266286,1.655129,-0.020234,0.733582,0.009459,-0.243406
0.820000,0.000000,0.061978,0.000000,0.158387,0.000000,-0.027546,-0.000542,0.058002,0.000127,0.154610,-0.000038,-0.026279,-0.004115,0.212307,0.001536,0.548039,0.000028,-0.093731,0.275977,1.665660,-0.021171,0.740791,0.009520,-0.244415
0.824000,0.000000,0.062858,0.000000,0.160636,0.000000,-0.027937,-0.000561,0.058857,0.000133,0.156826,-0.000038,-0.026664,-0.004148,0.214440,0.001555,0.552000,0.000039,-0.094423,0.285747,1.675072,-0.022116,0.748056,0.009571,-0.245419
0.828000,0.000000,0.063744,0.000000,0.162901,0.000000,-0.028331,-0.000581,0.059721,0.000140,0.159058,-0.000038,-0.027051,-0.004178,0.216549,0.001571,0.555946,0.000050,-0.095113,0.295589,1.683405,-0.023068,0.755373,0.009612,-0.246416
0.832000,0.000000,0.064636,0.000000,0.165181,0.000000,-0.028727,-0.000601,0.060593,0.000146,0.161306,-0.000038,-0.027443,-0.004207,0.218625,0.001585,0.559882,0.000061,-0.095958,0.305502,1.690708,-0.024026,0.762718,0.009643,-0.246919
0.836000,0.000000,0.065535,0.000000,0.167478,0.000000,-0.029127,-0.000621,0.061473,0.000152,0.163569,-0.000038,-0.027839,-0.004235,0.220665,0.001596,0.563807,0.000071,-0.097007,0.315481,1.697043,-0.024988,0.770068,0.009665,-0.246511
0.840000,0.000000,0.066440,0.000000,0.169790,0.000000,-0.029529,-0.000641,0.062362,0.000159,0.165849,-0.000038,-0.028240,-0.004258,0.222663,0.001604,0.567703,0.000081,-0.097890,0.325516,1.702479,-0.025953,0.777468,0.009677,-0.245949
0.844000,0.000000,0.067351,0.000000,0.172118,0.000000,-0.029934,-0.000661,0.063258,0.000165,0.168144,-0.000038,-0.028644,-0.004278,0.224615,0.001611,0.571569,0.000090,-0.098610,0.335599,1.707095,-0.026920,0.784936,0.009682,-0.245431
0.848000,0.000000,0.068268,0.000000,0.174462,0.000000,-0.030341,-0.000681,0.064162,0.000171,0.170454,-0.000039,-0.029051,-0.004295,0.226515,0.001614,0.575409,0.000099,-0.099235,0.345723,1.710979,-0.027887,0.792476,0.009678,-0.244975
0.852000,0.000000,0.069191,0.000000,0.176821,0.000000,-0.030751,-0.000701,0.065073,0.000178,0.172780,-0.000039,-0.029461,-0.004309,0.228361,0.001616,0.579227,0.000107,-0.099817,0.355884,1.714225,-0.028853,0.800089,0.009668,-0.244557
0.856000,0.000000,0.070120,0.000000,0.179196,0.000000,-0.031164,-0.000722,0.065992,0.000184,0.175121,-0.000038,-0.029874,-0.004322,0.230149,0.001615,0.583023,0.000114,-0.100381,0.366078,1.716935,-0.029817,0.807774,0.009651,-0.244157
0.860000,0.000000,0.071055,0.000000,0.181586,0.000000,-0.031580,-0.000742,0.066918,0.000191,0.177478,-0.000038,-0.030289,-0.004333,0.231875,0.001613,0.586800,0.000121,-0.100939,0.376303,1.719213,-0.030778,0.815526,0.009629,-0.243763
0.864000,0.000000,0.071996,0.000000,0.183991,0.000000,-0.031998,-0.000763,0.067850,0.000197,0.179849,-0.000038,-0.030707,-0.004342,0.233539,0.001610,0.590557,0.000126,-0.101494,0.386553,1.721170,-0.031736,0.823344,0.009603,-0.243370
0.868000,0.000000,0.072944,0.000000,0.186411,0.000000,-0.032419,-0.000783,0.068789,0.000203,0.182236,-0.000038,-0.031128,-0.004351,0.235138,0.001605,0.594295,0.000131,-0.102046,0.396828,1.722920,-0.032692,0.831222,0.009574,-0.242978
0.872000,0.000000,0.073897,0.000000,0.188847,0.000000,-0.032843,-0.000804,0.069734,0.000210,0.184638,-0.000038,-0.031551,-0.004358,0.236670,0.001600,0.598013,0.000135,-0.102595,0.407125,1.724577,-0.033644,0.839158,0.009542,-0.242586
0.876000,0.000000,0.074856,0.000000,0.191298,0.000000,-0.033269,-0.000824,0.070685,0.000216,0.187054,-0.000038,-0.031977,-0.004364,0.238136,0.001595,0.601710,0.000137,-0.103142,0.417440,1.726257,-0.034593,0.847148,0.009508,-0.242194
0.880000,0.000000,0.075820,0.000000,0.193763,0.000000,-0.033698,-0.000845,0.071642,0.000222,0.189486,-0.000038,-0.032405,-0.004369,0.239535,0.001590,0.605386,0.000139,-0.103684,0.427773,1.728075,-0.035540,0.855188,0.009475,-0.241802
0.884000,0.000000,0.076791,0.000000,0.196243,0.000000,-0.034129,-0.000866,0.072604,0.000229,0.191932,-0.000038,-0.032837,-0.004373,0.240867,0.001585,0.609041,0.000140,-0.104223,0.438119,1.730146,-0.036486,0.863277,0.009441,-0.241410
0.888000,0.000000,0.077767,0.000000,0.198738,0.000000,-0.034563,-0.000886,0.073572,0.000235,0.194393,-0.000038,-0.033270,-0.004375,0.242135,0.001582,0.612674,0.000140,-0.104759,0.448477,1.732581,-0.037432,0.871411,0.009409,-0.241020
0.892000,0.000000,0.078749,0.000000,0.201248,0.000000,-0.035000,-0.000907,0.074544,0.000241,0.196868,-0.000037,-0.033706,-0.004377,0.243339,0.001580,0.616283,0.000139,-0.105291,0.458844,1.735487,-0.038379,0.879589,0.009380,-0.240630
0.896000,0.000000,0.079737,0.000000,0.203772,0.000000,-0.035439,-0.000928,0.075521,0.000248,0.199358,-0.000037,-0.034145,-0.004378,0.244481,0.001580,0.619869,0.000136,-0.105819,0.469218,1.738967,-0.039329,0.887811,0.009354,-0.240241
0.900000,0.000000,0.080730,0.000000,0.206311,0.000000,-0.035880,-0.000949,0.076503,0.000254,0.201862,-0.000037,-0.034587,-0.004377,0.245565,0.001583,0.623430,0.000133,-0.106344,0.479597,1.743117,-0.040284,0.896075,0.009333,-0.239853
0.904000,0.000000,0.081729,0.000000,0.208864,0.000000,-0.036324,-0.000969,0.077488,0.000260,0.204381,-0.000037,-0.035030,-0.004376,0.246593,0.001588,0.626965,0.000129,-0.106864,0.489978,1.748029,-0.041245,0.904381,0.009317,-0.239466
0.908000,0.000000,0.082734,0.000000,0.211431,0.000000,-0.036771,-0.000990,0.078478,0.000267,0.206913,-0.000037,-0.035477,-0.004373,0.247569,0.001596,0.630475,0.000125,-0.107381,0.500358,1.753784,-0.042216,0.912731,0.009306,-0.239079
0.912000,0.000000,0.083744,0.000000,0.214012,0.000000,-0.037219,-0.001011,0.079471,0.000273,0.209460,-0.000037,-0.035925,-0.004370,0.248497,0.001608,0.633957,0.000119,-0.107895,0.510737,1.760459,-0.043199,0.921123,0.009303,-0.238694
0.916000,0.000000,0.084759,0.000000,0.216607,0.000000,-0.037671,-0.001032,0.080468,0.000280,0.212021,-0.000037,-0.036376,-0.004366,0.249380,0.001624,0.637413,0.000113,-0.108404,0.521112,1.768117,-0.044196,0.929558,0.009306,-0.238309
0.920000,0.000000,0.085780,0.000000,0.219216,0.000000,-0.038125,-0.001052,0.081469,0.000286,0.214595,-0.000037,-0.036830,-0.004361,0.250225,0.001644,0.640840,0.000106,-0.108909,0.531483,1.776815,-0.045211,0.938038,0.009318,-0.237925
0.924000,0.000000,0.086806,0.000000,0.221839,0.000000,-0.038581,-0.001073,0.082472,0.000293,0.217183,-0.000037,-0.037286,-0.004356,0.251035,0.001668,0.644239,0.000098,-0.109411,0.541847,1.786600,-0.046247,0.946564,0.009338,-0.237541
0.928000,0.000000,0.087838,0.000000,0.224475,0.000000,-0.039039,-0.001094,0.083479,0.000300,0.219785,-0.000037,-0.037744,-0.004350,0.251815,0.001697,0.647610,0.000091,-0.109908,0.552205,1.797506,-0.047305,0.955134,0.009366,-0.237159
0.932000,0.000000,0.088875,0.000000,0.227125,0.000000,-0.039500,-0.001114,0.084489,0.000307,0.222400,-0.000037,-0.038205,-0.004344,0.252571,0.001731,0.650952,0.000082,-0.110402,0.562555,1.809559,-0.048391,0.963751,0.009404,-0.236777
0.936000,0.000000,0.089917,0.000000,0.229788,0.000000,-0.039963,-0.001135,0.085502,0.000314,0.225029,-0.000037,-0.038668,-0.004339,0.253309,0.001769,0.654264,0.000074,-0.110891,0.572898,1.822772,-0.049506,0.972415,0.009451,-0.236396
0.940000,0.000000,0.090965,0.000000,0.232465,0.000000,-0.040429,-0.001156,0.086518,0.000321,0.227671,-0.000038,-0.039134,-0.004333,0.254032,0.001813,0.657547,0.000065,-0.111376,0.583233,1.837148,-0.050655,0.981125,0.009508,-0.236015
0.944000,0.000000,0.092017,0.000000,0.235155,0.000000,-0.040897,-0.001177,0.087537,0.000328,0.230326,-0.000038,-0.039601,-0.004327,0.254747,0.001863,0.660799,0.000056,-0.111856,0.593561,1.852680,-0.051839,0.989883,0.009574,-0.235635
0.948000,0.000000,0.093075,0.000000,0.237858,0.000000,-0.041367,-0.001197,0.088559,0.000336,0.232994,-0.000038,-0.040071,-0.004321,0.255459,0.001917,0.664022,0.000047,-0.112332,0.603882,1.869348,-0.053063,0.998688,0.009650,-0.235256
0.952000,0.000000,0.094138,0.000000,0.240574,0.000000,-0.041839,-0.001218,0.089583,0.000344,0.235675,-0.000038,-0.040544,-0.004316,0.256173,0.001976,0.667213,0.000038,-0.112804,0.614197,1.887123,-0.054330,1.007541,0.009735,-0.234877
0.956000,0.000000,0.095205,0.000000,0.243302,0.000000,-0.042313,-0.001238,0.090611,0.000352,0.238369,-0.000039,-0.041018,-0.004311,0.256894,0.002040,0.670374,0.000029,-0.113272,0.624507,1.905966,-0.055641,1.016441,0.009829,-0.234500
0.960000,0.000000,0.096278,0.000000,0.246044,0.000000,-0.042790,-0.001259,0.091641,0.000361,0.241075,-0.000039,-0.041495,-0.004306,0.257626,0.002109,0.673503,0.000020,-0.113735,0.634812,1.925827,-0.057001,1.025389,0.009932,-0.234123
0.964000,0.000000,0.097356,0.000000,0.248797,0.000000,-0.043269,-0.001280,0.092674,0.000369,0.243794,-0.000039,-0.041974,-0.004302,0.258375,0.002183,0.676601,0.000012,-0.114193,0.645115,1.946648,-0.058411,1.034386,0.010043,-0.233746
0.968000,0.000000,0.098438,0.000000,0.251564,0.000000,-0.043750,-0.001300,0.093710,0.000378,0.246525,-0.000040,-0.042455,-0.004299,0.259144,0.002261,0.679666,0.000004,-0.114646,0.655415,1.968361,-0.059873,1.043430,0.010162,-0.233371
0.972000,0.000000,0.099525,0.000000,0.254342,0.000000,-0.044233,-0.001321,0.094750,0.000388,0.249268,-0.000040,-0.042938,-0.004296,0.259937,0.002342,0.682700,-0.000003,-0.115096,0.665713,1.990893,-0.061390,1.052523,0.010289,-0.232996
0.976000,0.000000,0.100617,0.000000,0.257133,0.000000,-0.044719,-0.001341,0.095792,0.000397,0.252024,-0.000041,-0.043423,-0.004294,0.260757,0.002428,0.685700,-0.000010,-0.115540,0.676012,2.014161,-0.062964,1.061663,0.010422,-0.232622
0.980000,0.000000,0.101714,0.000000,0.259936,0.000000,-0.045206,-0.001362,0.096839,0.000408,0.254792,-0.000041,-0.043911,-0.004292,0.261608,0.002516,0.688667,-0.000017,-0.115979,0.686313,2.038077,-0.064595,1.070853,0.010561,-0.232249
0.984000,0.000000,0.102815,0.000000,0.262750,0.000000,-0.045696,-0.001383,0.097888,0.000418,0.257571,-0.000042,-0.044400,-0.004291,0.262493,0.002607,0.691601,-0.000022,-0.116414,0.696615,2.062548,-0.066286,1.080092,0.010705,-0.231877
0.988000,0.000000,0.103921,0.000000,0.265577,0.000000,-0.046187,-0.001403,0.098941,0.000429,0.260362,-0.000043,-0.044892,-0.004290,0.263412,0.002700,0.694501,-0.000027,-0.116844,0.706921,2.087475,-0.068035,1.089380,0.010854,-0.231506
0.992000,0.000000,0.105032,0.000000,0.268415,0.000000,-0.046681,-0.001424,0.099998,0.000440,0.263165,-0.000043,-0.045385,-0.004290,0.264369,0.002795,0.697367,-0.000031,-0.117269,0.717232,2.112759,-0.069845,1.098717,0.011006,-0.231135
0.996000,0.000000,0.106147,0.000000,0.271264,0.000000,-0.047176,-0.001444,0.101059,0.000452,0.265979,-0.000044,-0.045881,-0.004290,0.265363,0.002890,0.700198,-0.000034,-0.117689,0.727548,2.138295,-0.071714,1.108105,0.011162,-0.230765
1.000000,0.000000,0.107266,0.000000,0.274125,0.000000,-0.047674,-0.001465,0.102124,0.000463,0.268804,-0.000044,-0.046379,-0.004291,0.266396,0.002987,0.702995,-0.000037,-0.118104,0.737870,2.163978,-0.073643,1.117542,0.011319,-0.230396
1.004000,0.000000,0.108390,0.000000,0.276997,0.000000,-0.048173,-0.001486,0.103193,0.000476,0.271641,-0.000045,-0.046878,-0.004292,0.267468,0.003082,0.705757,-0.000038,-0.118514,0.748199,2.189704,-0.075631,1.127030,0.011477,-0.230028
1.008000,0.000000,0.109518,0.000000,0.279880,0.000000,-0.048675,-0.001506,0.104267,0.000489,0.274489,-0.000046,-0.047380,-0.004294,0.268578,0.003178,0.708483,-0.000039,-0.118919,0.758536,2.215369,-0.077676,1.136568,0.011636,-0.229660
1.012000,0.000000,0.110651,0.000000,0.282774,0.000000,-0.049178,-0.001527,0.105345,0.000502,0.277347,-0.000046,-0.047883,-0.004295,0.269724,0.003271,0.711174,-0.000039,-0.119319,0.768880,2.240869,-0.079777,1.146158,0.011793,-0.229294
1.016000,0.000000,0.111787,0.000000,0.285679,0.000000,-0.049683,-0.001548,0.106428,0.000515,0.280216,-0.000047,-0.048389,-0.004297,0.270907,0.003363,0.713829,-0.000038,-0.119713,0.779234,2.266106,-0.081932,1.155797,0.011949,-0.228928
1.020000,0.000000,0.112928,0.000000,0.288594,0.000000,-0.050190,-0.001569,0.107515,0.000529,0.283096,-0.000047,-0.048896,-0.004299,0.272124,0.003452,0.716448,-0.000036,-0.120103,0.789595,2.290984,-0.084140,1.165488,0.012103,-0.228563
1.024000,0.000000,0.114073,0.000000,0.291520,0.000000,-0.050699,-0.001589,0.108608,0.000543,0.285986,-0.000048,-0.049405,-0.004302,0.273372,0.003538,0.719031,-0.000033,-0.120487,0.799966,2.315411,-0.086396,1.175228,0.012254,-0.228198
1.028000,0.000000,0.115222,0.000000,0.294456,0.000000,-0.051210,-0.001610,0.109706,0.000558,0.288887,-0.000049,-0.049916,-0.004304,0.274648,0.003620,0.721578,-0.000030,-0.120866,0.810345,2.339302,-0.088699,1.185019,0.012400,-0.227835
1.032000,0.000000,0.116375,0.000000,0.297403,0.000000,-0.051722,-0.001631,0.110808,0.000573,0.291798,-0.000049,-0.050428,-0.004306,0.275950,0.003698,0.724088,-0.000026,-0.121239,0.820732,2.362577,-0.091045,1.194860,0.012542,-0.227472
1.036000,0.000000,0.117532,0.000000,0.300359,0.000000,-0.052236,-0.001652,0.111916,0.000588,0.294719,-0.000050,-0.050943,-0.004308,0.277274,0.003771,0.726561,-0.000021,-0.121607,0.831127,2.385165,-0.093430,1.204750,0.012678,-0.227110
1.040000,0.000000,0.118693,0.000000,0.303325,0.000000,-0.052752,-0.001672,0.113030,0.000604,0.297649,-0.000050,-0.051459,-0.004310,0.278615,0.003839,0.728997,-0.000015,-0.121970,0.841529,2.407001,-0.095852,1.214689,0.012808,-0.226749
1.044000,0.000000,0.119857,0.000000,0.306301,0.000000,-0.053270,-0.001693,0.114149,0.000619,0.300589,-0.000051,-0.051977,-0.004311,0.279970,0.003901,0.731396,-0.000009,-0.122327,0.851937,2.428029,-0.098307,1.224675,0.012932,-0.226388
1.048000,0.000000,0.121025,0.000000,0.309287,0.000000,-0.053789,-0.001714,0.115273,0.000635,0.303539,-0.000051,-0.052496,-0.004312,0.281335,0.003957,0.733758,-0.000003,-0.122679,0.862350,2.448201,-0.100790,1.234709,0.013049,-0.226028
1.052000,0.000000,0.122197,0.000000,0.312282,0.000000,-0.054310,-0.001735,0.116403,0.000652,0.306498,-0.000052,-0.053017,-0.004313,0.282703,0.004007,0.736082,0.000005,-0.123025,0.872767,2.467480,-0.103297,1.244789,0.013158,-0.225670
1.056000,0.000000,0.123373,0.000000,0.315286,0.000000,-0.054832,-0.001756,0.117538,0.000668,0.309467,-0.000052,-0.053540,-0.004313,0.284071,0.004051,0.738369,0.000012,-0.123366,0.883186,2.485838,-0.105824,1.254914,0.013259,-0.225312
1.060000,0.000000,0.124552,0.000000,0.318300,0.000000,-0.055356,-0.001777,0.118679,0.000685,0.312445,-0.000053,-0.054064,-0.004312,0.285434,0.004088,0.740617,0.000020,-0.123701,0.893606,2.503255,-0.108368,1.265082,0.013352,-0.224955
1.064000,0.000000,0.125735,0.000000,0.321322,0.000000,-0.055882,-0.001797,0.119825,0.000701,0.315431,-0.000053,-0.054590,-0.004310,0.286787,0.004119,0.742828,0.000028,-0.124030,0.904024,2.519723,-0.110924,1.275294,0.013438,-0.224598
1.068000,0.000000,0.126921,0.000000,0.324353,0.000000,-0.056409,-0.001818,0.120976,0.000718,0.318426,-0.000053,-0.055118,-0.004308,0.288124,0.004143,0.745001,0.000036,-0.124354,0.914440,2.535244,-0.113488,1.285547,0.013515,-0.224243
1.072000,0.000000,0.128110,0.000000,0.327393,0.000000,-0.056938,-0.001839,0.122133,0.000735,0.321430,-0.000054,-0.055647,-0.004305,0.289440,0.004160,0.747135,0.000044,-0.124672,0.924851,2.549828,-0.116056,1.295839,0.013583,-0.223888
1.076000,0.000000,0.129303,0.000000,0.330441,0.000000,-0.057468,-0.001860,0.123295,0.000752,0.324443,-0.000054,-0.056177,-0.004301,0.290731,0.004171,0.749231,0.000052,-0.124984,0.935254,2.563495,-0.118624,1.306170,0.013644,-0.223535
1.080000,0.000000,0.130499,0.000000,0.333498,0.000000,-0.058000,-0.001881,0.124462,0.000769,0.327464,-0.000054,-0.056709,-0.004296,0.291992,0.004176,0.751288,0.000060,-0.125290,0.945648,2.576276,-0.121190,1.316538,0.013696,-0.223182
1.084000,0.000000,0.131698,0.000000,0.336562,0.000000,-0.058533,-0.001901,0.125634,0.000786,0.330492,-0.000054,-0.057243,-0.004290,0.293219,0.004174,0.753306,0.000068,-0.125591,0.956030,2.588210,-0.123749,1.326941,0.013741,-0.222830
1.088000,0.000000,0.132901,0.000000,0.339635,0.000000,-0.059067,-0.001922,0.126811,0.000803,0.333529,-0.000055,-0.057777,-0.004282,0.294406,0.004168,0.755286,0.000076,-0.125885,0.966398,2.599344,-0.126300,1.337377,0.013778,-0.222480
1.092000,0.000000,0.134106,0.000000,0.342716,0.000000,-0.059603,-0.001943,0.127993,0.000820,0.336574,-0.000055,-0.058314,-0.004274,0.295550,0.004156,0.757225,0.000083,-0.126174,0.976749,2.609734,-0.128838,1.347845,0.013808,-0.222130
1.096000,0.000000,0.135314,0.000000,0.345804,0.000000,-0.060140,-0.001964,0.129179,0.000837,0.339627,-0.000055,-0.058851,-0.004265,0.296647,0.004139,0.759126,0.000090,-0.126456,0.987080,2.619442,-0.131362,1.358343,0.013831,-0.221782
1.100000,0.000000,0.136526,0.000000,0.348899,0.000000,-0.060678,-0.001984,0.130369,0.000854,0.342687,-0.000055,-0.059390,-0.004254,0.297694,0.004119,0.760987,0.000097,-0.126733,0.997390,2.628539,-0.133871,1.368868,0.013849,-0.221434
1.104000,0.000000,0.137740,0.000000,0.352002,0.000000,-0.061218,-0.002005,0.131564,0.000871,0.345754,-0.000055,-0.059930,-0.004243,0.298687,0.004095,0.762808,0.000103,-0.127004,1.007675,2.637099,-0.136362,1.379420,0.013861,-0.221088
1.108000,0.000000,0.138957,0.000000,0.355112,0.000000,-0.061759,-0.002025,0.132762,0.000887,0.348828,-0.000055,-0.060472,-0.004230,0.299623,0.004068,0.764589,0.000108,-0.127268,1.017934,2.645202,-0.138834,1.389996,0.013868,-0.220743
1.112000,0.000000,0.140177,0.000000,0.358229,0.000000,-0.062301,-0.002046,0.133964,0.000904,0.351910,-0.000055,-0.061014,-0.004217,0.300502,0.004038,0.766330,0.000113,-0.127527,1.028163,2.652935,-0.141288,1.400595,0.013871,-0.220399
1.116000,0.000000,0.141399,0.000000,0.361353,0.000000,-0.062844,-0.002066,0.135169,0.000920,0.354999,-0.000055,-0.061558,-0.004202,0.301320,0.004008,0.768030,0.000117,-0.127779,1.038362,2.660385,-0.143722,1.411214,0.013870,-0.220056
1.120000,0.000000,0.142624,0.000000,0.364484,0.000000,-0.063388,-0.002087,0.136377,0.000937,0.358094,-0.000055,-0.062103,-0.004187,0.302076,0.003976,0.769689,0.000120,-0.128025,1.048526,2.667644,-0.146138,1.421852,0.013866,-0.219715
1.124000,0.000000,0.143852,0.000000,0.367621,0.000000,-0.063934,-0.002107,0.137588,0.000953,0.361195,-0.000055,-0.062649,-0.004170,0.302770,0.003945,0.771308,0.000122,-0.128265,1.058655,2.674802,-0.148536,1.432507,0.013861,-0.219374
1.128000,0.000000,0.145082,0.000000,0.370764,0.000000,-0.064481,-0.002127,0.138802,0.000969,0.364304,-0.000055,-0.063196,-0.004153,0.303400,0.003914,0.772885,0.000124,-0.128499,1.068747,2.681954,-0.150917,1.443178,0.013854,-0.219036
1.132000,0.000000,0.146314,0.000000,0.373914,0.000000,-0.065028,-0.002147,0.140018,0.000985,0.367418,-0.000055,-0.063745,-0.004136,0.303968,0.003885,0.774423,0.000125,-0.128727,1.078802,2.689191,-0.153284,1.453858,0.013847,-0.218698
1.136000,0.000000,0.147549,0.000000,0.377069,0.000000,-0.065577,-0.002167,0.141236,0.001001,0.370538,-0.000055,-0.064294,-0.004121,0.304474,0.003858,0.775924,0.000126,-0.128948,1.088828,2.696604,-0.155638,1.464535,0.013840,-0.218363
1.140000,0.000000,0.148786,0.000000,0.380230,0.000000,-0.066127,-0.002187,0.142457,0.001017,0.373665,-0.000055,-0.064844,-0.004108,0.304918,0.003835,0.777386,0.000125,-0.129163,1.098825,2.704283,-0.157982,1.475204,0.013835,-0.218029
1.144000,0.000000,0.150025,0.000000,0.383397,0.000000,-0.066678,-0.002207,0.143678,0.001033,0.376797,-0.000055,-0.065396,-0.004096,0.305302,0.003815,0.778807,0.000124,-0.129371,1.108797,2.712313,-0.160319,1.485864,0.013831,-0.217698
1.148000,0.000000,0.151266,0.000000,0.386569,0.000000,-0.067229,-0.002227,0.144902,0.001048,0.379934,-0.000055,-0.065948,-0.004084,0.305628,0.003799,0.780185,0.000122,-0.129573,1.118743,2.720776,-0.162653,1.496516,0.013829,-0.217369
1.152000,0.000000,0.152510,0.000000,0.389747,0.000000,-0.067782,-0.002247,0.146126,0.001064,0.383078,-0.000055,-0.066502,-0.004072,0.305898,0.003789,0.781518,0.000119,-0.129768,1.128664,2.729749,-0.164989,1.507163,0.013831,-0.217043
1.156000,0.000000,0.153755,0.000000,0.392929,0.000000,-0.068336,-0.002267,0.147351,0.001080,0.386226,-0.000055,-0.067056,-0.004060,0.306115,0.003785,0.782806,0.000115,-0.129957,1.138558,2.739304,-0.167329,1.517808,0.013837,-0.216718
1.160000,0.000000,0.155002,0.000000,0.396117,0.000000,-0.068890,-0.002287,0.148577,0.001095,0.389379,-0.000055,-0.067611,-0.004048,0.306281,0.003787,0.784047,0.000111,-0.130140,1.148426,2.749506,-0.169679,1.528455,0.013847,-0.216396
1.164000,0.000000,0.156251,0.000000,0.399309,0.000000,-0.069445,-0.002306,0.149804,0.001111,0.392537,-0.000055,-0.068167,-0.004036,0.306401,0.003797,0.785241,0.000107,-0.130316,1.158268,2.760414,-0.172043,1.539108,0.013863,-0.216075
1.168000,0.000000,0.157502,0.000000,0.402506,0.000000,-0.070001,-0.002326,0.151031,0.001127,0.395700,-0.000055,-0.068723,-0.004024,0.306477,0.003813,0.786389,0.000101,-0.130487,1.168082,2.772079,-0.174427,1.549772,0.013884,-0.215756
1.172000,0.000000,0.158755,0.000000,0.405707,0.000000,-0.070558,-0.002346,0.152258,0.001143,0.398868,-0.000055,-0.069281,-0.004012,0.306513,0.003837,0.787489,0.000096,-0.130651,1.177870,2.784543,-0.176834,1.560452,0.013911,-0.215438
1.176000,0.000000,0.160009,0.000000,0.408912,0.000000,-0.071115,-0.002365,0.153485,0.001159,0.402039,-0.000055,-0.069839,-0.004000,0.306515,0.003870,0.788542,0.000089,-0.130808,1.187630,2.797844,-0.179272,1.571149,0.013945,-0.215121
1.180000,0.000000,0.161265,0.000000,0.412121,0.000000,-0.071673,-0.002385,0.154712,0.001175,0.405215,-0.000056,-0.070398,-0.003988,0.306485,0.003910,0.789549,0.000083,-0.130960,1.197363,2.812006,-0.181743,1.581867,0.013985,-0.214805
1.184000,0.000000,0.162522,0.000000,0.415335,0.000000,-0.072232,-0.002404,0.155939,0.001191,0.408395,-0.000056,-0.070957,-0.003977,0.306427,0.003958,0.790509,0.000076,-0.131105,1.207071,2.827048,-0.184254,1.592608,0.014032,-0.214490
1.188000,0.000000,0.163781,0.000000,0.418551,0.000000,-0.072792,-0.002424,0.157166,0.001207,0.411578,-0.000056,-0.071518,-0.003966,0.306348,0.004015,0.791424,0.000069,-0.131243,1.216754,2.842978,-0.186810,1.603371,0.014086,-0.214177
1.192000,0.000000,0.165041,0.000000,0.421772,0.000000,-0.073352,-0.002443,0.158392,0.001224,0.414765,-0.000056,-0.072079,-0.003955,0.306250,0.004080,0.792293,0.000061,-0.131375,1.226412,2.859797,-0.189415,1.614159,0.014148,-0.213864
1.196000,0.000000,0.166302,0.000000,0.424995,0.000000,-0.073912,-0.002462,0.159618,0.001241,0.417955,-0.000056,-0.072640,-0.003945,0.306138,0.004153,0.793118,0.000054,-0.131501,1.236048,2.877495,-0.192074,1.624969,0.014217,-0.213552
1.200000,0.000000,0.167565,0.000000,0.428222,0.000000,-0.074473,-0.002481,0.160844,0.001259,0.421149,-0.000057,-0.073202,-0.003935,0.306017,0.004234,0.793897,0.000047,-0.131619,1.245661,2.896055,-0.194792,1.635801,0.014293,-0.213241
1.204000,0.000000,0.168829,0.000000,0.431451,0.000000,-0.075035,-0.002501,0.162069,0.001276,0.424345,-0.000057,-0.073765,-0.003926,0.305891,0.004322,0.794633,0.000039,-0.131732,1.255254,2.915451,-0.197573,1.646652,0.014376,-0.212931
1.208000,0.000000,0.170094,0.000000,0.434684,0.000000,-0.075597,-0.002520,0.163293,0.001295,0.427544,-0.000057,-0.074328,-0.003917,0.305763,0.004418,0.795325,0.000032,-0.131837,1.264828,2.935647,-0.200420,1.657521,0.014465,-0.212622
1.212000,0.000000,0.171360,0.000000,0.437919,0.000000,-0.076160,-0.002539,0.164517,0.001313,0.430746,-0.000058,-0.074891,-0.003909,0.305638,0.004520,0.795972,0.000025,-0.131936,1.274384,2.956603,-0.203336,1.668405,0.014562,-0.212315
1.216000,0.000000,0.172626,0.000000,0.441156,0.000000,-0.076723,-0.002558,0.165741,0.001332,0.433951,-0.000058,-0.075455,-0.003902,0.305520,0.004628,0.796576,0.000018,-0.132028,1.283923,2.978267,-0.206326,1.679302,0.014665,-0.212008
1.220000,0.000000,0.173894,0.000000,0.444396,0.000000,-0.077286,-0.002577,0.166964,0.001351,0.437157,-0.000058,-0.076019,-0.003895,0.305411,0.004741,0.797136,0.000012,-0.132113,1.293446,3.000585,-0.209391,1.690208,0.014773,-0.211704
1.224000,0.000000,0.175162,0.000000,0.447637,0.000000,-0.077850,-0.002596,0.168186,0.001371,0.440366,-0.000059,-0.076584,-0.003889,0.305315,0.004859,0.797652,0.000006,-0.132192,1.302954,3.023493,-0.212534,1.701122,0.014887,-0.211401
1.228000,0.000000,0.176431,0.000000,0.450880,0.000000,-0.078414,-0.002615,0.169408,0.001392,0.443577,-0.000059,-0.077149,-0.003883,0.305235,0.004981,0.798125,0.000000,-0.132264,1.312448,3.046925,-0.215755,1.712041,0.015007,-0.211100
1.232000,0.000000,0.177701,0.000000,0.454125,0.000000,-0.078978,-0.002634,0.170630,0.001413,0.446789,-0.000060,-0.077715,-0.003877,0.305172,0.005106,0.798552,-0.000005,-0.132329,1.321927,3.070806,-0.219056,1.722963,0.015130,-0.210801
1.236000,0.000000,0.178972,0.000000,0.457372,0.000000,-0.079543,-0.002653,0.171852,0.001434,0.450004,-0.000060,-0.078280,-0.003871,0.305129,0.005233,0.798935,-0.000010,-0.132387,1.331393,3.095061,-0.222438,1.733887,0.015257,-0.210503
1.240000,0.000000,0.180242,0.000000,0.460619,0.000000,-0.080108,-0.002672,0.173074,0.001456,0.453219,-0.000061,-0.078846,-0.003866,0.305108,0.005361,0.799274,-0.000014,-0.132439,1.340846,3.119611,-0.225899,1.744811,0.015388,-0.210208
1.244000,0.000000,0.181514,0.000000,0.463868,0.000000,-0.080673,-0.002691,0.174296,0.001478,0.456436,-0.000061,-0.079412,-0.003861,0.305110,0.005490,0.799567,-0.000017,-0.132484,1.350285,3.144372,-0.229440,1.755734,0.015521,-0.209914
1.248000,0.000000,0.182785,0.000000,0.467118,0.000000,-0.081238,-0.002710,0.175517,0.001501,0.459654,-0.000062,-0.079978,-0.003855,0.305135,0.005619,0.799815,-0.000020,-0.132522,1.359711,3.169262,-0.233059,1.766656,0.015656,-0.209622
1.252000,0.000000,0.184057,0.000000,0.470368,0.000000,-0.081803,-0.002729,0.176739,0.001525,0.462872,-0.000062,-0.080545,-0.003850,0.305183,0.005746,0.800017,-0.000022,-0.132553,1.369123,3.194196,-0.236754,1.777577,0.015792,-0.209333
1.256000,0.000000,0.185329,0.000000,0.473619,0.000000,-0.082369,-0.002747,0.177961,0.001549,0.466092,-0.000063,-0.081111,-0.003844,0.305256,0.005870,0.800174,-0.000024,-0.132578,1.378522,3.219091,-0.240522,1.788495,0.015929,-0.209045
1.260000,0.000000,0.186602,0.000000,0.476871,0.000000,-0.082934,-0.002766,0.179184,0.001573,0.469311,-0.000063,-0.081678,-0.003839,0.305352,0.005992,0.800284,-0.000025,-0.132596,1.387905,3.243863,-0.244361,1.799413,0.016066,-0.208760
1.264000,0.000000,0.187874,0.000000,0.480122,0.000000,-0.083499,-0.002785,0.180407,0.001598,0.472532,-0.000064,-0.082244,-0.003833,0.305470,0.006109,0.800349,-0.000025,-0.132607,1.397274,3.268433,-0.248266,1.810328,0.016201,-0.208476
1.268000,0.000000,0.189146,0.000000,0.483373,0.000000,-0.084065,-0.002804,0.181630,0.001623,0.475752,-0.000064,-0.082811,-0.003827,0.305609,0.006221,0.800367,-0.000024,-0.132612,1.406627,3.292721,-0.252235,1.821243,0.016336,-0.208194
1.272000,0.000000,0.190418,0.000000,0.486625,0.000000,-0.084630,-0.002822,0.182855,0.001649,0.478972,-0.000065,-0.083377,-0.003820,0.305767,0.006327,0.800339,-0.000023,-0.132610,1.415963,3.316653,-0.256262,1.832158,0.016468,-0.207914
1.276000,0.000000,0.191690,0.000000,0.489876,0.000000,-0.085196,-0.002841,0.184079,0.001676,0.482192,-0.000066,-0.083944,-0.003814,0.305942,0.006427,0.800264,-0.000021,-0.132601,1.425282,3.340160,-0.260343,1.843071,0.016598,-0.207636
1.280000,0.000000,0.192962,0.000000,0.493126,0.000000,-0.085761,-0.002860,0.185305,0.001702,0.485411,-0.000066,-0.084510,-0.003807,0.306132,0.006520,0.800144,-0.000019,-0.132586,1.434582,3.363175,-0.264473,1.853985,0.016724,-0.207360
1.284000,0.000000,0.194234,0.000000,0.496375,0.000000,-0.086326,-0.002878,0.186531,0.001729,0.488630,-0.000067,-0.085077,-0.003799,0.306334,0.006604,0.799977,-0.000016,-0.132563,1.443863,3.385639,-0.268645,1.864898,0.016846,-0.207085
1.288000,0.000000,0.195505,0.000000,0.499624,0.000000,-0.086891,-0.002897,0.187758,0.001757,0.491848,-0.000067,-0.085643,-0.003791,0.306546,0.006680,0.799765,-0.000013,-0.132535,1.453123,3.407498,-0.272855,1.875812,0.016964,-0.206812
1.292000,0.000000,0.196776,0.000000,0.502871,0.000000,-0.087456,-0.002915,0.188986,0.001784,0.495065,-0.000068,-0.086209,-0.003783,0.306762,0.006747,0.799507,-0.000009,-0.132499,1.462362,3.428705,-0.277096,1.886724,0.017078,-0.206541
1.296000,0.000000,0.198046,0.000000,0.506117,0.000000,-0.088020,-0.002934,0.190215,0.001812,0.498281,-0.000068,-0.086775,-0.003774,0.306981,0.006805,0.799203,-0.000005,-0.132457,1.471577,3.449220,-0.281363,1.897635,0.017186,-0.206272
1.300000,0.000000,0.199316,0.000000,0.509362,0.000000,-0.088585,-0.002952,0.191445,0.001840,0.501496,-0.000068,-0.087340,-0.003764,0.307199,0.006854,0.798853,0.000000,-0.132408,1.480769,3.469011,-0.285649,1.908544,0.017289,-0.206004
1.304000,0.000000,0.200584,0.000000,0.512605,0.000000,-0.089149,-0.002970,0.192676,0.001868,0.504709,-0.000069,-0.087905,-0.003754,0.307412,0.006892,0.798459,0.000005,-0.132352,1.489935,3.488053,-0.289948,1.919450,0.017386,-0.205738
1.308000,0.000000,0.201853,0.000000,0.515846,0.000000,-0.089712,-0.002989,0.193907,0.001897,0.507920,-0.000069,-0.088470,-0.003744,0.307615,0.006921,0.798019,0.000010,-0.132289,1.499074,3.506329,-0.294254,1.930352,0.017476,-0.205473
1.312000,0.000000,0.203120,0.000000,0.519085,0.000000,-0.090276,-0.003007,0.195139,0.001925,0.511129,-0.000070,-0.089035,-0.003732,0.307805,0.006940,0.797534,0.000016,-0.132220,1.508184,3.523829,-0.298561,1.941248,0.017561,-0.205211
1.316000,0.000000,0.204387,0.000000,0.522321,0.000000,-0.090839,-0.003025,0.196372,0.001954,0.514337,-0.000070,-0.089599,-0.003720,0.307978,0.006949,0.797005,0.000022,-0.132144,1.517265,3.540554,-0.302864,1.952137,0.017640,-0.204950
1.320000,0.000000,0.205652,0.000000,0.525556,0.000000,-0.091401,-0.003043,0.197606,0.001983,0.517542,-0.000070,-0.090163,-0.003708,0.308130,0.006949,0.796431,0.000027,-0.132061,1.526314,3.556509,-0.307157,1.963017,0.017712,-0.204691
1.324000,0.000000,0.206917,0.000000,0.528787,0.000000,-0.091963,-0.003061,0.198840,0.002011,0.520744,-0.000071,-0.090726,-0.003695,0.308257,0.006940,0.795812,0.000033,-0.131972,1.535329,3.571710,-0.311435,1.973886,0.017778,-0.204433
1.328000,0.000000,0.208180,0.000000,0.532016,0.000000,-0.092525,-0.003079,0.200075,0.002040,0.523944,-0.000071,-0.091289,-0.003681,0.308356,0.006922,0.795149,0.000039,-0.131876,1.544309,3.586179,-0.315693,1.984743,0.017838,-0.204177
1.332000,0.000000,0.209443,0.000000,0.535242,0.000000,-0.093086,-0.003097,0.201310,0.002068,0.527141,-0.000071,-0.091852,-0.003666,0.308422,0.006896,0.794442,0.000044,-0.131773,1.553253,3.599946,-0.319926,1.995585,0.017892,-0.203924
1.336000,0.000000,0.210704,0.000000,0.538465,0.000000,-0.093646,-0.003115,0.202545,0.002096,0.530335,-0.000071,-0.092414,-0.003650,0.308452,0.006862,0.793691,0.000049,-0.131664,1.562158,3.613047,-0.324132,2.006411,0.017940,-0.203672
1.340000,0.000000,0.211963,0.000000,0.541684,0.000000,-0.094206,-0.003133,0.203780,0.002124,0.533526,-0.000071,-0.092975,-0.003634,0.308443,0.006822,0.792896,0.000055,-0.131547,1.571022,3.625526,-0.328305,2.017218,0.017983,-0.203422
1.344000,0.000000,0.213222,0.000000,0.544900,0.000000,-0.094765,-0.003151,0.205015,0.002152,0.536714,-0.000072,-0.093536,-0.003617,0.308393,0.006775,0.792056,0.000059,-0.131424,1.579845,3.637431,-0.332444,2.028006,0.018021,-0.203174
1.348000,0.000000,0.214479,0.000000,0.548112,0.000000,-0.095324,-0.003168,0.206249,0.002180,0.539898,-0.000072,-0.094096,-0.003599,0.308297,0.006723,0.791173,0.000064,-0.131295,1.588624,3.648816,-0.336547,2.038771,0.018054,-0.202928
1.352000,0.000000,0.215734,0.000000,0.551320,0.000000,-0.095882,-0.003186,0.207484,0.002208,0.543078,-0.000072,-0.094655,-0.003581,0.308155,0.006666,0.790245,0.000068,-0.131158,1.597357,3.659742,-0.340610,2.049513,0.018082,-0.202684
1.356000,0.000000,0.216988,0.000000,0.554524,0.000000,-0.096439,-0.003203,0.208717,0.002235,0.546255,-0.000072,-0.095214,-0.003562,0.307964,0.006606,0.789273,0.000072,-0.131015,1.606043,3.670271,-0.344634,2.060230,0.018107,-0.202442
1.360000,0.000000,0.218240,0.000000,0.557724,0.000000,-0.096995,-0.003220,0.209950,0.002262,0.549427,-0.000072,-0.095772,-0.003542,0.307722,0.006543,0.788258,0.000075,-0.130866,1.614681,3.680469,-0.348618,2.070920,0.018129,-0.202203
1.364000,0.000000,0.219490,0.000000,0.560919,0.000000,-0.097551,-0.003238,0.211181,0.002289,0.552595,-0.000072,-0.096329,-0.003522,0.307428,0.006479,0.787198,0.000078,-0.130709,1.623269,3.690407,-0.352562,2.081582,0.018148,-0.201965
1.368000,0.000000,0.220739,0.000000,0.564110,0.000000,-0.098106,-0.003255,0.212411,0.002316,0.555759,-0.000072,-0.096885,-0.003501,0.307080,0.006414,0.786095,0.000080,-0.130547,1.631805,3.700154,-0.356466,2.092216,0.018164,-0.201730
1.372000,0.000000,0.221985,0.000000,0.567296,0.000000,-0.098660,-0.003272,0.213640,0.002342,0.558918,-0.000072,-0.097441,-0.003479,0.306680,0.006349,0.784947,0.000081,-0.130377,1.640289,3.709785,-0.360333,2.102819,0.018179,-0.201497
1.376000,0.000000,0.223230,0.000000,0.570477,0.000000,-0.099213,-0.003289,0.214867,0.002368,0.562073,-0.000072,-0.097996,-0.003457,0.306225,0.006286,0.783756,0.000082,-0.130201,1.648719,3.719370,-0.364163,2.113391,0.018193,-0.201266
1.380000,0.000000,0.224473,0.000000,0.573653,0.000000,-0.099766,-0.003306,0.216092,0.002394,0.565222,-0.000073,-0.098550,-0.003435,0.305717,0.006225,0.782520,0.000083,-0.130018,1.657095,3.728982,-0.367961,2.123930,0.018206,-0.201038
1.384000,0.000000,0.225713,0.000000,0.576823,0.000000,-0.100317,-0.003322,0.217315,0.002420,0.568367,-0.000073,-0.099103,-0.003412,0.305156,0.006168,0.781241,0.000083,-0.129829,1.665415,3.738693,-0.371728,2.134438,0.018220,-0.200811
1.388000,0.000000,0.226952,0.000000,0.579988,0.000000,-0.100868,-0.003339,0.218535,0.002445,0.571506,-0.000073,-0.099655,-0.003389,0.304543,0.006115,0.779917,0.000082,-0.129634,1.673679,3.748572,-0.375468,2.144911,0.018234,-0.200587
1.392000,0.000000,0.228188,0.000000,0.583148,0.000000,-0.101417,-0.003355,0.219753,0.002470,0.574639,-0.000073,-0.100206,-0.003366,0.303879,0.006068,0.778550,0.000081,-0.129431,1.681888,3.758684,-0.379186,2.155352,0.018250,-0.200366
1.396000,0.000000,0.229422,0.000000,0.586301,0.000000,-0.101965,-0.003372,0.220968,0.002495,0.577767,-0.000073,-0.100756,-0.003342,0.303166,0.006026,0.777139,0.000079,-0.129223,1.690039,3.769093,-0.382886,2.165758,0.018267,-0.200147
1.400000,0.000000,0.230654,0.000000,0.589448,0.000000,-0.102513,-0.003388,0.222180,0.002520,0.580889,-0.000073,-0.101305,-0.003319,0.302406,0.005991,0.775684,0.000077,-0.129008,1.698135,3.779858,-0.386573,2.176129,0.018286,-0.199930
1.404000,0.000000,0.231883,0.000000,0.592589,0.000000,-0.103059,-0.003404,0.223389,0.002545,0.584005,-0.000073,-0.101852,-0.003296,0.301602,0.005964,0.774186,0.000074,-0.128786,1.706174,3.791034,-0.390253,2.186466,0.018309,-0.199715
1.408000,0.000000,0.233109,0.000000,0.595724,0.000000,-0.103604,-0.003420,0.224595,0.002570,0.587115,-0.000073,-0.102399,-0.003273,0.300756,0.005944,0.772643,0.000070,-0.128558,1.714156,3.802669,-0.393930,2.196768,0.018335,-0.199503
1.412000,0.000000,0.234333,0.000000,0.598852,0.000000,-0.104148,-0.003436,0.225797,0.002594,0.590219,-0.000073,-0.102945,-0.003250,0.299870,0.005934,0.771058,0.000066,-0.128324,1.722084,3.814808,-0.397611,2.207036,0.018364,-0.199293
1.416000,0.000000,0.235555,0.000000,0.601973,0.000000,-0.104691,-0.003452,0.226996,0.002619,0.593316,-0.000073,-0.103489,-0.003227,0.298948,0.005932,0.769428,0.000062,-0.128083,1.729956,3.827487,-0.401301,2.217269,0.018397,-0.199086
1.420000,0.000000,0.236773,0.000000,0.605088,0.000000,-0.105233,-0.003467,0.228190,0.002644,0.596406,-0.000073,-0.104033,-0.003205,0.297993,0.005939,0.767756,0.000058,-0.127836,1.737775,3.840740,-0.405007,2.227467,0.018435,-0.198881
1.424000,0.000000,0.237989,0.000000,0.608195,0.000000,-0.105773,-0.003483,0.229381,0.002668,0.599490,-0.000074,-0.104575,-0.003183,0.297009,0.005957,0.766040,0.000053,-0.127583,1.745540,3.854589,-0.408734,2.237632,0.018478,-0.198679
1.428000,0.000000,0.239202,0.000000,0.611295,0.000000,-0.106312,-0.003499,0.230568,0.002693,0.602566,-0.000074,-0.105116,-0.003162,0.295999,0.005983,0.764281,0.000048,-0.127323,1.753253,3.869053,-0.412489,2.247762,0.018525,-0.198479
1.432000,0.000000,0.240413,0.000000,0.614388,0.000000,-0.106850,-0.003514,0.231751,0.002718,0.605636,-0.000074,-0.105655,-0.003141,0.294966,0.006019,0.762479,0.000042,-0.127057,1.760916,3.884142,-0.416276,2.257858,0.018577,-0.198281
1.436000,0.000000,0.241620,0.000000,0.617473,0.000000,-0.107387,-0.003529,0.232930,0.002743,0.608698,-0.000074,-0.106193,-0.003121,0.293914,0.006065,0.760635,0.000037,-0.126785,1.768530,3.899860,-0.420102,2.267921,0.018635,-0.198086
1.440000,0.000000,0.242824,0.000000,0.620550,0.000000,-0.107922,-0.003544,0.234104,0.002769,0.611752,-0.000074,-0.106730,-0.003102,0.292847,0.006120,0.758748,0.000031,-0.126507,1.776095,3.916203,-0.423972,2.277950,0.018698,-0.197894
1.444000,0.000000,0.244025,0.000000,0.623619,0.000000,-0.108456,-0.003559,0.235274,0.002794,0.614798,-0.000075,-0.107266,-0.003083,0.291768,0.006184,0.756818,0.000025,-0.126222,1.783614,3.933162,-0.427891,2.287947,0.018766,-0.197704
1.448000,0.000000,0.245223,0.000000,0.626680,0.000000,-0.108988,-0.003574,0.236440,0.002820,0.617837,-0.000075,-0.107800,-0.003065,0.290681,0.006256,0.754846,0.000019,-0.125932,1.791088,3.950719,-0.431863,2.297912,0.018839,-0.197516
1.452000,0.000000,0.246417,0.000000,0.629733,0.000000,-0.109519,-0.003589,0.237601,0.002846,0.620868,-0.000075,-0.108333,-0.003047,0.289589,0.006337,0.752832,0.000014,-0.125635,1.798519,3.968849,-0.435893,2.307845,0.018917,-0.197331
1.456000,0.000000,0.247609,0.000000,0.632778,0.000000,-0.110048,-0.003604,0.238758,0.002873,0.623890,-0.000075,-0.108864,-0.003031,0.288495,0.006424,0.750776,0.000008,-0.125332,1.805908,3.987524,-0.439984,2.317747,0.019000,-0.197148
1.460000,0.000000,0.248797,0.000000,0.635813,0.000000,-0.110576,-0.003619,0.239911,0.002899,0.626904,-0.000076,-0.109394,-0.003015,0.287403,0.006518,0.748679,0.000003,-0.125024,1.813257,4.006707,-0.444140,2.327618,0.019088,-0.196967
1.464000,0.000000,0.249981,0.000000,0.638840,0.000000,-0.111103,-0.003634,0.241059,0.002927,0.629910,-0.000076,-0.109922,-0.003000,0.286315,0.006618,0.746540,-0.000002,-0.124709,1.820568,4.026357,-0.448363,2.337459,0.019181,-0.196789
1.468000,0.000000,0.251162,0.000000,0.641858,0.000000,-0.111628,-0.003648,0.242203,0.002954,0.632906,-0.000076,-0.110449,-0.002985,0.285234,0.006723,0.744360,-0.000007,-0.124388,1.827841,4.046428,-0.452655,2.347271,0.019277,-0.196614
1.472000,0.000000,0.252339,0.000000,0.644867,0.000000,-0.112151,-0.003663,0.243342,0.002982,0.635894,-0.000077,-0.110974,-0.002971,0.284162,0.006832,0.742139,-0.000012,-0.124062,1.835080,4.066868,-0.457017,2.357052,0.019377,-0.196440
1.476000,0.000000,0.253513,0.000000,0.647867,0.000000,-0.112673,-0.003677,0.244478,0.003011,0.638873,-0.000077,-0.111497,-0.002958,0.283100,0.006944,0.739877,-0.000016,-0.123729,1.842284,4.087624,-0.461451,2.366805,0.019481,-0.196270
1.480000,0.000000,0.254683,0.000000,0.650857,0.000000,-0.113193,-0.003691,0.245609,0.003040,0.641842,-0.000078,-0.112019,-0.002946,0.282052,0.007058,0.737575,-0.000020,-0.123391,1.849456,4.108638,-0.465956,2.376530,0.019587,-0.196101
1.484000,0.000000,0.255850,0.000000,0.653838,0.000000,-0.113711,-0.003706,0.246736,0.003070,0.644802,-0.000078,-0.112539,-0.002934,0.281018,0.007173,0.735233,-0.000024,-0.123047,1.856596,4.129850,-0.470532,2.386226,0.019696,-0.195935
1.488000,0.000000,0.257012,0.000000,0.656809,0.000000,-0.114228,-0.003720,0.247859,0.003099,0.647753,-0.000079,-0.113058,-0.002922,0.280000,0.007288,0.732851,-0.000027,-0.122697,1.863706,4.151197,-0.475178,2.395894,0.019808,-0.195771
1.492000,0.000000,0.258171,0.000000,0.659770,0.000000,-0.114743,-0.003734,0.248978,0.003130,0.650694,-0.000079,-0.113575,-0.002912,0.278998,0.007402,0.730430,-0.000029,-0.122341,1.870787,4.172616,-0.479891,2.405535,0.019920,-0.195610
1.496000,0.000000,0.259326,0.000000,0.662721,0.000000,-0.115256,-0.003748,0.250092,0.003161,0.653625,-0.000079,-0.114090,-0.002901,0.278012,0.007514,0.727970,-0.000031,-0.121980,1.877839,4.194043,-0.484669,2.415148,0.020034,-0.195450
1.500000,0.000000,0.260476,0.000000,0.665662,0.000000,-0.115767,-0.003762,0.251203,0.003192,0.656546,-0.000080,-0.114603,-0.002891,0.277043,0.007622,0.725471,-0.000033,-0.121613,1.884864,4.215414,-0.489509,2.424733,0.020149,-0.195293
1.504000,0.000000,0.261623,0.000000,0.668592,0.000000,-0.116277,-0.003776,0.252310,0.003224,0.659456,-0.000080,-0.115115,-0.002881,0.276090,0.007727,0.722934,-0.000034,-0.121241,1.891861,4.236667,-0.494408,2.434291,0.020263,-0.195139
1.508000,0.000000,0.262766,0.000000,0.671512,0.000000,-0.116785,-0.003790,0.253414,0.003256,0.662357,-0.000081,-0.115624,-0.002871,0.275153,0.007826,0.720359,-0.000035,-0.120862,1.898832,4.257740,-0.499360,2.443822,0.020377,-0.194986
1.512000,0.000000,0.263904,0.000000,0.674421,0.000000,-0.117291,-0.003804,0.254513,0.003288,0.665247,-0.000081,-0.116132,-0.002862,0.274231,0.007919,0.717746,-0.000035,-0.120479,1.905776,4.278575,-0.504362,2.453324,0.020491,-0.194836
1.516000,0.000000,0.265038,0.000000,0.677320,0.000000,-0.117795,-0.003818,0.255609,0.003321,0.668126,-0.000082,-0.116638,-0.002852,0.273322,0.008005,0.715096,-0.000035,-0.120090,1.912693,4.299113,-0.509409,2.462799,0.020603,-0.194687
1.520000,0.000000,0.266168,0.000000,0.680207,0.000000,-0.118297,-0.003832,0.256702,0.003354,0.670995,-0.000082,-0.117142,-0.002843,0.272426,0.008084,0.712410,-0.000034,-0.119695,1.919584,4.319303,-0.514494,2.472245,0.020713,-0.194541
1.524000,0.000000,0.267293,0.000000,0.683083,0.000000,-0.118797,-0.003846,0.257791,0.003388,0.673853,-0.000083,-0.117644,-0.002833,0.271539,0.008154,0.709686,-0.000033,-0.119295,1.926447,4.339095,-0.519612,2.481662,0.020820,-0.194398
1.528000,0.000000,0.268415,0.000000,0.685948,0.000000,-0.119295,-0.003859,0.258876,0.003421,0.676699,-0.000083,-0.118145,-0.002823,0.270662,0.008215,0.706927,-0.000031,-0.118890,1.933283,4.358445,-0.524756,2.491049,0.020925,-0.194256
1.532000,0.000000,0.269531,0.000000,0.688802,0.000000,-0.119792,-0.003873,0.259958,0.003455,0.679535,-0.000083,-0.118643,-0.002813,0.269790,0.008266,0.704132,-0.000029,-0.118479,1.940091,4.377312,-0.529921,2.500407,0.021028,-0.194117
1.536000,0.000000,0.270643,0.000000,0.691644,0.000000,-0.120286,-0.003887,0.261036,0.003490,0.682359,-0.000084,-0.119139,-0.002803,0.268922,0.008308,0.701302,-0.000026,-0.118064,1.946870,4.395662,-0.535100,2.509734,0.021126,-0.193979
1.540000,0.000000,0.271751,0.000000,0.694474,0.000000,-0.120778,-0.003900,0.262111,0.003524,0.685171,-0.000084,-0.119633,-0.002792,0.268055,0.008339,0.698437,-0.000024,-0.117643,1.953619,4.413465,-0.540286,2.519029,0.021221,-0.193844
1.544000,0.000000,0.272854,0.000000,0.697293,0.000000,-0.121268,-0.003914,0.263182,0.003558,0.687972,-0.000085,-0.120126,-0.002781,0.267186,0.008359,0.695537,-0.000021,-0.117216,1.960336,4.430697,-0.545472,2.528292,0.021312,-0.193711
1.548000,0.000000,0.273952,0.000000,0.700100,0.000000,-0.121756,-0.003927,0.264250,0.003593,0.690761,-0.000085,-0.120616,-0.002770,0.266313,0.008370,0.692603,-0.000017,-0.116785,1.967022,4.447342,-0.550653,2.537521,0.021399,-0.193580
1.552000,0.000000,0.275046,0.000000,0.702894,0.000000,-0.122242,-0.003940,0.265314,0.003627,0.693538,-0.000085,-0.121104,-0.002757,0.265432,0.008369,0.689636,-0.000014,-0.116348,1.973674,4.463387,-0.555821,2.546717,0.021482,-0.193452
1.556000,0.000000,0.276134,0.000000,0.705676,0.000000,-0.122726,-0.003954,0.266375,0.003661,0.696304,-0.000086,-0.121590,-0.002744,0.264541,0.008358,0.686635,-0.000010,-0.115907,1.980291,4.478827,-0.560970,2.555877,0.021560,-0.193325
1.560000,0.000000,0.277218,0.000000,0.708446,0.000000,-0.123208,-0.003967,0.267433,0.003696,0.699057,-0.000086,-0.122073,-0.002731,0.263637,0.008337,0.683601,-0.000006,-0.115461,1.986872,4.493663,-0.566095,2.565001,0.021634,-0.193201
1.564000,0.000000,0.278297,0.000000,0.711204,0.000000,-0.123688,-0.003980,0.268486,0.003730,0.701797,-0.000086,-0.122555,-0.002717,0.262717,0.008306,0.680535,-0.000003,-0.115009,1.993414,4.507901,-0.571190,2.574088,0.021703,-0.193079
1.568000,0.000000,0.279371,0.000000,0.713948,0.000000,-0.124165,-0.003993,0.269536,0.003764,0.704526,-0.000087,-0.123034,-0.002702,0.261778,0.008265,0.677437,0.000001,-0.114553,1.999917,4.521555,-0.576250,2.583137,0.021768,-0.192959
1.572000,0.000000,0.280440,0.000000,0.716680,0.000000,-0.124640,-0.004006,0.270582,0.003798,0.707241,-0.000087,-0.123511,-0.002686,0.260817,0.008216,0.674306,0.000005,-0.114092,2.006379,4.534642,-0.581270,2.592147,0.021828,-0.192841
1.576000,0.000000,0.281504,0.000000,0.719399,0.000000,-0.125113,-0.004019,0.271624,0.003832,0.709944,-0.000087,-0.123986,-0.002670,0.259832,0.008158,0.671145,0.000009,-0.113626,2.012798,4.547186,-0.586245,2.601117,0.021884,-0.192726
1.580000,0.000000,0.282563,0.000000,0.722105,0.000000,-0.125584,-0.004032,0.272662,0.003865,0.712634,-0.000087,-0.124459,-0.002653,0.258821,0.008092,0.667952,0.000013,-0.113155,2.019172,4.559217,-0.591171,2.610045,0.021936,-0.192612
1.584000,0.000000,0.283617,0.000000,0.724798,0.000000,-0.126052,-0.004044,0.273696,0.003898,0.715312,-0.000088,-0.124929,-0.002636,0.257781,0.008020,0.664729,0.000016,-0.112680,2.025501,4.570766,-0.596046,2.618932,0.021984,-0.192501
1.588000,0.000000,0.284665,0.000000,0.727478,0.000000,-0.126518,-0.004057,0.274726,0.003931,0.717976,-0.000088,-0.125397,-0.002617,0.256710,0.007941,0.661475,0.000019,-0.112200,2.031782,4.581873,-0.600867,2.627775,0.022028,-0.192393
1.592000,0.000000,0.285708,0.000000,0.730144,0.000000,-0.126982,-0.004070,0.275751,0.003964,0.720627,-0.000088,-0.125863,-0.002598,0.255607,0.007858,0.658191,0.000022,-0.111716,2.038015,4.592579,-0.605632,2.636575,0.022069,-0.192287
1.596000,0.000000,0.286746,0.000000,0.732796,0.000000,-0.127443,-0.004082,0.276772,0.003996,0.723264,-0.000088,-0.126327,-0.002579,0.254470,0.007771,0.654878,0.000025,-0.111227,2.044197,4.602929,-0.610338,2.645330,0.022107,-0.192183
1.600000,0.000000,0.287779,0.000000,0.735435,0.000000,-0.127902,-0.004094,0.277788,0.004028,0.725889,-0.000088,-0.126788,-0.002559,0.253297,0.007680,0.651535,0.000028,-0.110734,2.050328,4.612970,-0.614987,2.654040,0.022141,-0.192081
1.604000,0.000000,0.288806,0.000000,0.738061,0.000000,-0.128358,-0.004106,0.278800,0.004059,0.728499,-0.000088,-0.127246,-0.002538,0.252088,0.007587,0.648164,0.000030,-0.110236,2.056406,4.622752,-0.619576,2.662704,0.022174,-0.191982
1.608000,0.000000,0.289828,0.000000,0.740672,0.000000,-0.128812,-0.004119,0.279806,0.004090,0.731096,-0.000089,-0.127703,-0.002517,0.250842,0.007493,0.644764,0.000032,-0.109734,2.062431,4.632327,-0.624107,2.671322,0.022204,-0.191885
1.612000,0.000000,0.290844,0.000000,0.743269,0.000000,-0.129264,-0.004131,0.280808,0.004121,0.733680,-0.000089,-0.128156,-0.002496,0.249559,0.007399,0.641336,0.000033,-0.109228,2.068401,4.641747,-0.628581,2.679892,0.022233,-0.191791
1.616000,0.000000,0.291855,0.000000,0.745852,0.000000,-0.129713,-0.004142,0.281804,0.004151,0.736249,-0.000089,-0.128608,-0.002474,0.248239,0.007306,0.637880,0.000034,-0.108718,2.074316,4.651065,-0.633000,2.688416,0.022261,-0.191699
1.620000,0.000000,0.292861,0.000000,0.748421,0.000000,-0.130160,-0.004154,0.282795,0.004181,0.738804,-0.000089,-0.129057,-0.002452,0.246881,0.007215,0.634396,0.000035,-0.108203,2.080176,4.660333,-0.637365,2.696891,0.022287,-0.191610
1.624000,0.000000,0.293860,0.000000,0.750976,0.000000,-0.130605,-0.004166,0.283780,0.004211,0.741346,-0.000089,-0.129503,-0.002430,0.245487,0.007126,0.630886,0.000035,-0.107685,2.085981,4.669605,-0.641680,2.705319,0.022314,-0.191523
1.628000,0.000000,0.294854,0.000000,0.753516,0.000000,-0.131046,-0.004177,0.284760,0.004240,0.743873,-0.000089,-0.129947,-0.002408,0.244057,0.007042,0.627348,0.000035,-0.107162,2.091729,4.678930,-0.645948,2.713699,0.022340,-0.191438
1.632000,0.000000,0.295843,0.000000,0.756042,0.000000,-0.131486,-0.004189,0.285734,0.004269,0.746385,-0.000089,-0.130388,-0.002386,0.242592,0.006962,0.623785,0.000034,-0.106636,2.097422,4.688357,-0.650172,2.722032,0.022367,-0.191356
1.636000,0.000000,0.296825,0.000000,0.758553,0.000000,-0.131922,-0.004200,0.286701,0.004297,0.748884,-0.000089,-0.130827,-0.002364,0.241094,0.006888,0.620195,0.000033,-0.106106,2.103059,4.697933,-0.654357,2.730316,0.022394,-0.191277
1.640000,0.000000,0.297802,0.000000,0.761049,0.000000,-0.132356,-0.004211,0.287663,0.004326,0.751367,-0.000089,-0.131263,-0.002342,0.239564,0.006819,0.616580,0.000032,-0.105572,2.108641,4.707701,-0.658508,2.738553,0.022423,-0.191200
1.644000,0.000000,0.298773,0.000000,0.763531,0.000000,-0.132788,-0.004223,0.288619,0.004354,0.753837,-0.000090,-0.131697,-0.002320,0.238004,0.006758,0.612939,0.000030,-0.105034,2.114168,4.717701,-0.662629,2.746743,0.022453,-0.191126
1.648000,0.000000,0.299738,0.000000,0.765998,0.000000,-0.133217,-0.004234,0.289568,0.004381,0.756291,-0.000090,-0.132128,-0.002299,0.236416,0.006704,0.609274,0.000028,-0.104493,2.119642,4.727970,-0.666725,2.754886,0.022485,-0.191054
1.652000,0.000000,0.300697,0.000000,0.768449,0.000000,-0.133643,-0.004244,0.290511,0.004409,0.758731,-0.000090,-0.132557,-0.002278,0.234802,0.006658,0.605584,0.000026,-0.103948,2.125063,4.738541,-0.670802,2.762983,0.022519,-0.190984
1.656000,0.000000,0.301651,0.000000,0.770885,0.000000,-0.134067,-0.004255,0.291447,0.004436,0.761155,-0.000090,-0.132983,-0.002257,0.233165,0.006620,0.601870,0.000023,-0.103400,2.130433,4.749440,-0.674864,2.771034,0.022556,-0.190918
1.660000,0.000000,0.302598,0.000000,0.773307,0.000000,-0.134488,-0.004266,0.292377,0.004464,0.763565,-0.000090,-0.133406,-0.002237,0.231507,0.006590,0.598133,0.000020,-0.102849,2.135752,4.760691,-0.678918,2.779040,0.022595,-0.190853
1.664000,0.000000,0.303540,0.000000,0.775712,0.000000,-0.134907,-0.004277,0.293300,0.004491,0.765959,-0.000090,-0.133826,-0.002218,0.229831,0.006569,0.594373,0.000017,-0.102294,2.141022,4.772312,-0.682969,2.787002,0.022638,-0.190791
1.668000,0.000000,0.304475,0.000000,0.778103,0.000000,-0.135322,-0.004287,0.294216,0.004518,0.768339,-0.000090,-0.134244,-0.002199,0.228139,0.006557,0.590589,0.000013,-0.101736,2.146244,4.784318,-0.687022,2.794920,0.022683,-0.190732
1.672000,0.000000,0.305404,0.000000,0.780478,0.000000,-0.135735,-0.004297,0.295126,0.004545,0.770703,-0.000091,-0.134659,-0.002181,0.226434,0.006554,0.586784,0.000010,-0.101174,2.151421,4.796715,-0.691082,2.802795,0.022732,-0.190675
1.676000,0.000000,0.306328,0.000000,0.782837,0.000000,-0.136146,-0.004308,0.296028,0.004572,0.773051,-0.000091,-0.135072,-0.002164,0.224719,0.006559,0.582957,0.000006,-0.100610,2.156554,4.809508,-0.695155,2.810628,0.022783,-0.190620
1.680000,0.000000,0.307245,0.000000,0.785181,0.000000,-0.136553,-0.004318,0.296924,0.004600,0.775384,-0.000091,-0.135482,-0.002148,0.222997,0.006573,0.579109,0.000002,-0.100043,2.161645,4.822693,-0.699245,2.818420,0.022839,-0.190568
1.684000,0.000000,0.308156,0.000000,0.787509,0.000000,-0.136958,-0.004328,0.297813,0.004627,0.777702,-0.000091,-0.135889,-0.002132,0.221271,0.006594,0.575240,-0.000002,-0.099472,2.166695,4.836265,-0.703356,2.826171,0.022897,-0.190518
1.688000,0.000000,0.309061,0.000000,0.789821,0.000000,-0.137360,-0.004338,0.298695,0.004654,0.780004,-0.000091,-0.136293,-0.002117,0.219542,0.006623,0.571352,-0.000005,-0.098930,2.171707,4.850210,-0.707492,2.833880,0.022959,-0.190375
1.692000,0.000000,0.309959,0.000000,0.792118,0.000000,-0.137760,-0.004348,0.299570,0.004682,0.782290,-0.000092,-0.136696,-0.002103,0.217814,0.006659,0.567447,-0.000009,-0.098503,2.176679,4.864513,-0.711658,2.841537,0.023024,-0.189824
1.696000,0.000000,0.310851,0.000000,0.794398,0.000000,-0.138156,-0.004358,0.300438,0.004709,0.784561,-0.000092,-0.137096,-0.002089,0.216089,0.006702,0.563523,-0.000013,-0.098095,2.181614,4.879153,-0.715856,2.849147,0.023093,-0.188948
1.700000,0.000000,0.311738,0.000000,0.796663,0.000000,-0.138550,-0.004368,0.301299,0.004737,0.786816,-0.000092,-0.137495,-0.002075,0.214369,0.006750,0.559577,-0.000017,-0.097658,2.186513,4.894104,-0.720089,2.856716,0.023164,-0.187836
1.704000,0.000000,0.312617,0.000000,0.798911,0.000000,-0.138941,-0.004378,0.302153,0.004765,0.789054,-0.000092,-0.137893,-0.002062,0.212657,0.006803,0.555611,-0.000020,-0.097171,2.191376,4.909338,-0.724360,2.864249,0.023238,-0.186561
1.708000,0.000000,0.313491,0.000000,0.801143,0.000000,-0.139329,-0.004387,0.303001,0.004793,0.791277,-0.000093,-0.138288,-0.002050,0.210954,0.006860,0.551624,-0.000023,-0.096631,2.196207,4.924822,-0.728669,2.871752,0.023315,-0.185184
