ThanhNV-Robotics/Bipedal_Robot_Sytem_Identification/data/left_leg_simulation_data.csv
time,ref_q1,ref_q2,ref_q3,ref_q4,ref_q5,ref_q6,q1,q2,q3,q4,q5,q6,vel_q1,vel_q2,vel_q3,vel_q4,vel_q5,vel_q6,tau1,tau2,tau3,tau4,tau5,tau6,ref_acc1,ref_acc2,ref_acc3,ref_acc4,ref_acc5,ref_acc6
0.004000,0.000000,0.000000,0.000000,0.000000,0.000000,0.000000,0.000001,0.000000,-0.000000,0.000004,-0.000000,0.000036,0.000242,0.000078,-0.000000,0.001720,-0.000028,0.013162,-0.000459,-0.000155,0.000002,-0.002958,0.000052,-0.022015,0.000000,0.000000,0.000000,0.000000,0.000000,-0.000000
0.008000,0.000000,0.000000,0.000000,0.000000,0.000000,-0.000000,0.000002,0.000001,0.000000,0.000015,-0.000000,0.000103,0.000464,0.000130,0.000003,0.003005,-0.000023,0.017885,-0.001456,-0.000438,-0.000003,-0.008159,0.000080,-0.047117,0.000000,0.011710,0.000000,0.029927,0.000000,-0.005205
0.012000,0.000000,0.000000,0.000000,0.000000,0.000000,-0.000000,0.000004,0.000001,0.000000,0.000029,-0.000000,0.000175,0.000656,0.000165,0.000007,0.003941,-0.000010,0.017774,-0.002832,-0.000782,-0.000011,-0.014410,0.000080,-0.066468,0.000000,0.023280,0.000000,0.059493,0.000000,-0.010347
0.016000,0.000000,0.000000,0.000000,0.000000,0.000000,-0.000000,0.000008,0.000002,0.000000,0.000047,-0.000000,0.000240,0.000815,0.000188,0.000009,0.004602,0.000002,0.015284,-0.004519,-0.001161,-0.000020,-0.021370,0.000066,-0.080318,0.000000,0.034709,0.000000,0.088702,0.000000,-0.015426
0.020000,0.000000,0.000000,0.000000,0.000000,0.000000,-0.000000,0.000011,0.000003,0.000000,0.000066,-0.000000,0.000293,0.000944,0.000204,0.000010,0.005046,0.000009,0.011959,-0.006456,-0.001559,-0.000028,-0.028771,0.000049,-0.089553,0.000000,0.045999,0.000000,0.117553,0.000000,-0.020444
0.024000,0.000000,0.000000,0.000000,0.000000,0.000000,-0.000000,0.000015,0.000004,0.000000,0.000087,-0.000000,0.000333,0.001046,0.000214,0.000010,0.005324,0.000012,0.008679,-0.008586,-0.001962,-0.000035,-0.036408,0.000033,-0.095247,0.000000,0.057149,0.000000,0.146049,0.000000,-0.025400
0.028000,0.000000,0.000000,0.000000,0.000000,0.000000,-0.000000,0.000020,0.000004,0.000000,0.000109,-0.000000,0.000360,0.001123,0.000221,0.000009,0.005476,0.000011,0.005872,-0.010864,-0.002356,-0.000040,-0.044122,0.000021,-0.098420,0.000000,0.068162,0.000000,0.174191,0.000000,-0.030294
0.032000,0.000000,0.000000,0.000000,0.000001,0.000000,-0.000000,0.000024,0.000005,0.000000,0.000131,-0.000000,0.000378,0.001181,0.000225,0.000008,0.005534,0.000010,0.003684,-0.013251,-0.002730,-0.000043,-0.051792,0.000012,-0.099925,0.000000,0.079036,0.000000,0.201980,0.000000,-0.035127
0.036000,0.000000,0.000000,0.000000,0.000001,0.000000,-0.000000,0.000029,0.000006,0.000000,0.000153,-0.000000,0.000389,0.001223,0.000228,0.000006,0.005524,0.000007,0.002101,-0.015716,-0.003074,-0.000044,-0.059326,0.000006,-0.100410,0.000000,0.089772,0.000000,0.229418,0.000000,-0.039899
0.040000,0.000000,0.000001,0.000000,0.000002,0.000000,-0.000000,0.000034,0.000007,0.000000,0.000175,-0.000000,0.000394,0.001253,0.000230,0.000004,0.005466,0.000005,0.001032,-0.018236,-0.003377,-0.000045,-0.066656,0.000003,-0.100336,0.000000,0.100372,0.000000,0.256506,0.000000,-0.044610
0.044000,0.000000,0.000001,0.000000,0.000003,0.000000,-0.000001,0.000039,0.000008,0.000000,0.000197,-0.000000,0.000397,0.001273,0.000231,0.000003,0.005374,0.000004,0.000362,-0.020790,-0.003627,-0.000045,-0.073726,0.000001,-0.100008,0.000000,0.110835,0.000000,0.283246,0.000000,-0.049260
0.048000,0.000000,0.000002,0.000000,0.000004,0.000000,-0.000001,0.000044,0.000009,0.000000,0.000218,-0.000000,0.000397,0.001284,0.000231,0.000001,0.005259,0.000002,-0.000023,-0.023366,-0.003812,-0.000044,-0.080494,0.000001,-0.099609,0.000000,0.121163,0.000000,0.309639,0.000000,-0.053850
0.052000,0.000000,0.000002,0.000000,0.000006,0.000000,-0.000001,0.000049,0.000010,0.000000,0.000239,-0.000000,0.000396,0.001291,0.000232,-0.000000,0.005131,0.000001,-0.000218,-0.025951,-0.003921,-0.000042,-0.086927,0.000000,-0.099241,0.000000,0.131356,0.000000,0.335687,0.000000,-0.058380
0.056000,0.000000,0.000003,0.000000,0.000008,0.000000,-0.000001,0.000054,0.000011,0.000000,0.000259,-0.000000,0.000395,0.001292,0.000232,-0.000001,0.004996,0.000001,-0.000296,-0.028538,-0.003941,-0.000040,-0.092996,0.000000,-0.098947,0.000000,0.141414,0.000000,0.361391,0.000000,-0.062851
0.060000,0.000000,0.000004,0.000000,0.000010,0.000000,-0.000002,0.000060,0.000012,0.000000,0.000278,-0.000000,0.000394,0.001290,0.000232,-0.000002,0.004858,0.000000,-0.000310,-0.031120,-0.003858,-0.000038,-0.098676,0.000001,-0.098741,0.000000,0.151338,0.000000,0.386752,0.000000,-0.067261
0.064000,0.000000,0.000005,0.000000,0.000013,0.000000,-0.000002,0.000065,0.000013,0.000000,0.000297,-0.000000,0.000393,0.001286,0.000232,-0.000002,0.004721,-0.000000,-0.000296,-0.033693,-0.003658,-0.000036,-0.103945,0.000001,-0.098616,0.000000,0.161128,0.000000,0.411772,0.000000,-0.071613
0.068000,0.000000,0.000007,0.000000,0.000017,0.000000,-0.000003,0.000070,0.000014,0.000000,0.000316,-0.000000,0.000392,0.001280,0.000232,-0.000003,0.004588,-0.000000,-0.000274,-0.036252,-0.003325,-0.000034,-0.108783,0.000001,-0.098560,0.000000,0.170786,0.000000,0.436453,0.000000,-0.075905
0.072000,0.000000,0.000008,0.000000,0.000022,0.000000,-0.000004,0.000075,0.000015,0.000000,0.000334,-0.000000,0.000391,0.001272,0.000233,-0.000003,0.004460,-0.000000,-0.000257,-0.038794,-0.002845,-0.000032,-0.113170,0.000002,-0.098556,0.000000,0.180311,0.000000,0.460796,0.000000,-0.080138
0.076000,0.000000,0.000011,0.000000,0.000027,0.000000,-0.000005,0.000080,0.000016,0.000000,0.000352,-0.000000,0.000390,0.001263,0.000233,-0.000003,0.004339,-0.000000,-0.000250,-0.041318,-0.002201,-0.000029,-0.117086,0.000002,-0.098590,0.000000,0.189705,0.000000,0.484802,0.000000,-0.084313
0.080000,0.000000,0.000013,0.000000,0.000033,0.000000,-0.000006,0.000085,0.000016,0.000000,0.000369,-0.000000,0.000389,0.001253,0.000234,-0.000003,0.004227,-0.000000,-0.000256,-0.043822,-0.001376,-0.000027,-0.120515,0.000003,-0.098652,0.000000,0.198967,0.000000,0.508472,0.000000,-0.088430
0.084000,0.000000,0.000016,0.000000,0.000040,0.000000,-0.000007,0.000090,0.000017,0.000000,0.000385,-0.000000,0.000388,0.001242,0.000235,-0.000004,0.004124,-0.000000,-0.000273,-0.046305,-0.000352,-0.000025,-0.123435,0.000003,-0.098733,0.000000,0.208099,0.000000,0.531809,0.000000,-0.092488
0.088000,0.000000,0.000019,0.000000,0.000048,0.000000,-0.000008,0.000095,0.000018,0.000000,0.000402,-0.000000,0.000387,0.001231,0.000236,-0.000004,0.004032,-0.000000,-0.000302,-0.048765,0.000889,-0.000023,-0.125830,0.000004,-0.098828,0.000000,0.217101,0.000000,0.554813,0.000000,-0.096489
0.092000,0.000000,0.000023,0.000000,0.000058,0.000000,-0.000010,0.000100,0.000019,0.000000,0.000418,-0.000000,0.000385,0.001220,0.000237,-0.000004,0.003950,-0.000001,-0.000339,-0.051202,0.002365,-0.000020,-0.127681,0.000004,-0.098932,0.000000,0.225973,0.000000,0.577487,0.000000,-0.100432
0.096000,0.000000,0.000027,0.000000,0.000068,0.000000,-0.000012,0.000105,0.000020,0.000000,0.000433,-0.000000,0.000384,0.001208,0.000239,-0.000004,0.003881,-0.000001,-0.000384,-0.053615,0.004097,-0.000018,-0.128967,0.000005,-0.099045,0.000000,0.234716,0.000000,0.599830,0.000000,-0.104318
0.100000,0.000000,0.000031,0.000000,0.000080,0.000000,-0.000014,0.000110,0.000021,0.000000,0.000449,-0.000000,0.000382,0.001196,0.000240,-0.000004,0.003824,-0.000001,-0.000436,-0.056003,0.006104,-0.000016,-0.129671,0.000005,-0.099165,0.000000,0.243331,0.000000,0.621846,0.000000,-0.108147
0.104000,0.000000,0.000037,0.000000,0.000094,0.000000,-0.000016,0.000114,0.000022,0.000000,0.000464,-0.000000,0.000380,0.001183,0.000243,-0.000004,0.003781,-0.000001,-0.000493,-0.058367,0.008407,-0.000014,-0.129772,0.000006,-0.099293,0.000000,0.251818,0.000000,0.643536,0.000000,-0.111919
0.108000,0.000000,0.000043,0.000000,0.000109,0.000000,-0.000019,0.000119,0.000023,0.000000,0.000479,-0.000000,0.000378,0.001171,0.000245,-0.000004,0.003751,-0.000001,-0.000556,-0.060706,0.011026,-0.000012,-0.129252,0.000007,-0.099428,0.000000,0.260178,0.000000,0.664900,0.000000,-0.115635
0.112000,0.000000,0.000049,0.000000,0.000126,0.000000,-0.000022,0.000124,0.000024,0.000000,0.000494,-0.000000,0.000376,0.001158,0.000248,-0.000004,0.003736,-0.000001,-0.000624,-0.063020,0.013984,-0.000010,-0.128090,0.000008,-0.099572,0.000000,0.268411,0.000000,0.685940,0.000000,-0.119294
0.116000,0.000000,0.000056,0.000000,0.000144,0.000000,-0.000025,0.000128,0.000025,0.000000,0.000509,-0.000000,0.000373,0.001146,0.000252,-0.000003,0.003735,-0.000001,-0.000696,-0.065309,0.017302,-0.000008,-0.126266,0.000008,-0.099725,0.000000,0.276518,0.000000,0.706658,0.000000,-0.122897
0.120000,0.000000,0.000065,0.000000,0.000165,0.000000,-0.000029,0.000133,0.000026,0.000000,0.000524,-0.000000,0.000370,0.001133,0.000256,-0.000003,0.003750,-0.000001,-0.000773,-0.067571,0.021003,-0.000006,-0.123760,0.000009,-0.099887,0.000000,0.284500,0.000000,0.727056,0.000000,-0.126444
0.124000,0.000000,0.000073,0.000000,0.000187,0.000000,-0.000033,0.000137,0.000027,0.000000,0.000539,-0.000000,0.000367,0.001120,0.000260,-0.000004,0.003781,-0.000001,-0.000855,-0.069809,0.025110,-0.000004,-0.120552,0.000010,-0.100059,0.000000,0.292357,0.000000,0.747134,0.000000,-0.129936
0.128000,0.000000,0.000083,0.000000,0.000212,0.000000,-0.000037,0.000142,0.000028,0.000000,0.000554,-0.000000,0.000363,0.001107,0.000265,-0.000004,0.003829,-0.000001,-0.000942,-0.072020,0.029646,-0.000002,-0.116621,0.000011,-0.100242,0.000000,0.300089,0.000000,0.766894,0.000000,-0.133373
0.132000,0.000000,0.000094,0.000000,0.000239,0.000000,-0.000042,0.000146,0.000029,0.000000,0.000569,-0.000000,0.000359,0.001094,0.000270,-0.000004,0.003893,-0.000001,-0.001034,-0.074206,0.034635,0.000001,-0.111947,0.000012,-0.100435,0.000000,0.307697,0.000000,0.786337,0.000000,-0.136754
0.136000,0.000000,0.000105,0.000000,0.000269,0.000000,-0.000047,0.000151,0.000030,0.000000,0.000585,-0.000000,0.000355,0.001081,0.000276,-0.000004,0.003976,-0.000001,-0.001132,-0.076365,0.040101,0.000003,-0.106509,0.000013,-0.100639,0.000000,0.315182,0.000000,0.805466,0.000000,-0.140081
0.140000,0.000000,0.000118,0.000000,0.000301,0.000000,-0.000052,0.000155,0.000032,-0.000000,0.000601,-0.000000,0.000350,0.001068,0.000283,-0.000004,0.004076,-0.000001,-0.001234,-0.078499,0.046069,0.000005,-0.100287,0.000014,-0.100854,0.000000,0.322545,0.000000,0.824281,0.000000,-0.143353
0.144000,0.000000,0.000131,0.000000,0.000336,0.000000,-0.000058,0.000159,0.000033,-0.000000,0.000618,-0.000000,0.000345,0.001055,0.000290,-0.000004,0.004195,-0.000001,-0.001343,-0.080607,0.052563,0.000008,-0.093259,0.000016,-0.101080,0.000000,0.329785,0.000000,0.842783,0.000000,-0.146571
0.148000,0.000000,0.000146,0.000000,0.000373,0.000000,-0.000065,0.000163,0.000034,-0.000000,0.000635,-0.000000,0.000339,0.001042,0.000298,-0.000004,0.004332,-0.000001,-0.001457,-0.082688,0.059609,0.000010,-0.085406,0.000017,-0.101319,0.000000,0.336903,0.000000,0.860975,0.000000,-0.149735
0.152000,0.000000,0.000162,0.000000,0.000414,0.000000,-0.000072,0.000167,0.000035,-0.000000,0.000653,-0.000000,0.000333,0.001029,0.000306,-0.000004,0.004490,-0.000001,-0.001577,-0.084744,0.067232,0.000012,-0.076707,0.000018,-0.101569,0.000000,0.343901,0.000000,0.878858,0.000000,-0.152845
0.156000,0.000000,0.000179,0.000000,0.000458,0.000000,-0.000080,0.000172,0.000036,-0.000000,0.000671,-0.000000,0.000326,0.001016,0.000316,-0.000004,0.004667,-0.000001,-0.001702,-0.086773,0.075458,0.000015,-0.067141,0.000020,-0.101831,0.000000,0.350778,0.000000,0.896433,0.000000,-0.155901
0.160000,0.000000,0.000197,0.000000,0.000505,0.000000,-0.000088,0.000176,0.000038,-0.000000,0.000690,-0.000000,0.000319,0.001003,0.000326,-0.000004,0.004866,-0.000001,-0.001834,-0.088775,0.084313,0.000018,-0.056688,0.000021,-0.102105,0.000000,0.357535,0.000000,0.913702,0.000000,-0.158905
0.164000,0.000000,0.000217,0.000000,0.000555,0.000000,-0.000097,0.000180,0.000039,-0.000000,0.000710,-0.000000,0.000312,0.000990,0.000336,-0.000004,0.005085,-0.000001,-0.001971,-0.090752,0.093823,0.000020,-0.045328,0.000023,-0.102391,0.000000,0.364173,0.000000,0.930665,0.000000,-0.161855
0.168000,0.000000,0.000238,0.000000,0.000609,0.000000,-0.000106,0.000183,0.000040,-0.000000,0.000731,-0.000000,0.000303,0.000977,0.000348,-0.000004,0.005326,-0.000002,-0.002115,-0.092702,0.104014,0.000023,-0.033041,0.000024,-0.102690,0.000000,0.370693,0.000000,0.947326,0.000000,-0.164752
0.172000,0.000000,0.000261,0.000000,0.000666,0.000000,-0.000116,0.000187,0.000042,-0.000000,0.000753,-0.000000,0.000294,0.000963,0.000361,-0.000005,0.005589,-0.000002,-0.002265,-0.094625,0.114915,0.000026,-0.019806,0.000026,-0.103001,0.000000,0.377094,0.000000,0.963684,0.000000,-0.167597
0.176000,0.000000,0.000285,0.000000,0.000728,0.000000,-0.000127,0.000191,0.000043,-0.000000,0.000776,-0.000000,0.000285,0.000950,0.000374,-0.000005,0.005875,-0.000002,-0.002421,-0.096522,0.126550,0.000029,-0.005605,0.000028,-0.103325,0.000000,0.383377,0.000000,0.979741,0.000000,-0.170390
0.180000,0.000000,0.000310,0.000000,0.000793,0.000000,-0.000138,0.000195,0.000045,-0.000000,0.000801,-0.000000,0.000275,0.000937,0.000389,-0.000005,0.006184,-0.000002,-0.002584,-0.098392,0.138949,0.000033,0.009582,0.000030,-0.103661,0.000000,0.389543,0.000000,0.995500,0.000000,-0.173130
0.184000,0.000000,0.000337,0.000000,0.000862,0.000000,-0.000150,0.000199,0.000046,-0.000000,0.000826,-0.000000,0.000264,0.000923,0.000404,-0.000005,0.006516,-0.000002,-0.002753,-0.100236,0.152137,0.000036,0.025775,0.000032,-0.104010,0.000000,0.395593,0.000000,1.010961,0.000000,-0.175819
0.188000,0.000000,0.000366,0.000000,0.000936,0.000000,-0.000163,0.000202,0.000048,-0.000000,0.000853,-0.000000,0.000253,0.000910,0.000420,-0.000005,0.006872,-0.000002,-0.002928,-0.102053,0.166143,0.000039,0.042993,0.000034,-0.104372,0.000000,0.401527,0.000000,1.026125,0.000000,-0.178457
0.192000,0.000000,0.000397,0.000000,0.001014,0.000000,-0.000176,0.000206,0.000050,-0.000000,0.000881,-0.000000,0.000241,0.000897,0.000438,-0.000006,0.007253,-0.000002,-0.003110,-0.103843,0.180994,0.000043,0.061253,0.000036,-0.104748,0.000000,0.407346,0.000000,1.040995,0.000000,-0.181043
0.196000,0.000000,0.000429,0.000000,0.001097,0.000000,-0.000191,0.000209,0.000052,-0.000000,0.000911,-0.000000,0.000228,0.000883,0.000456,-0.000006,0.007659,-0.000002,-0.003299,-0.105606,0.196717,0.000047,0.080575,0.000038,-0.105136,0.000000,0.413050,0.000000,1.055571,0.000000,-0.183578
0.200000,0.000000,0.000464,0.000000,0.001185,0.000000,-0.000206,0.000213,0.000053,-0.000000,0.000943,-0.000000,0.000214,0.000870,0.000476,-0.000006,0.008091,-0.000002,-0.003494,-0.107342,0.213342,0.000051,0.100976,0.000040,-0.105538,0.000000,0.418639,0.000000,1.069856,0.000000,-0.186062
0.204000,0.000000,0.000500,0.000000,0.001277,0.000000,-0.000222,0.000216,0.000055,-0.000000,0.000977,-0.000000,0.000199,0.000856,0.000497,-0.000006,0.008548,-0.000002,-0.003695,-0.109051,0.230895,0.000055,0.122475,0.000042,-0.105952,0.000000,0.424115,0.000000,1.083849,0.000000,-0.188496
0.208000,0.000000,0.000538,0.000000,0.001374,0.000000,-0.000239,0.000220,0.000057,-0.000000,0.001012,-0.000000,0.000184,0.000843,0.000519,-0.000007,0.009032,-0.000002,-0.003904,-0.110733,0.249404,0.000059,0.145088,0.000045,-0.106381,0.000000,0.429478,0.000000,1.097554,0.000000,-0.190879
0.212000,0.000000,0.000578,0.000000,0.001477,0.000000,-0.000257,0.000223,0.000060,-0.000000,0.001049,-0.000000,0.000168,0.000829,0.000542,-0.000007,0.009543,-0.000002,-0.004119,-0.112388,0.268899,0.000063,0.168833,0.000047,-0.106822,0.000000,0.434728,0.000000,1.110972,0.000000,-0.193212
0.216000,0.000000,0.000620,0.000000,0.001585,0.000000,-0.000276,0.000226,0.000062,-0.000000,0.001089,-0.000000,0.000151,0.000816,0.000566,-0.000007,0.010081,-0.000002,-0.004340,-0.114016,0.289407,0.000068,0.193727,0.000049,-0.107277,0.000000,0.439866,0.000000,1.124103,0.000000,-0.195496
0.220000,0.000000,0.000665,0.000000,0.001698,0.000000,-0.000295,0.000230,0.000064,-0.000000,0.001131,-0.000000,0.000133,0.000802,0.000592,-0.000007,0.010646,-0.000003,-0.004569,-0.115617,0.310956,0.000072,0.219785,0.000052,-0.107746,0.000000,0.444893,0.000000,1.136949,0.000000,-0.197730
0.224000,0.000000,0.000711,0.000000,0.001817,0.000000,-0.000316,0.000233,0.000067,-0.000000,0.001175,-0.000000,0.000114,0.000788,0.000623,-0.000008,0.011247,-0.000004,-0.004806,-0.117190,0.333575,0.000077,0.247024,0.000055,-0.108228,0.000000,0.449809,0.000000,1.149513,0.000000,-0.199915
0.228000,0.000000,0.000760,0.000000,0.001942,0.000000,-0.000338,0.000236,0.000069,-0.000001,0.001223,-0.000000,0.000094,0.000729,0.000732,-0.000025,0.012508,-0.000038,-0.005154,-0.118667,0.357161,0.000103,0.274624,0.000106,-0.108589,0.000000,0.454615,0.000000,1.161794,0.000000,-0.202051
0.232000,0.000000,0.000811,0.000000,0.002073,0.000000,-0.000361,0.000238,0.000073,-0.000001,0.001278,-0.000001,0.000073,0.000621,0.000956,-0.000058,0.014700,-0.000089,-0.005583,-0.119903,0.381461,0.000169,0.300662,0.000236,-0.108670,0.000000,0.459311,0.000000,1.173795,0.000000,-0.204138
0.236000,0.000000,0.000865,0.000000,0.002210,0.000000,-0.000384,0.000241,0.000077,-0.000001,0.001344,-0.000001,0.000049,0.000487,0.001295,-0.000098,0.017705,-0.000136,-0.006016,-0.120854,0.406271,0.000270,0.324120,0.000416,-0.108564,0.000000,0.463898,0.000000,1.185517,0.000000,-0.206177
0.240000,0.000000,0.000921,0.000000,0.002354,0.000000,-0.000409,0.000242,0.000084,-0.000002,0.001424,-0.000002,0.000024,0.000343,0.001753,-0.000140,0.021387,-0.000172,-0.006410,-0.121506,0.431387,0.000401,0.344185,0.000625,-0.108366,0.000000,0.468376,0.000000,1.196962,0.000000,-0.208167
0.244000,0.000000,0.000980,0.000000,0.002503,0.000000,-0.000435,0.000243,0.000092,-0.000002,0.001520,-0.000002,-0.000002,0.000203,0.002328,-0.000182,0.025596,-0.000196,-0.006749,-0.121873,0.456603,0.000559,0.360261,0.000848,-0.108164,0.000000,0.472747,0.000000,1.208131,0.000000,-0.210110
0.248000,0.000000,0.001041,0.000000,0.002660,0.000000,-0.000463,0.000244,0.000103,-0.000003,0.001633,-0.000003,-0.000030,0.000076,0.003022,-0.000223,0.030178,-0.000211,-0.007029,-0.121985,0.481713,0.000739,0.371978,0.001075,-0.108031,0.000000,0.477010,0.000000,1.219025,0.000000,-0.212004
0.252000,0.000000,0.001105,0.000000,0.002823,0.000000,-0.000491,0.000244,0.000117,-0.000004,0.001766,-0.000004,-0.000059,-0.000030,0.003833,-0.000259,0.034975,-0.000217,-0.007258,-0.121887,0.506515,0.000937,0.379190,0.001301,-0.108021,0.000000,0.481166,0.000000,1.229646,0.000000,-0.213851
0.256000,0.000000,0.001171,0.000000,0.002993,0.000000,-0.000521,0.000243,0.000135,-0.000005,0.001918,-0.000005,-0.000088,-0.000110,0.004758,-0.000292,0.039835,-0.000219,-0.007449,-0.121633,0.530811,0.001152,0.381966,0.001523,-0.108171,0.000000,0.485216,0.000000,1.239995,0.000000,-0.215651
0.260000,0.000000,0.001241,0.000000,0.003171,0.000000,-0.000551,0.000243,0.000156,-0.000006,0.002089,-0.000006,-0.000119,-0.000162,0.005794,-0.000321,0.044615,-0.000217,-0.007614,-0.121281,0.554412,0.001379,0.380567,0.001740,-0.108502,0.000000,0.489160,0.000000,1.250074,0.000000,-0.217404
0.264000,0.000000,0.001313,0.000000,0.003355,0.000000,-0.000583,0.000242,0.000182,-0.000008,0.002279,-0.000007,-0.000149,-0.000185,0.006937,-0.000346,0.049189,-0.000212,-0.007767,-0.120890,0.577135,0.001615,0.375425,0.001948,-0.109021,0.000000,0.492998,0.000000,1.259885,0.000000,-0.219110
0.268000,0.000000,0.001388,0.000000,0.003547,0.000000,-0.000617,0.000241,0.000213,-0.000009,0.002487,-0.000008,-0.000181,-0.000181,0.008182,-0.000366,0.053450,-0.000205,-0.007921,-0.120515,0.598809,0.001859,0.367112,0.002148,-0.109724,0.000000,0.496733,0.000000,1.269428,0.000000,-0.220770
0.272000,0.000000,0.001466,0.000000,0.003747,0.000000,-0.000652,0.000241,0.000249,-0.000011,0.002711,-0.000008,-0.000213,-0.000150,0.009523,-0.000382,0.057315,-0.000197,-0.008085,-0.120209,0.619275,0.002108,0.356303,0.002339,-0.110594,0.000000,0.500363,0.000000,1.278705,0.000000,-0.222383
0.276000,0.000000,0.001547,0.000000,0.003954,0.000000,-0.000688,0.000240,0.000291,-0.000012,0.002948,-0.000009,-0.000246,-0.000098,0.010953,-0.000394,0.060725,-0.000187,-0.008270,-0.120015,0.638385,0.002360,0.343739,0.002518,-0.111613,0.000000,0.503889,0.000000,1.287717,0.000000,-0.223951
0.280000,0.000000,0.001631,0.000000,0.004169,0.000000,-0.000725,0.000240,0.000338,-0.000014,0.003199,-0.000010,-0.000279,-0.000028,0.012466,-0.000403,0.063647,-0.000177,-0.008481,-0.119969,0.656010,0.002613,0.330192,0.002686,-0.112753,0.000000,0.507313,0.000000,1.296467,0.000000,-0.225472
0.284000,0.000000,0.001719,0.000000,0.004392,0.000000,-0.000764,0.000240,0.000392,-0.000015,0.003460,-0.000011,-0.000314,0.000056,0.014052,-0.000408,0.066076,-0.000164,-0.008723,-0.120096,0.672034,0.002865,0.316427,0.002840,-0.113984,0.000000,0.510634,0.000000,1.304955,0.000000,-0.226949
0.288000,0.000000,0.001809,0.000000,0.004624,0.000000,-0.000804,0.000241,0.000453,-0.000017,0.003729,-0.000011,-0.000349,0.000147,0.015704,-0.000410,0.068026,-0.000151,-0.009000,-0.120410,0.686358,0.003114,0.303168,0.002980,-0.115276,0.000000,0.513854,0.000000,1.313183,0.000000,-0.228380
0.292000,0.000000,0.001903,0.000000,0.004864,0.000000,-0.000846,0.000241,0.000520,-0.000019,0.004005,-0.000012,-0.000386,0.000241,0.017413,-0.000408,0.069539,-0.000137,-0.009313,-0.120916,0.698903,0.003359,0.291070,0.003106,-0.116597,0.000000,0.516972,0.000000,1.321152,0.000000,-0.229766
0.296000,0.000000,0.002001,0.000000,0.005112,0.000000,-0.000889,0.000243,0.000594,-0.000020,0.004286,-0.000012,-0.000424,0.000333,0.019169,-0.000404,0.070669,-0.000122,-0.009661,-0.121608,0.709607,0.003598,0.280697,0.003216,-0.117919,0.000000,0.519990,0.000000,1.328864,0.000000,-0.231107
0.300000,0.000000,0.002101,0.000000,0.005370,0.000000,-0.000934,0.000244,0.000675,-0.000022,0.004571,-0.000013,-0.000464,0.000418,0.020963,-0.000398,0.071491,-0.000107,-0.010043,-0.122470,0.718426,0.003830,0.272496,0.003309,-0.119216,0.000000,0.522908,0.000000,1.336320,0.000000,-0.232403
0.304000,0.000000,0.002205,0.000000,0.005636,0.000000,-0.000980,0.000246,0.000763,-0.000024,0.004858,-0.000013,-0.000505,0.000492,0.022786,-0.000388,0.072086,-0.000091,-0.010457,-0.123479,0.725338,0.004054,0.266793,0.003385,-0.120463,0.000000,0.525726,0.000000,1.343522,0.000000,-0.233656
0.308000,0.000000,0.002313,0.000000,0.005911,0.000000,-0.001028,0.000248,0.000859,-0.000025,0.005148,-0.000013,-0.000548,0.000552,0.024627,-0.000377,0.072543,-0.000074,-0.010899,-0.124606,0.730337,0.004268,0.263783,0.003445,-0.121642,0.000000,0.528445,0.000000,1.350471,0.000000,-0.234864
0.312000,0.000000,0.002424,0.000000,0.006195,0.000000,-0.001077,0.000250,0.000962,-0.000027,0.005439,-0.000014,-0.000593,0.000596,0.026478,-0.000363,0.072953,-0.000057,-0.011365,-0.125818,0.733439,0.004471,0.263531,0.003488,-0.122741,0.000000,0.531066,0.000000,1.357168,0.000000,-0.236029
0.316000,0.000000,0.002539,0.000000,0.006488,0.000000,-0.001128,0.000253,0.001073,-0.000028,0.005732,-0.000014,-0.000639,0.000621,0.028328,-0.000347,0.073404,-0.000040,-0.011850,-0.127077,0.734677,0.004662,0.265974,0.003513,-0.123750,0.000000,0.533589,0.000000,1.363616,0.000000,-0.237151
0.320000,0.000000,0.002658,0.000000,0.006792,0.000000,-0.001181,0.000255,0.001191,-0.000029,0.006027,-0.000014,-0.000688,0.000628,0.030169,-0.000329,0.073979,-0.000023,-0.012350,-0.128345,0.734104,0.004840,0.270941,0.003522,-0.124666,0.000000,0.536014,0.000000,1.369814,0.000000,-0.238229
0.324000,0.000000,0.002780,0.000000,0.007104,0.000000,-0.001236,0.000258,0.001316,-0.000031,0.006325,-0.000014,-0.000739,0.000617,0.031990,-0.000309,0.074750,-0.000007,-0.012858,-0.129585,0.731790,0.005004,0.278159,0.003514,-0.125491,0.000000,0.538343,0.000000,1.375766,0.000000,-0.239264
0.328000,0.000000,0.002906,0.000000,0.007427,0.000000,-0.001292,0.000260,0.001448,-0.000032,0.006626,-0.000014,-0.000791,0.000588,0.033785,-0.000287,0.075779,0.000009,-0.013372,-0.130763,0.727822,0.005152,0.287277,0.003490,-0.126230,0.000000,0.540576,0.000000,1.381472,0.000000,-0.240256
0.332000,0.000000,0.003036,0.000000,0.007759,0.000000,-0.001349,0.000263,0.001588,-0.000033,0.006933,-0.000014,-0.000846,0.000543,0.035544,-0.000264,0.077113,0.000025,-0.013886,-0.131846,0.722302,0.005285,0.297885,0.003451,-0.126894,0.000000,0.542713,0.000000,1.386934,0.000000,-0.241206
0.336000,0.000000,0.003170,0.000000,0.008102,0.000000,-0.001409,0.000265,0.001734,-0.000034,0.007245,-0.000014,-0.000903,0.000486,0.037260,-0.000238,0.078784,0.000040,-0.014397,-0.132810,0.715350,0.005400,0.309535,0.003398,-0.127497,0.000000,0.544756,0.000000,1.392153,0.000000,-0.242114
0.340000,0.000000,0.003308,0.000000,0.008455,0.000000,-0.001470,0.000266,0.001887,-0.000035,0.007565,-0.000014,-0.000962,0.000417,0.038926,-0.000212,0.080810,0.000054,-0.014901,-0.133633,0.707096,0.005497,0.321768,0.003332,-0.128053,0.000000,0.546703,0.000000,1.397131,0.000000,-0.242979
0.344000,0.000000,0.003450,0.000000,0.008818,0.000000,-0.001534,0.000268,0.002047,-0.000035,0.007894,-0.000013,-0.001023,0.000342,0.040536,-0.000184,0.083191,0.000066,-0.015398,-0.134301,0.697685,0.005576,0.334129,0.003254,-0.128580,0.000000,0.548557,0.000000,1.401869,0.000000,-0.243803
0.348000,0.000000,0.003597,0.000000,0.009192,0.000000,-0.001599,0.000269,0.002213,-0.000036,0.008234,-0.000013,-0.001086,0.000261,0.042084,-0.000155,0.085916,0.000078,-0.015884,-0.134805,0.687271,0.005637,0.346190,0.003165,-0.129096,0.000000,0.550318,0.000000,1.406368,0.000000,-0.244586
0.352000,0.000000,0.003747,0.000000,0.009576,0.000000,-0.001665,0.000270,0.002385,-0.000037,0.008585,-0.000013,-0.001150,0.000180,0.043565,-0.000125,0.088959,0.000089,-0.016360,-0.135145,0.676017,0.005679,0.357567,0.003066,-0.129619,0.000000,0.551986,0.000000,1.410631,0.000000,-0.245327
0.356000,0.000000,0.003902,0.000000,0.009972,0.000000,-0.001734,0.000270,0.002563,-0.000037,0.008949,-0.000012,-0.001217,0.000100,0.044976,-0.000094,0.092285,0.000098,-0.016826,-0.135323,0.664096,0.005701,0.367935,0.002959,-0.130165,0.000000,0.553562,0.000000,1.414658,0.000000,-0.246027
0.360000,0.000000,0.004061,0.000000,0.010378,0.000000,-0.001805,0.000271,0.002746,-0.000037,0.009327,-0.000012,-0.001285,0.000024,0.046314,-0.000064,0.095849,0.000106,-0.017282,-0.135350,0.651684,0.005705,0.377034,0.002846,-0.130750,0.000000,0.555046,0.000000,1.418450,0.000000,-0.246687
0.364000,0.000000,0.004224,0.000000,0.010795,0.000000,-0.001877,0.000271,0.002935,-0.000038,0.009720,-0.000011,-0.001356,-0.000044,0.047575,-0.000033,0.099600,0.000112,-0.017731,-0.135241,0.638962,0.005691,0.384683,0.002727,-0.131387,0.000000,0.556439,0.000000,1.422010,0.000000,-0.247306
0.368000,0.000000,0.004392,0.000000,0.011224,0.000000,-0.001952,0.000270,0.003128,-0.000038,0.010128,-0.000011,-0.001428,-0.000105,0.048759,-0.000004,0.103485,0.000117,-0.018173,-0.135012,0.626114,0.005659,0.390777,0.002605,-0.132086,0.000000,0.557741,0.000000,1.425339,0.000000,-0.247885
0.372000,0.000000,0.004564,0.000000,0.011664,0.000000,-0.002029,0.000270,0.003326,-0.000038,0.010551,-0.000011,-0.001501,-0.000155,0.049866,0.000026,0.107450,0.000120,-0.018613,-0.134685,0.613324,0.005611,0.395288,0.002482,-0.132854,0.000000,0.558954,0.000000,1.428438,0.000000,-0.248424
0.376000,0.000000,0.004741,0.000000,0.012116,0.000000,-0.002107,0.000269,0.003528,-0.000037,0.010991,-0.000010,-0.001577,-0.000194,0.050896,0.000053,0.111441,0.000122,-0.019052,-0.134281,0.600773,0.005547,0.398263,0.002358,-0.133697,0.000000,0.560078,0.000000,1.431309,0.000000,-0.248923
0.380000,0.000000,0.004923,0.000000,0.012580,0.000000,-0.002188,0.000268,0.003734,-0.000037,0.011447,-0.000010,-0.001654,-0.000222,0.051849,0.000080,0.115410,0.000122,-0.019493,-0.133824,0.588641,0.005468,0.399815,0.002235,-0.134615,0.000000,0.561112,0.000000,1.433953,0.000000,-0.249383
0.384000,0.000000,0.005109,0.000000,0.013055,0.000000,-0.002270,0.000267,0.003944,-0.000037,0.011918,-0.000009,-0.001733,-0.000240,0.052729,0.000104,0.119314,0.000120,-0.019939,-0.133335,0.577103,0.005377,0.400113,0.002116,-0.135607,0.000000,0.562058,0.000000,1.436372,0.000000,-0.249804
0.388000,0.000000,0.005299,0.000000,0.013543,0.000000,-0.002355,0.000266,0.004157,-0.000036,0.012405,-0.000009,-0.001814,-0.000247,0.053539,0.000126,0.123117,0.000117,-0.020392,-0.132835,0.566327,0.005276,0.399375,0.002001,-0.136669,0.000000,0.562917,0.000000,1.438566,0.000000,-0.250185
0.392000,0.000000,0.005495,0.000000,0.014042,0.000000,-0.002442,0.000265,0.004373,-0.000036,0.012907,-0.000008,-0.001897,-0.000245,0.054282,0.000146,0.126791,0.000112,-0.020856,-0.132341,0.556471,0.005165,0.397848,0.001892,-0.137795,0.000000,0.563689,0.000000,1.440538,0.000000,-0.250528
0.396000,0.000000,0.005695,0.000000,0.014554,0.000000,-0.002531,0.000264,0.004591,-0.000035,0.013423,-0.000008,-0.001981,-0.000235,0.054962,0.000163,0.130317,0.000106,-0.021332,-0.131871,0.547688,0.005046,0.395803,0.001791,-0.138976,0.000000,0.564374,0.000000,1.442289,0.000000,-0.250833
0.400000,0.000000,0.005900,0.000000,0.015078,0.000000,-0.002622,0.000263,0.004813,-0.000034,0.013953,-0.000007,-0.002068,-0.000219,0.055585,0.000177,0.133688,0.000098,-0.021822,-0.131434,0.540115,0.004923,0.393516,0.001699,-0.140202,0.000000,0.564973,0.000000,1.443820,0.000000,-0.251099
0.404000,0.000000,0.006110,0.000000,0.015615,0.000000,-0.002716,0.000262,0.005037,-0.000034,0.014495,-0.000007,-0.002157,-0.000199,0.056157,0.000188,0.136901,0.000089,-0.022327,-0.131040,0.533881,0.004797,0.391256,0.001617,-0.141462,0.000000,0.565487,0.000000,1.445133,0.000000,-0.251327
0.408000,0.000000,0.006325,0.000000,0.016164,0.000000,-0.002811,0.000262,0.005263,-0.000033,0.015051,-0.000007,-0.002247,-0.000176,0.056685,0.000196,0.139966,0.000079,-0.022848,-0.130693,0.529098,0.004669,0.389277,0.001546,-0.142747,0.000000,0.565916,0.000000,1.446229,0.000000,-0.251518
0.412000,0.000000,0.006545,0.000000,0.016726,0.000000,-0.002909,0.000261,0.005491,-0.000032,0.015618,-0.000006,-0.002340,-0.000153,0.057175,0.000201,0.142898,0.000068,-0.023384,-0.130393,0.525865,0.004542,0.387804,0.001487,-0.144045,0.000000,0.566260,0.000000,1.447110,0.000000,-0.251671
0.416000,0.000000,0.006770,0.000000,0.017302,0.000000,-0.003009,0.000261,0.005720,-0.000031,0.016197,-0.000006,-0.002435,-0.000131,0.057635,0.000202,0.145718,0.000056,-0.023937,-0.130137,0.524268,0.004418,0.387027,0.001442,-0.145346,0.000000,0.566521,0.000000,1.447776,0.000000,-0.251787
0.420000,0.000000,0.007000,0.000000,0.017890,0.000000,-0.003111,0.000260,0.005952,-0.000030,0.016786,-0.000006,-0.002532,-0.000112,0.058072,0.000200,0.148453,0.000042,-0.024504,-0.129920,0.524374,0.004298,0.387094,0.001411,-0.146641,0.000000,0.566699,0.000000,1.448231,0.000000,-0.251866
0.424000,0.000000,0.007236,0.000000,0.018491,0.000000,-0.003216,0.000260,0.006185,-0.000030,0.017387,-0.000006,-0.002631,-0.000097,0.058495,0.000196,0.151133,0.000028,-0.025085,-0.129732,0.526234,0.004185,0.388110,0.001394,-0.147922,0.000000,0.566794,0.000000,1.448474,0.000000,-0.251909
0.428000,0.000000,0.007476,0.000000,0.019106,0.000000,-0.003323,0.000259,0.006420,-0.000029,0.017998,-0.000006,-0.002733,-0.000088,0.058911,0.000188,0.153790,0.000014,-0.025679,-0.129563,0.529883,0.004079,0.390130,0.001393,-0.149183,0.000000,0.566808,0.000000,1.448508,0.000000,-0.251915
0.432000,0.000000,0.007722,0.000000,0.019734,0.000000,-0.003432,0.000259,0.006657,-0.000028,0.018620,-0.000006,-0.002837,-0.000084,0.059330,0.000178,0.156455,-0.000001,-0.026284,-0.129400,0.535338,0.003983,0.393166,0.001407,-0.150420,0.000000,0.566740,0.000000,1.448334,0.000000,-0.251884
0.436000,0.000000,0.007973,0.000000,0.020376,0.000000,-0.003544,0.000259,0.006896,-0.000027,0.019252,-0.000006,-0.002944,-0.000087,0.059759,0.000166,0.159160,-0.000017,-0.026898,-0.129230,0.542601,0.003896,0.397184,0.001436,-0.151630,0.000000,0.566591,0.000000,1.447954,0.000000,-0.251818
0.440000,0.000000,0.008230,0.000000,0.021031,0.000000,-0.003658,0.000258,0.007136,-0.000027,0.019896,-0.000006,-0.003053,-0.000096,0.060208,0.000151,0.161932,-0.000032,-0.027519,-0.129040,0.551653,0.003821,0.402113,0.001482,-0.152812,0.000000,0.566361,0.000000,1.447368,0.000000,-0.251716
0.444000,0.000000,0.008491,0.000000,0.021700,0.000000,-0.003774,0.000258,0.007378,-0.000026,0.020551,-0.000006,-0.003165,-0.000112,0.060683,0.000135,0.164796,-0.000048,-0.028146,-0.128816,0.562462,0.003757,0.407846,0.001543,-0.153967,0.000000,0.566052,0.000000,1.446578,0.000000,-0.251579
0.448000,0.000000,0.008759,0.000000,0.022383,0.000000,-0.003893,0.000257,0.007622,-0.000026,0.021217,-0.000006,-0.003279,-0.000133,0.061193,0.000117,0.167772,-0.000063,-0.028778,-0.128547,0.574978,0.003706,0.414252,0.001619,-0.155097,0.000000,0.565664,0.000000,1.445586,0.000000,-0.251406
0.452000,0.000000,0.009031,0.000000,0.023080,0.000000,-0.004014,0.000257,0.007868,-0.000025,0.021896,-0.000006,-0.003396,-0.000161,0.061747,0.000099,0.170876,-0.000078,-0.029411,-0.128222,0.589136,0.003668,0.421182,0.001710,-0.156208,0.000000,0.565197,0.000000,1.444393,0.000000,-0.251199
0.456000,0.000000,0.009310,0.000000,0.023792,0.000000,-0.004138,0.000256,0.008116,-0.000025,0.022588,-0.000007,-0.003515,-0.000192,0.062350,0.000079,0.174116,-0.000093,-0.030046,-0.127833,0.604854,0.003642,0.428472,0.001816,-0.157302,0.000000,0.564652,0.000000,1.443000,0.000000,-0.250957
0.460000,0.000000,0.009594,0.000000,0.024517,0.000000,-0.004264,0.000255,0.008367,-0.000025,0.023292,-0.000007,-0.003637,-0.000227,0.063011,0.000059,0.177498,-0.000107,-0.030681,-0.127372,0.622040,0.003629,0.435961,0.001935,-0.158386,0.000000,0.564030,0.000000,1.441410,0.000000,-0.250680
0.464000,0.000000,0.009883,0.000000,0.025257,0.000000,-0.004392,0.000254,0.008621,-0.000025,0.024011,-0.000008,-0.003761,-0.000265,0.063735,0.000039,0.181020,-0.000120,-0.031316,-0.126835,0.640585,0.003628,0.443486,0.002067,-0.159467,0.000000,0.563331,0.000000,1.439623,0.000000,-0.250369
0.468000,0.000000,0.010178,0.000000,0.026011,0.000000,-0.004524,0.000253,0.008878,-0.000024,0.024744,-0.000008,-0.003888,-0.000303,0.064528,0.000019,0.184675,-0.000133,-0.031949,-0.126220,0.660371,0.003640,0.450900,0.002211,-0.160549,0.000000,0.562555,0.000000,1.437641,0.000000,-0.250025
0.472000,0.000000,0.010479,0.000000,0.026780,0.000000,-0.004657,0.000252,0.009138,-0.000024,0.025492,-0.000009,-0.004017,-0.000342,0.065395,-0.000000,0.188455,-0.000144,-0.032581,-0.125527,0.681267,0.003662,0.458072,0.002366,-0.161641,0.000000,0.561704,0.000000,1.435465,0.000000,-0.249646
0.476000,0.000000,0.010786,0.000000,0.027563,0.000000,-0.004794,0.000250,0.009402,-0.000025,0.026256,-0.000009,-0.004149,-0.000380,0.066342,-0.000019,0.192343,-0.000155,-0.033212,-0.124758,0.703134,0.003695,0.464890,0.002530,-0.162746,0.000000,0.560777,0.000000,1.433098,0.000000,-0.249234
0.480000,0.000000,0.011098,0.000000,0.028362,0.000000,-0.004932,0.000249,0.009670,-0.000025,0.027035,-0.000010,-0.004283,-0.000416,0.067371,-0.000037,0.196324,-0.000164,-0.033842,-0.123917,0.725826,0.003737,0.471272,0.002704,-0.163871,0.000000,0.559776,0.000000,1.430539,0.000000,-0.248789
0.484000,0.000000,0.011416,0.000000,0.029175,0.000000,-0.005074,0.000247,0.009942,-0.000025,0.027831,-0.000011,-0.004420,-0.000449,0.068486,-0.000053,0.200379,-0.000173,-0.034471,-0.123009,0.749189,0.003788,0.477159,0.002884,-0.165020,0.000000,0.558701,0.000000,1.427791,0.000000,-0.248311
0.488000,0.000000,0.011740,0.000000,0.030003,0.000000,-0.005218,0.000245,0.010219,-0.000025,0.028642,-0.000011,-0.004560,-0.000479,0.069690,-0.000068,0.204488,-0.000180,-0.035101,-0.122041,0.773065,0.003846,0.482523,0.003070,-0.166195,0.000000,0.557552,0.000000,1.424855,0.000000,-0.247801
0.492000,0.000000,0.012070,0.000000,0.030846,0.000000,-0.005365,0.000243,0.010501,-0.000025,0.029471,-0.000012,-0.004702,-0.000506,0.070983,-0.000081,0.208631,-0.000185,-0.035732,-0.121021,0.797294,0.003910,0.487360,0.003261,-0.167400,0.000000,0.556330,0.000000,1.421733,0.000000,-0.247258
0.496000,0.000000,0.012406,0.000000,0.031705,0.000000,-0.005514,0.000241,0.010789,-0.000026,0.030316,-0.000013,-0.004846,-0.000529,0.072366,-0.000092,0.212790,-0.000190,-0.036365,-0.119957,0.821711,0.003979,0.491695,0.003455,-0.168634,0.000000,0.555036,0.000000,1.418426,0.000000,-0.246683
0.500000,0.000000,0.012748,0.000000,0.032579,0.000000,-0.005666,0.000239,0.011082,-0.000026,0.031177,-0.000014,-0.004993,-0.000547,0.073839,-0.000102,0.216946,-0.000192,-0.037002,-0.118856,0.846155,0.004052,0.495573,0.003650,-0.169900,0.000000,0.553670,0.000000,1.414935,0.000000,-0.246076
0.504000,0.000000,0.013096,0.000000,0.033468,0.000000,-0.005820,0.000237,0.011381,-0.000027,0.032055,-0.000014,-0.005143,-0.000562,0.075402,-0.000109,0.221086,-0.000194,-0.037642,-0.117726,0.870463,0.004126,0.499062,0.003846,-0.171194,0.000000,0.552233,0.000000,1.411262,0.000000,-0.245437
0.508000,0.000000,0.013450,0.000000,0.034372,0.000000,-0.005978,0.000234,0.011687,-0.000027,0.032950,-0.000015,-0.005295,-0.000574,0.077053,-0.000115,0.225197,-0.000194,-0.038287,-0.116574,0.894479,0.004202,0.502241,0.004040,-0.172516,0.000000,0.550725,0.000000,1.407409,0.000000,-0.244767
0.512000,0.000000,0.013810,0.000000,0.035292,0.000000,-0.006138,0.000232,0.011999,-0.000027,0.033861,-0.000016,-0.005450,-0.000582,0.078789,-0.000118,0.229270,-0.000193,-0.038938,-0.115407,0.918048,0.004277,0.505203,0.004232,-0.173863,0.000000,0.549147,0.000000,1.403376,0.000000,-0.244065
0.516000,0.000000,0.014176,0.000000,0.036228,0.000000,-0.006301,0.000230,0.012319,-0.000028,0.034788,-0.000017,-0.005607,-0.000588,0.080608,-0.000119,0.233297,-0.000190,-0.039595,-0.114230,0.941023,0.004351,0.508045,0.004420,-0.175232,0.000000,0.547500,0.000000,1.399166,0.000000,-0.243333
0.520000,0.000000,0.014548,0.000000,0.037179,0.000000,-0.006466,0.000227,0.012646,-0.000028,0.035731,-0.000017,-0.005767,-0.000591,0.082504,-0.000118,0.237278,-0.000186,-0.040259,-0.113046,0.963265,0.004421,0.510865,0.004603,-0.176619,0.000000,0.545783,0.000000,1.394779,0.000000,-0.242570
0.524000,0.000000,0.014927,0.000000,0.038146,0.000000,-0.006634,0.000225,0.012981,-0.000029,0.036690,-0.000018,-0.005930,-0.000594,0.084475,-0.000115,0.241211,-0.000180,-0.040930,-0.111858,0.984642,0.004488,0.513758,0.004779,-0.178020,0.000000,0.543998,0.000000,1.390218,0.000000,-0.241777
0.528000,0.000000,0.015312,0.000000,0.039130,0.000000,-0.006805,0.000223,0.013324,-0.000029,0.037665,-0.000019,-0.006095,-0.000596,0.086514,-0.000110,0.245101,-0.000174,-0.041608,-0.110667,1.005035,0.004548,0.516813,0.004947,-0.179430,0.000000,0.542145,0.000000,1.385483,0.000000,-0.240953
0.532000,0.000000,0.015702,0.000000,0.040129,0.000000,-0.006979,0.000220,0.013675,-0.000030,0.038655,-0.000020,-0.006263,-0.000597,0.088616,-0.000102,0.248953,-0.000166,-0.042293,-0.109472,1.024332,0.004602,0.520107,0.005106,-0.180847,0.000000,0.540225,0.000000,1.380576,0.000000,-0.240100
0.536000,0.000000,0.016100,0.000000,0.041144,0.000000,-0.007155,0.000218,0.014035,-0.000030,0.039660,-0.000020,-0.006434,-0.000600,0.090775,-0.000093,0.252775,-0.000157,-0.042986,-0.108273,1.042437,0.004649,0.523704,0.005256,-0.182266,0.000000,0.538238,0.000000,1.375498,0.000000,-0.239217
0.540000,0.000000,0.016503,0.000000,0.042175,0.000000,-0.007335,0.000215,0.014404,-0.000030,0.040681,-0.000021,-0.006608,-0.000604,0.092984,-0.000082,0.256577,-0.000147,-0.043685,-0.107066,1.059265,0.004687,0.527653,0.005394,-0.183684,0.000000,0.536185,0.000000,1.370252,0.000000,-0.238305
0.544000,0.000000,0.016913,0.000000,0.043222,0.000000,-0.007517,0.000213,0.014781,-0.000031,0.041716,-0.000021,-0.006785,-0.000609,0.095236,-0.000070,0.260369,-0.000136,-0.044390,-0.105849,1.074746,0.004715,0.531986,0.005522,-0.185099,0.000000,0.534067,0.000000,1.364837,0.000000,-0.237363
0.548000,0.000000,0.017329,0.000000,0.044285,0.000000,-0.007702,0.000210,0.015168,-0.000031,0.042767,-0.000022,-0.006964,-0.000616,0.097524,-0.000056,0.264162,-0.000125,-0.045100,-0.104616,1.088823,0.004733,0.536719,0.005637,-0.186508,0.000000,0.531883,0.000000,1.359257,0.000000,-0.236393
0.552000,0.000000,0.017752,0.000000,0.045365,0.000000,-0.007890,0.000208,0.015564,-0.000031,0.043834,-0.000022,-0.007146,-0.000626,0.099840,-0.000040,0.267967,-0.000113,-0.045816,-0.103365,1.101454,0.004740,0.541852,0.005739,-0.187910,0.000000,0.529635,0.000000,1.353512,0.000000,-0.235393
0.556000,0.000000,0.018181,0.000000,0.046462,0.000000,-0.008080,0.000205,0.015969,-0.000031,0.044915,-0.000023,-0.007331,-0.000638,0.102177,-0.000023,0.271794,-0.000100,-0.046536,-0.102088,1.112614,0.004736,0.547369,0.005829,-0.189304,0.000000,0.527323,0.000000,1.347604,0.000000,-0.234366
0.560000,0.000000,0.018616,0.000000,0.047574,0.000000,-0.008274,0.000203,0.016384,-0.000031,0.046012,-0.000023,-0.007519,-0.000652,0.104527,-0.000005,0.275654,-0.000087,-0.047259,-0.100783,1.122291,0.004719,0.553241,0.005905,-0.190689,0.000000,0.524948,0.000000,1.341533,0.000000,-0.233310
0.564000,0.000000,0.019058,0.000000,0.048703,0.000000,-0.008470,0.000200,0.016808,-0.000031,0.047124,-0.000023,-0.007710,-0.000668,0.106881,0.000013,0.279553,-0.000074,-0.047986,-0.099444,1.130488,0.004690,0.559427,0.005968,-0.192066,0.000000,0.522510,0.000000,1.335303,0.000000,-0.232227
0.568000,0.000000,0.019506,0.000000,0.049849,0.000000,-0.008669,0.000197,0.017241,-0.000031,0.048252,-0.000024,-0.007904,-0.000687,0.109233,0.000033,0.283499,-0.000061,-0.048714,-0.098067,1.137226,0.004649,0.565878,0.006017,-0.193436,0.000000,0.520009,0.000000,1.328913,0.000000,-0.231115
0.572000,0.000000,0.019961,0.000000,0.051012,0.000000,-0.008872,0.000195,0.017684,-0.000031,0.049396,-0.000024,-0.008100,-0.000708,0.111575,0.000053,0.287496,-0.000048,-0.049444,-0.096648,1.142537,0.004595,0.572541,0.006053,-0.194800,0.000000,0.517447,0.000000,1.322366,0.000000,-0.229977
0.576000,0.000000,0.020422,0.000000,0.052191,0.000000,-0.009077,0.000192,0.018136,-0.000031,0.050556,-0.000024,-0.008300,-0.000730,0.113899,0.000074,0.291545,-0.000035,-0.050176,-0.095185,1.146472,0.004528,0.579355,0.006075,-0.196160,0.000000,0.514824,0.000000,1.315662,0.000000,-0.228811
0.580000,0.000000,0.020890,0.000000,0.053386,0.000000,-0.009285,0.000189,0.018597,-0.000030,0.051733,-0.000024,-0.008502,-0.000753,0.116197,0.000094,0.295649,-0.000022,-0.050908,-0.093675,1.149090,0.004448,0.586264,0.006085,-0.197517,0.000000,0.512141,0.000000,1.308805,0.000000,-0.227618
0.584000,0.000000,0.021365,0.000000,0.054599,0.000000,-0.009495,0.000186,0.019068,-0.000030,0.052925,-0.000024,-0.008708,-0.000777,0.118465,0.000115,0.299806,-0.000009,-0.051640,-0.092116,1.150468,0.004355,0.593211,0.006083,-0.198875,0.000000,0.509397,0.000000,1.301794,0.000000,-0.226399
0.588000,0.000000,0.021846,0.000000,0.055828,0.000000,-0.009709,0.000183,0.019547,-0.000030,0.054135,-0.000024,-0.008916,-0.000801,0.120694,0.000136,0.304012,0.000003,-0.052373,-0.090508,1.150694,0.004251,0.600144,0.006070,-0.200234,0.000000,0.506595,0.000000,1.294631,0.000000,-0.225153
0.592000,0.000000,0.022334,0.000000,0.057075,0.000000,-0.009926,0.000179,0.020035,-0.000029,0.055362,-0.000024,-0.009128,-0.000825,0.122879,0.000156,0.308263,0.000014,-0.053106,-0.088852,1.149866,0.004134,0.607019,0.006046,-0.201598,0.000000,0.503733,0.000000,1.287318,0.000000,-0.223881
0.596000,0.000000,0.022828,0.000000,0.058338,0.000000,-0.010146,0.000176,0.020532,-0.000028,0.056606,-0.000024,-0.009342,-0.000849,0.125015,0.000176,0.312555,0.000024,-0.053839,-0.087147,1.148092,0.004005,0.613799,0.006012,-0.202967,0.000000,0.500813,0.000000,1.279856,0.000000,-0.222584
0.600000,0.000000,0.023329,0.000000,0.059618,0.000000,-0.010368,0.000173,0.021038,-0.000027,0.057867,-0.000024,-0.009559,-0.000873,0.127097,0.000196,0.316878,0.000034,-0.054572,-0.085396,1.145492,0.003865,0.620457,0.005968,-0.204343,0.000000,0.497836,0.000000,1.272246,0.000000,-0.221260
0.604000,0.000000,0.023836,0.000000,0.060915,0.000000,-0.010594,0.000169,0.021551,-0.000027,0.059145,-0.000024,-0.009779,-0.000895,0.129121,0.000215,0.321228,0.000043,-0.055305,-0.083601,1.142192,0.003715,0.626974,0.005917,-0.205728,0.000000,0.494801,0.000000,1.264491,0.000000,-0.219911
0.608000,0.000000,0.024351,0.000000,0.062230,0.000000,-0.010823,0.000165,0.022072,-0.000026,0.060441,-0.000024,-0.010002,-0.000916,0.131082,0.000233,0.325596,0.000051,-0.056039,-0.081764,1.138324,0.003555,0.633343,0.005859,-0.207122,0.000000,0.491710,0.000000,1.256591,0.000000,-0.218538
0.612000,0.000000,0.024872,0.000000,0.063561,0.000000,-0.011054,0.000162,0.022601,-0.000025,0.061754,-0.000023,-0.010228,-0.000936,0.132979,0.000250,0.329976,0.000057,-0.056774,-0.079888,1.134027,0.003386,0.639566,0.005796,-0.208527,0.000000,0.488562,0.000000,1.248548,0.000000,-0.217139
0.616000,0.000000,0.025399,0.000000,0.064910,0.000000,-0.011289,0.000158,0.023138,-0.000024,0.063085,-0.000023,-0.010457,-0.000954,0.134808,0.000266,0.334359,0.000063,-0.057510,-0.077976,1.129442,0.003207,0.645654,0.005728,-0.209942,0.000000,0.485360,0.000000,1.240364,0.000000,-0.215715
0.620000,0.000000,0.025934,0.000000,0.066275,0.000000,-0.011526,0.000154,0.023682,-0.000023,0.064433,-0.000023,-0.010689,-0.000971,0.136569,0.000281,0.338740,0.000067,-0.058247,-0.076030,1.124714,0.003021,0.651624,0.005657,-0.211367,0.000000,0.482102,0.000000,1.232039,0.000000,-0.214268
0.624000,0.000000,0.026475,0.000000,0.067658,0.000000,-0.011767,0.000150,0.024232,-0.000021,0.065799,-0.000023,-0.010924,-0.000986,0.138260,0.000295,0.343114,0.000070,-0.058986,-0.074053,1.119989,0.002828,0.657503,0.005583,-0.212801,0.000000,0.478791,0.000000,1.223576,0.000000,-0.212796
0.628000,0.000000,0.027023,0.000000,0.069058,0.000000,-0.012010,0.000146,0.024789,-0.000020,0.067183,-0.000022,-0.011161,-0.001001,0.139882,0.000308,0.347475,0.000072,-0.059727,-0.072048,1.115412,0.002628,0.663321,0.005510,-0.214243,0.000000,0.475425,0.000000,1.214975,0.000000,-0.211300
0.632000,0.000000,0.027577,0.000000,0.070476,0.000000,-0.012257,0.000142,0.025353,-0.000019,0.068583,-0.000022,-0.011402,-0.001014,0.141435,0.000320,0.351821,0.000072,-0.060469,-0.070017,1.111127,0.002421,0.669110,0.005436,-0.215693,0.000000,0.472006,0.000000,1.206238,0.000000,-0.209781
0.636000,0.000000,0.028139,0.000000,0.071910,0.000000,-0.012506,0.000138,0.025922,-0.000018,0.070001,-0.000022,-0.011646,-0.001027,0.142919,0.000332,0.356149,0.000071,-0.061214,-0.067960,1.107274,0.002209,0.674906,0.005365,-0.217149,0.000000,0.468535,0.000000,1.197368,0.000000,-0.208238
0.640000,0.000000,0.028707,0.000000,0.073362,0.000000,-0.012759,0.000134,0.026497,-0.000016,0.071437,-0.000022,-0.011893,-0.001038,0.144338,0.000342,0.360458,0.000069,-0.061961,-0.065881,1.103988,0.001993,0.680744,0.005296,-0.218610,0.000000,0.465012,0.000000,1.188364,0.000000,-0.206672
0.644000,0.000000,0.029282,0.000000,0.074832,0.000000,-0.013014,0.000130,0.027078,-0.000015,0.072889,-0.000021,-0.012142,-0.001050,0.145694,0.000351,0.364749,0.000066,-0.062711,-0.063779,1.101401,0.001771,0.686657,0.005232,-0.220074,0.000000,0.461437,0.000000,1.179228,0.000000,-0.205083
0.648000,0.000000,0.029864,0.000000,0.076318,0.000000,-0.013273,0.000125,0.027664,-0.000014,0.074359,-0.000021,-0.012395,-0.001061,0.146990,0.000360,0.369022,0.000062,-0.063463,-0.061654,1.099634,0.001545,0.692675,0.005174,-0.221538,0.000000,0.457812,0.000000,1.169963,0.000000,-0.203472
0.652000,0.000000,0.030452,0.000000,0.077822,0.000000,-0.013534,0.000121,0.028255,-0.000012,0.075846,-0.000021,-0.012651,-0.001073,0.148229,0.000368,0.373280,0.000056,-0.064217,-0.059507,1.098804,0.001314,0.698825,0.005122,-0.223003,0.000000,0.454136,0.000000,1.160569,0.000000,-0.201838
0.656000,0.000000,0.031048,0.000000,0.079344,0.000000,-0.013799,0.000117,0.028851,-0.000011,0.077349,-0.000021,-0.012910,-0.001084,0.149417,0.000376,0.377525,0.000050,-0.064973,-0.057337,1.099015,0.001080,0.705128,0.005077,-0.224467,0.000000,0.450410,0.000000,1.151047,0.000000,-0.200182
0.660000,0.000000,0.031650,0.000000,0.080883,0.000000,-0.014067,0.000112,0.029452,-0.000009,0.078870,-0.000020,-0.013171,-0.001096,0.150557,0.000383,0.381761,0.000042,-0.065731,-0.055142,1.100363,0.000841,0.711600,0.005041,-0.225927,0.000000,0.446635,0.000000,1.141400,0.000000,-0.198504
0.664000,0.000000,0.032259,0.000000,0.082439,0.000000,-0.014337,0.000108,0.030057,-0.000007,0.080408,-0.000020,-0.013436,-0.001109,0.151656,0.000391,0.385990,0.000033,-0.066490,-0.052922,1.102933,0.000598,0.718251,0.005015,-0.227384,0.000000,0.442811,0.000000,1.131629,0.000000,-0.196805
0.668000,0.000000,0.032874,0.000000,0.084012,0.000000,-0.014611,0.000104,0.030666,-0.000006,0.081962,-0.000020,-0.013704,-0.001122,0.152719,0.000399,0.390216,0.000024,-0.067251,-0.050675,1.106797,0.000350,0.725084,0.004998,-0.228837,0.000000,0.438940,0.000000,1.121735,0.000000,-0.195084
0.672000,0.000000,0.033497,0.000000,0.085603,0.000000,-0.014888,0.000099,0.031279,-0.000004,0.083534,-0.000020,-0.013975,-0.001137,0.153751,0.000407,0.394444,0.000014,-0.068013,-0.048399,1.112015,0.000098,0.732097,0.004993,-0.230284,0.000000,0.435021,0.000000,1.111720,0.000000,-0.193343
0.676000,0.000000,0.034126,0.000000,0.087212,0.000000,-0.015167,0.000094,0.031897,-0.000003,0.085122,-0.000020,-0.014249,-0.001152,0.154759,0.000415,0.398675,0.000003,-0.068775,-0.046093,1.118636,-0.000161,0.739285,0.004998,-0.231725,0.000000,0.431055,0.000000,1.101584,0.000000,-0.191580
0.680000,0.000000,0.034763,0.000000,0.088838,0.000000,-0.015450,0.000090,0.032519,-0.000001,0.086727,-0.000020,-0.014526,-0.001168,0.155750,0.000425,0.402914,-0.000008,-0.069538,-0.043754,1.126692,-0.000426,0.746633,0.005016,-0.233161,0.000000,0.427042,0.000000,1.091330,0.000000,-0.189797
0.684000,0.000000,0.035406,0.000000,0.090481,0.000000,-0.015736,0.000085,0.033144,0.000001,0.088349,-0.000020,-0.014806,-0.001185,0.156730,0.000435,0.407162,-0.000020,-0.070301,-0.041382,1.136204,-0.000698,0.754129,0.005045,-0.234592,0.000000,0.422984,0.000000,1.080959,0.000000,-0.187993
0.688000,0.000000,0.036055,0.000000,0.092142,0.000000,-0.016025,0.000080,0.033773,0.000003,0.089989,-0.000020,-0.015089,-0.001202,0.157705,0.000446,0.411422,-0.000032,-0.071064,-0.038974,1.147179,-0.000978,0.761752,0.005087,-0.236017,0.000000,0.418881,0.000000,1.070473,0.000000,-0.186169
0.692000,0.000000,0.036712,0.000000,0.093820,0.000000,-0.016316,0.000075,0.034407,0.000004,0.091645,-0.000020,-0.015375,-0.001220,0.158682,0.000459,0.415694,-0.000044,-0.071826,-0.036530,1.159610,-0.001267,0.769482,0.005141,-0.237437,0.000000,0.414732,0.000000,1.059872,0.000000,-0.184326
0.696000,0.000000,0.037376,0.000000,0.095515,0.000000,-0.016611,0.000071,0.035044,0.000006,0.093318,-0.000021,-0.015664,-0.001239,0.159668,0.000473,0.419978,-0.000056,-0.072588,-0.034048,1.173478,-0.001566,0.777300,0.005208,-0.238853,0.000000,0.410540,0.000000,1.049158,0.000000,-0.182462
0.700000,0.000000,0.038046,0.000000,0.097228,0.000000,-0.016909,0.000066,0.035685,0.000008,0.095009,-0.000021,-0.015956,-0.001258,0.160669,0.000489,0.424275,-0.000068,-0.073349,-0.031528,1.188748,-0.001877,0.785183,0.005286,-0.240265,0.000000,0.406304,0.000000,1.038334,0.000000,-0.180580
0.704000,0.000000,0.038723,0.000000,0.098959,0.000000,-0.017210,0.000060,0.036330,0.000010,0.096717,-0.000021,-0.016252,-0.001277,0.161691,0.000507,0.428584,-0.000080,-0.074108,-0.028969,1.205375,-0.002200,0.793113,0.005377,-0.241674,0.000000,0.402026,0.000000,1.027399,0.000000,-0.178678
0.708000,0.000000,0.039407,0.000000,0.100706,0.000000,-0.017514,0.000055,0.036980,0.000012,0.098442,-0.000021,-0.016550,-0.001297,0.162740,0.000526,0.432902,-0.000092,-0.074867,-0.026371,1.223300,-0.002537,0.801070,0.005479,-0.243080,0.000000,0.397705,0.000000,1.016356,0.000000,-0.176758
0.712000,0.000000,0.040097,0.000000,0.102471,0.000000,-0.017821,0.000050,0.037633,0.000014,0.100184,-0.000022,-0.016851,-0.001316,0.163822,0.000548,0.437229,-0.000103,-0.075625,-0.023735,1.242453,-0.002889,0.809040,0.005592,-0.244484,0.000000,0.393342,0.000000,1.005206,0.000000,-0.174818
0.716000,0.000000,0.040795,0.000000,0.104254,0.000000,-0.018131,0.000045,0.038291,0.000017,0.101944,-0.000022,-0.017156,-0.001336,0.164941,0.000572,0.441560,-0.000114,-0.076381,-0.021059,1.262753,-0.003258,0.817011,0.005715,-0.245887,0.000000,0.388937,0.000000,0.993951,0.000000,-0.172861
0.720000,0.000000,0.041499,0.000000,0.106054,0.000000,-0.018444,0.000039,0.038954,0.000019,0.103721,-0.000023,-0.017463,-0.001355,0.166104,0.000597,0.445895,-0.000124,-0.077136,-0.018346,1.284111,-0.003644,0.824973,0.005849,-0.247289,0.000000,0.384492,0.000000,0.982591,0.000000,-0.170885
0.724000,0.000000,0.042210,0.000000,0.107871,0.000000,-0.018760,0.000034,0.039621,0.000021,0.105516,-0.000023,-0.017774,-0.001373,0.167313,0.000625,0.450228,-0.000134,-0.077889,-0.015595,1.306426,-0.004049,0.832921,0.005991,-0.248690,0.000000,0.380007,0.000000,0.971129,0.000000,-0.168892
0.728000,0.000000,0.042928,0.000000,0.109705,0.000000,-0.019079,0.000028,0.040294,0.000024,0.107327,-0.000024,-0.018087,-0.001392,0.168574,0.000655,0.454559,-0.000142,-0.078642,-0.012808,1.329592,-0.004475,0.840853,0.006141,-0.250090,0.000000,0.375482,0.000000,0.959566,0.000000,-0.166881
0.732000,0.000000,0.043653,0.000000,0.111557,0.000000,-0.019401,0.000023,0.040971,0.000027,0.109156,-0.000024,-0.018403,-0.001409,0.169888,0.000687,0.458884,-0.000150,-0.079393,-0.009985,1.353493,-0.004922,0.848770,0.006298,-0.251491,0.000000,0.370919,0.000000,0.947903,0.000000,-0.164853
0.736000,0.000000,0.044384,0.000000,0.113426,0.000000,-0.019726,0.000017,0.041654,0.000030,0.111003,-0.000025,-0.018723,-0.001427,0.171259,0.000720,0.463199,-0.000157,-0.080143,-0.007128,1.378009,-0.005391,0.856678,0.006462,-0.252890,0.000000,0.366316,0.000000,0.936142,0.000000,-0.162807
0.740000,0.000000,0.045122,0.000000,0.115312,0.000000,-0.020054,0.000011,0.042343,0.000033,0.112866,-0.000026,-0.019045,-0.001444,0.172689,0.000756,0.467503,-0.000163,-0.080891,-0.004237,1.403017,-0.005884,0.864582,0.006630,-0.254289,0.000000,0.361676,0.000000,0.924284,0.000000,-0.160745
0.744000,0.000000,0.045867,0.000000,0.117215,0.000000,-0.020385,0.000006,0.043037,0.000036,0.114747,-0.000026,-0.019371,-0.001460,0.174180,0.000793,0.471794,-0.000168,-0.081639,-0.001313,1.428388,-0.006401,0.872494,0.006803,-0.255687,0.000000,0.356999,0.000000,0.912330,0.000000,-0.158666
0.748000,0.000000,0.046618,0.000000,0.119136,0.000000,-0.020719,-0.000000,0.043738,0.000039,0.116645,-0.000027,-0.019699,-0.001476,0.175732,0.000832,0.476069,-0.000172,-0.082385,0.001642,1.453993,-0.006943,0.880423,0.006979,-0.257083,0.000000,0.352285,0.000000,0.900283,0.000000,-0.156571
0.752000,0.000000,0.047376,0.000000,0.121073,0.000000,-0.021056,-0.000006,0.044445,0.000042,0.118560,-0.000028,-0.020030,-0.001492,0.177346,0.000872,0.480327,-0.000175,-0.083131,0.004629,1.479702,-0.007511,0.888383,0.007156,-0.258477,0.000000,0.347534,0.000000,0.888143,0.000000,-0.154460
0.756000,0.000000,0.048141,0.000000,0.123028,0.000000,-0.021396,-0.000012,0.045158,0.000046,0.120492,-0.000028,-0.020365,-0.001507,0.179020,0.000913,0.484567,-0.000176,-0.083875,0.007647,1.505384,-0.008104,0.896384,0.007334,-0.259868,0.000000,0.342748,0.000000,0.875912,0.000000,-0.152333
0.760000,0.000000,0.048913,0.000000,0.125000,0.000000,-0.021739,-0.000018,0.045879,0.000050,0.122440,-0.000029,-0.020702,-0.001523,0.180755,0.000955,0.488789,-0.000177,-0.084619,0.010696,1.530912,-0.008724,0.904441,0.007512,-0.261256,0.000000,0.337927,0.000000,0.863592,0.000000,-0.150190
0.764000,0.000000,0.049691,0.000000,0.126988,0.000000,-0.022085,-0.000024,0.046606,0.000054,0.124406,-0.000030,-0.021043,-0.001538,0.182548,0.000997,0.492993,-0.000176,-0.085361,0.013775,1.556162,-0.009370,0.912563,0.007688,-0.262640,0.000000,0.333072,0.000000,0.851183,0.000000,-0.148032
0.768000,0.000000,0.050476,0.000000,0.128994,0.000000,-0.022434,-0.000031,0.047341,0.000058,0.126388,-0.000031,-0.021386,-0.001553,0.184397,0.001040,0.497178,-0.000175,-0.086102,0.016885,1.581012,-0.010043,0.920762,0.007861,-0.264019,0.000000,0.328182,0.000000,0.838688,0.000000,-0.145859
0.772000,0.000000,0.051267,0.000000,0.131017,0.000000,-0.022785,-0.000037,0.048083,0.000062,0.128388,-0.000031,-0.021732,-0.001569,0.186299,0.001083,0.501346,-0.000172,-0.086841,0.020025,1.605347,-0.010741,0.929047,0.008031,-0.265393,0.000000,0.323259,0.000000,0.826107,0.000000,-0.143671
0.776000,0.000000,0.052065,0.000000,0.133056,0.000000,-0.023140,-0.000043,0.048833,0.000066,0.130403,-0.000032,-0.022081,-0.001584,0.188252,0.001126,0.505496,-0.000168,-0.087579,0.023195,1.629060,-0.011465,0.937423,0.008196,-0.266760,0.000000,0.318304,0.000000,0.813443,0.000000,-0.141468
0.780000,0.000000,0.052870,0.000000,0.135112,0.000000,-0.023498,-0.000050,0.049591,0.000071,0.132436,-0.000033,-0.022433,-0.001600,0.190250,0.001169,0.509630,-0.000163,-0.088316,0.026398,1.652048,-0.012214,0.945897,0.008355,-0.268121,0.000000,0.313316,0.000000,0.800696,0.000000,-0.139251
0.784000,0.000000,0.053681,0.000000,0.137185,0.000000,-0.023858,-0.000056,0.050358,0.000076,0.134484,-0.000033,-0.022788,-0.001616,0.192291,0.001210,0.513748,-0.000157,-0.089051,0.029632,1.674220,-0.012988,0.954471,0.008508,-0.269476,0.000000,0.308296,0.000000,0.787868,0.000000,-0.137021
0.788000,0.000000,0.054499,0.000000,0.139275,0.000000,-0.024222,-0.000063,0.051132,0.000081,0.136550,-0.000034,-0.023146,-0.001632,0.194368,0.001251,0.517853,-0.000151,-0.089784,0.032898,1.695492,-0.013784,0.963146,0.008653,-0.270822,0.000000,0.303246,0.000000,0.774961,0.000000,-0.134776
0.792000,0.000000,0.055323,0.000000,0.141382,0.000000,-0.024588,-0.000069,0.051915,0.000086,0.138631,-0.000034,-0.023507,-0.001648,0.196477,0.001290,0.521944,-0.000143,-0.090515,0.036197,1.715791,-0.014603,0.971919,0.008790,-0.272162,0.000000,0.298164,0.000000,0.761976,0.000000,-0.132518
0.796000,0.000000,0.056154,0.000000,0.143505,0.000000,-0.024957,-0.000076,0.052706,0.000091,0.140729,-0.000035,-0.023871,-0.001665,0.198612,0.001328,0.526022,-0.000135,-0.091244,0.039530,1.735055,-0.015443,0.980789,0.008919,-0.273493,0.000000,0.293053,0.000000,0.748914,0.000000,-0.130246
0.800000,0.000000,0.056991,0.000000,0.145644,0.000000,-0.025329,-0.000082,0.053506,0.000096,0.142843,-0.000036,-0.024238,-0.001682,0.200768,0.001364,0.530089,-0.000127,-0.091971,0.042898,1.753232,-0.016302,0.989749,0.009038,-0.274816,0.000000,0.287913,0.000000,0.735777,0.000000,-0.127961
0.804000,0.000000,0.057835,0.000000,0.147800,0.000000,-0.025704,-0.000089,0.054314,0.000102,0.144974,-0.000036,-0.024608,-0.001699,0.202938,0.001398,0.534145,-0.000117,-0.092695,0.046299,1.770282,-0.017180,0.998794,0.009147,-0.276131,0.000000,0.282743,0.000000,0.722566,0.000000,-0.125664
0.808000,0.000000,0.058685,0.000000,0.149973,0.000000,-0.026082,-0.000096,0.055131,0.000108,0.147121,-0.000036,-0.024980,-0.001717,0.205117,0.001429,0.538190,-0.000108,-0.093416,0.049736,1.786177,-0.018074,1.007917,0.009246,-0.277438,0.000000,0.277546,0.000000,0.709283,0.000000,-0.123354
0.812000,0.000000,0.059542,0.000000,0.152162,0.000000,-0.026463,-0.000103,0.055957,0.000113,0.149283,-0.000037,-0.025356,-0.001735,0.207298,0.001459,0.542224,-0.000098,-0.094135,0.053209,1.800904,-0.018983,1.017110,0.009335,-0.278736,0.000000,0.272320,0.000000,0.695930,0.000000,-0.121031
0.816000,0.000000,0.060404,0.000000,0.154367,0.000000,-0.026846,-0.000110,0.056792,0.000119,0.151462,-0.000037,-0.025734,-0.001752,0.209476,0.001486,0.546247,-0.000087,-0.094851,0.056717,1.814456,-0.019906,1.026365,0.009413,-0.280027,0.000000,0.267068,0.000000,0.682507,0.000000,-0.118697
0.820000,0.000000,0.061274,0.000000,0.156588,0.000000,-0.027233,-0.000117,0.057635,0.000125,0.153657,-0.000038,-0.026115,-0.001770,0.211642,0.001510,0.550258,-0.000077,-0.095564,0.060262,1.826845,-0.020840,1.035674,0.009480,-0.281310,0.000000,0.261789,0.000000,0.669015,0.000000,-0.116351
0.824000,0.000000,0.062149,0.000000,0.158826,0.000000,-0.027622,-0.000124,0.058487,0.000131,0.155868,-0.000038,-0.026499,-0.001788,0.213793,0.001531,0.554258,-0.000066,-0.096274,0.063842,1.838090,-0.021784,1.045031,0.009537,-0.282584,0.000000,0.256484,0.000000,0.655458,0.000000,-0.113993
0.828000,0.000000,0.063031,0.000000,0.161080,0.000000,-0.028014,-0.000131,0.059348,0.000138,0.158095,-0.000038,-0.026886,-0.001806,0.215921,0.001550,0.558244,-0.000056,-0.096980,0.067459,1.848224,-0.022736,1.054427,0.009584,-0.283851,0.000000,0.251153,0.000000,0.641835,0.000000,-0.111624
0.832000,0.000000,0.063919,0.000000,0.163350,0.000000,-0.028409,-0.000139,0.060217,0.000144,0.160338,-0.000038,-0.027276,-0.001824,0.218021,0.001566,0.562216,-0.000046,-0.097683,0.071111,1.857290,-0.023695,1.063858,0.009620,-0.285111,0.000000,0.245798,0.000000,0.628149,0.000000,-0.109243
0.836000,0.000000,0.064814,0.000000,0.165635,0.000000,-0.028806,-0.000146,0.061094,0.000150,0.162597,-0.000038,-0.027668,-0.001842,0.220087,0.001579,0.566173,-0.000036,-0.098383,0.074798,1.865343,-0.024659,1.073320,0.009647,-0.286362,0.000000,0.240418,0.000000,0.614401,0.000000,-0.106852
0.840000,0.000000,0.065714,0.000000,0.167937,0.000000,-0.029206,-0.000153,0.061979,0.000157,0.164872,-0.000039,-0.028063,-0.001860,0.222113,0.001590,0.570114,-0.000026,-0.099080,0.078521,1.872448,-0.025625,1.082807,0.009664,-0.287606,0.000000,0.235014,0.000000,0.600592,0.000000,-0.104451
0.844000,0.000000,0.066621,0.000000,0.170254,0.000000,-0.029609,-0.000161,0.062873,0.000163,0.167162,-0.000039,-0.028462,-0.001889,0.224096,0.001597,0.574060,-0.000017,-0.099774,0.082291,1.878679,-0.026593,1.092299,0.009673,-0.288842,0.000000,0.229588,0.000000,0.586724,0.000000,-0.102039
0.848000,0.000000,0.067534,0.000000,0.172587,0.000000,-0.030015,-0.000169,0.063774,0.000169,0.169468,-0.000039,-0.028862,-0.001962,0.226031,0.001599,0.578069,-0.000008,-0.100465,0.086194,1.884118,-0.027557,1.101650,0.009673,-0.290067,0.000000,0.224138,0.000000,0.572798,0.000000,-0.099617
0.852000,0.000000,0.068453,0.000000,0.174936,0.000000,-0.030424,-0.000177,0.064683,0.000176,0.171790,-0.000039,-0.029266,-0.002083,0.227913,0.001597,0.582141,-0.000000,-0.101152,0.090358,1.888854,-0.028515,1.110691,0.009666,-0.291283,0.000000,0.218667,0.000000,0.558815,0.000000,-0.097185
0.856000,0.000000,0.069378,0.000000,0.177300,0.000000,-0.030835,-0.000185,0.065599,0.000182,0.174129,-0.000039,-0.029672,-0.002236,0.229739,0.001593,0.586231,0.000007,-0.101832,0.094846,1.892983,-0.029467,1.119391,0.009653,-0.292497,0.000000,0.213174,0.000000,0.544778,0.000000,-0.094744
0.860000,0.000000,0.070310,0.000000,0.179680,0.000000,-0.031249,-0.000195,0.066522,0.000188,0.176484,-0.000039,-0.030081,-0.002407,0.231506,0.001589,0.590297,0.000013,-0.102504,0.099688,1.896609,-0.030415,1.127781,0.009633,-0.293713,0.000000,0.207660,0.000000,0.530687,0.000000,-0.092293
0.864000,0.000000,0.071247,0.000000,0.182075,0.000000,-0.031665,-0.000205,0.067453,0.000195,0.178855,-0.000039,-0.030493,-0.002581,0.233212,0.001585,0.594302,0.000019,-0.103169,0.104885,1.899838,-0.031361,1.135945,0.009609,-0.294934,0.000000,0.202126,0.000000,0.516545,0.000000,-0.089834
0.868000,0.000000,0.072190,0.000000,0.184485,0.000000,-0.032084,-0.000215,0.068390,0.000201,0.181242,-0.000038,-0.030907,-0.002747,0.234853,0.001581,0.598217,0.000024,-0.103829,0.110418,1.902784,-0.032306,1.143996,0.009580,-0.296159,0.000000,0.196572,0.000000,0.502351,0.000000,-0.087365
0.872000,0.000000,0.073139,0.000000,0.186911,0.000000,-0.032506,-0.000227,0.069333,0.000207,0.183645,-0.000038,-0.031324,-0.002900,0.236428,0.001579,0.602028,0.000027,-0.104486,0.116256,1.905559,-0.033251,1.152066,0.009549,-0.297388,0.000000,0.190999,0.000000,0.488109,0.000000,-0.084888
0.876000,0.000000,0.074094,0.000000,0.189352,0.000000,-0.032931,-0.000239,0.070283,0.000214,0.186062,-0.000038,-0.031744,-0.003037,0.237936,0.001578,0.605732,0.000030,-0.105142,0.122364,1.908281,-0.034196,1.160280,0.009516,-0.298615,0.000000,0.185407,0.000000,0.473819,0.000000,-0.082403
0.880000,0.000000,0.075055,0.000000,0.191807,0.000000,-0.033358,-0.000251,0.071238,0.000220,0.188494,-0.000038,-0.032166,-0.003159,0.239377,0.001577,0.609336,0.000032,-0.105796,0.128710,1.911065,-0.035141,1.168744,0.009481,-0.299836,0.000000,0.179797,0.000000,0.459482,0.000000,-0.079910
0.884000,0.000000,0.076022,0.000000,0.194278,0.000000,-0.033787,-0.000264,0.072199,0.000226,0.190940,-0.000038,-0.032591,-0.003271,0.240752,0.001576,0.612857,0.000033,-0.106451,0.135276,1.914027,-0.036086,1.177534,0.009447,-0.301045,0.000000,0.174170,0.000000,0.445101,0.000000,-0.077409
0.888000,0.000000,0.076994,0.000000,0.196763,0.000000,-0.034220,-0.000277,0.073165,0.000233,0.193400,-0.000038,-0.033018,-0.003379,0.242060,0.001576,0.616316,0.000033,-0.107107,0.142052,1.917280,-0.037031,1.186689,0.009414,-0.302238,0.000000,0.168525,0.000000,0.430676,0.000000,-0.074900
0.892000,0.000000,0.077973,0.000000,0.199264,0.000000,-0.034655,-0.000291,0.074137,0.000239,0.195874,-0.000038,-0.033448,-0.003489,0.243303,0.001576,0.619737,0.000032,-0.107762,0.149047,1.920934,-0.037977,1.196214,0.009382,-0.303410,0.000000,0.162865,0.000000,0.416210,0.000000,-0.072384
0.896000,0.000000,0.078957,0.000000,0.201778,0.000000,-0.035092,-0.000305,0.075113,0.000245,0.198361,-0.000038,-0.033881,-0.003608,0.244483,0.001577,0.623140,0.000030,-0.108416,0.156278,1.925095,-0.038924,1.206083,0.009354,-0.304559,0.000000,0.157188,0.000000,0.401703,0.000000,-0.069861
0.900000,0.000000,0.079947,0.000000,0.204308,0.000000,-0.035532,-0.000320,0.076093,0.000252,0.200862,-0.000037,-0.034316,-0.003740,0.245603,0.001579,0.626543,0.000027,-0.109067,0.163776,1.929864,-0.039872,1.216247,0.009329,-0.305684,0.000000,0.151496,0.000000,0.387157,0.000000,-0.067332
0.904000,0.000000,0.080942,0.000000,0.206851,0.000000,-0.035974,-0.000335,0.077079,0.000258,0.203377,-0.000037,-0.034754,-0.003888,0.246665,0.001582,0.629957,0.000023,-0.109714,0.171570,1.935334,-0.040825,1.226645,0.009309,-0.306786,0.000000,0.145790,0.000000,0.372573,0.000000,-0.064795
0.908000,0.000000,0.081943,0.000000,0.209409,0.000000,-0.036419,-0.000351,0.078068,0.000264,0.205905,-0.000037,-0.035194,-0.004050,0.247673,0.001588,0.633386,0.000018,-0.110357,0.179695,1.941593,-0.041784,1.237211,0.009294,-0.307865,0.000000,0.140069,0.000000,0.357954,0.000000,-0.062253
0.912000,0.000000,0.082949,0.000000,0.211982,0.000000,-0.036866,-0.000368,0.079061,0.000271,0.208447,-0.000037,-0.035637,-0.004226,0.248631,0.001598,0.636828,0.000013,-0.110993,0.188176,1.948720,-0.042752,1.247889,0.009285,-0.308925,0.000000,0.134334,0.000000,0.343299,0.000000,-0.059704
0.916000,0.000000,0.083961,0.000000,0.214568,0.000000,-0.037316,-0.000385,0.080058,0.000277,0.211003,-0.000037,-0.036083,-0.004412,0.249542,0.001611,0.640277,0.000007,-0.111622,0.197033,1.956786,-0.043732,1.258631,0.009284,-0.309968,0.000000,0.128587,0.000000,0.328612,0.000000,-0.057150
0.920000,0.000000,0.084979,0.000000,0.217168,0.000000,-0.037768,-0.000403,0.081058,0.000284,0.213573,-0.000037,-0.036531,-0.004601,0.250411,0.001629,0.643722,-0.000000,-0.112245,0.206272,1.965852,-0.044727,1.269410,0.009290,-0.310996,0.000000,0.122827,0.000000,0.313892,0.000000,-0.054590
0.924000,0.000000,0.086002,0.000000,0.219783,0.000000,-0.038223,-0.000422,0.082062,0.000290,0.216156,-0.000037,-0.036981,-0.004790,0.251242,0.001651,0.647153,-0.000008,-0.112861,0.215891,1.975970,-0.045741,1.280211,0.009304,-0.312012,0.000000,0.117056,0.000000,0.299142,0.000000,-0.052025
0.928000,0.000000,0.087030,0.000000,0.222411,0.000000,-0.038680,-0.000442,0.083069,0.000297,0.218753,-0.000037,-0.037434,-0.004971,0.252041,0.001680,0.650558,-0.000016,-0.113470,0.225875,1.987183,-0.046779,1.291041,0.009327,-0.313016,0.000000,0.111273,0.000000,0.284364,0.000000,-0.049455
0.932000,0.000000,0.088064,0.000000,0.225052,0.000000,-0.039139,-0.000462,0.084079,0.000304,0.221364,-0.000037,-0.037890,-0.005142,0.252812,0.001714,0.653927,-0.000025,-0.114073,0.236199,1.999521,-0.047843,1.301913,0.009358,-0.314010,0.000000,0.105479,0.000000,0.269558,0.000000,-0.046880
0.936000,0.000000,0.089103,0.000000,0.227707,0.000000,-0.039601,-0.000483,0.085092,0.000311,0.223988,-0.000037,-0.038347,-0.005298,0.253560,0.001753,0.657254,-0.000034,-0.114671,0.246832,2.013007,-0.048937,1.312852,0.009399,-0.314993,0.000000,0.099675,0.000000,0.254726,0.000000,-0.044300
0.940000,0.000000,0.090147,0.000000,0.230376,0.000000,-0.040065,-0.000505,0.086108,0.000318,0.226625,-0.000038,-0.038808,-0.005436,0.254291,0.001798,0.660536,-0.000043,-0.115263,0.257739,2.027648,-0.050065,1.323884,0.009450,-0.315965,0.000000,0.093862,0.000000,0.239869,0.000000,-0.041716
0.944000,0.000000,0.091196,0.000000,0.233058,0.000000,-0.040532,-0.000527,0.087127,0.000325,0.229275,-0.000038,-0.039270,-0.005556,0.255011,0.001849,0.663772,-0.000052,-0.115851,0.268881,2.043446,-0.051229,1.335032,0.009510,-0.316925,0.000000,0.088039,0.000000,0.224989,0.000000,-0.039129
0.948000,0.000000,0.092251,0.000000,0.235753,0.000000,-0.041000,-0.000549,0.088149,0.000333,0.231938,-0.000038,-0.039735,-0.005657,0.255723,0.001906,0.666965,-0.000062,-0.116434,0.280222,2.060387,-0.052434,1.346312,0.009580,-0.317872,0.000000,0.082208,0.000000,0.210088,0.000000,-0.036537
0.952000,0.000000,0.093311,0.000000,0.238461,0.000000,-0.041471,-0.000572,0.089173,0.000340,0.234614,-0.000038,-0.040202,-0.005741,0.256434,0.001967,0.670120,-0.000071,-0.117013,0.291725,2.078451,-0.053681,1.357733,0.009659,-0.318804,0.000000,0.076369,0.000000,0.195166,0.000000,-0.033942
0.956000,0.000000,0.094375,0.000000,0.241182,0.000000,-0.041945,-0.000595,0.090201,0.000348,0.237302,-0.000039,-0.040672,-0.005810,0.257149,0.002033,0.673243,-0.000081,-0.117587,0.303361,2.097602,-0.054973,1.369291,0.009748,-0.319720,0.000000,0.070523,0.000000,0.180225,0.000000,-0.031344
0.960000,0.000000,0.095445,0.000000,0.243915,0.000000,-0.042420,-0.000619,0.091231,0.000357,0.240003,-0.000039,-0.041143,-0.005864,0.257872,0.002104,0.676340,-0.000090,-0.118157,0.315099,2.117800,-0.056314,1.380977,0.009846,-0.320621,0.000000,0.064670,0.000000,0.165268,0.000000,-0.028742
0.964000,0.000000,0.096520,0.000000,0.246662,0.000000,-0.042898,-0.000642,0.092265,0.000365,0.242716,-0.000039,-0.041617,-0.005905,0.258609,0.002179,0.679417,-0.000099,-0.118722,0.326916,2.138990,-0.057704,1.392769,0.009952,-0.321504,0.000000,0.058811,0.000000,0.150294,0.000000,-0.026138
0.968000,0.000000,0.097599,0.000000,0.249421,0.000000,-0.043378,-0.000666,0.093301,0.000374,0.245441,-0.000040,-0.042094,-0.005935,0.259363,0.002259,0.682476,-0.000107,-0.119282,0.338790,2.161112,-0.059147,1.404643,0.010066,-0.322371,0.000000,0.052946,0.000000,0.135306,0.000000,-0.023531
0.972000,0.000000,0.098684,0.000000,0.252192,0.000000,-0.043859,-0.000690,0.094340,0.000383,0.248179,-0.000040,-0.042572,-0.005954,0.260139,0.002342,0.685522,-0.000115,-0.119835,0.350698,2.184095,-0.060644,1.416571,0.010189,-0.323222,0.000000,0.047076,0.000000,0.120304,0.000000,-0.020923
0.976000,0.000000,0.099773,0.000000,0.254976,0.000000,-0.044344,-0.000713,0.095383,0.000393,0.250928,-0.000041,-0.043053,-0.005963,0.260940,0.002428,0.688553,-0.000123,-0.120383,0.362622,2.207862,-0.062197,1.428525,0.010318,-0.324057,0.000000,0.041201,0.000000,0.105292,0.000000,-0.018312
0.980000,0.000000,0.100867,0.000000,0.257772,0.000000,-0.044830,-0.000737,0.096429,0.000403,0.253690,-0.000041,-0.043536,-0.005961,0.261770,0.002518,0.691569,-0.000130,-0.120924,0.374541,2.232328,-0.063808,1.440479,0.010454,-0.324879,0.000000,0.035323,0.000000,0.090269,0.000000,-0.015699
0.984000,0.000000,0.101966,0.000000,0.260579,0.000000,-0.045318,-0.000761,0.097478,0.000413,0.256464,-0.000042,-0.044021,-0.005950,0.262631,0.002611,0.694582,-0.000136,-0.121774,0.386433,2.257403,-0.065478,1.452395,0.010595,-0.325308,0.000000,0.029441,0.000000,0.075237,0.000000,-0.013085
0.988000,0.000000,0.103069,0.000000,0.263399,0.000000,-0.045809,-0.000785,0.098531,0.000424,0.259250,-0.000042,-0.044511,-0.005926,0.263526,0.002706,0.697573,-0.000142,-0.122713,0.398278,2.282992,-0.067208,1.464239,0.010742,-0.324940,0.000000,0.023556,0.000000,0.060198,0.000000,-0.010469
0.992000,0.000000,0.104177,0.000000,0.266231,0.000000,-0.046301,-0.000808,0.099587,0.000435,0.262047,-0.000043,-0.045003,-0.005888,0.264457,0.002804,0.700526,-0.000147,-0.123421,0.410043,2.308996,-0.068999,1.476046,0.010893,-0.324599,0.000000,0.017669,0.000000,0.045154,0.000000,-0.007853
0.996000,0.000000,0.105290,0.000000,0.269074,0.000000,-0.046795,-0.000832,0.100647,0.000446,0.264856,-0.000043,-0.045498,-0.005836,0.265426,0.002903,0.703441,-0.000151,-0.124013,0.421700,2.335312,-0.070852,1.487820,0.011047,-0.324309,0.000000,0.011780,0.000000,0.030105,0.000000,-0.005236
1.000000,0.000000,0.106407,0.000000,0.271928,0.000000,-0.047292,-0.000855,0.101712,0.000458,0.267677,-0.000044,-0.045995,-0.005771,0.266432,0.003002,0.706322,-0.000154,-0.124548,0.433223,2.361837,-0.072765,1.499557,0.011204,-0.324043,0.000000,0.005890,0.000000,0.015053,0.000000,-0.002618
1.004000,0.000000,0.107528,0.000000,0.274794,0.000000,-0.047790,-0.000878,0.102780,0.000471,0.270510,-0.000045,-0.046495,-0.005694,0.267477,0.003102,0.709168,-0.000156,-0.125055,0.444588,2.388466,-0.074738,1.511258,0.011363,-0.323788,-0.000000,-0.000000,-0.000000,-0.000000,-0.000000,0.000000
1.008000,0.000000,0.108654,0.000000,0.277671,0.000000,-0.048291,-0.000900,0.103853,0.000483,0.273353,-0.000045,-0.046996,-0.005605,0.268561,0.003201,0.711979,-0.000158,-0.125546,0.455773,2.415092,-0.076771,1.522920,0.011522,-0.323539,-0.000000,-0.005890,-0.000000,-0.015053,-0.000000,0.002618
1.012000,0.000000,0.109784,0.000000,0.280559,0.000000,-0.048793,-0.000922,0.104930,0.000496,0.276208,-0.000046,-0.047499,-0.005507,0.269682,0.003299,0.714756,-0.000158,-0.126027,0.466758,2.441614,-0.078861,1.534540,0.011681,-0.323293,-0.000000,-0.011780,-0.000000,-0.030105,-0.000000,0.005236
1.016000,0.000000,0.110919,0.000000,0.283458,0.000000,-0.049297,-0.000944,0.106011,0.000510,0.279074,-0.000047,-0.048004,-0.005401,0.270841,0.003395,0.717500,-0.000158,-0.126499,0.477527,2.467928,-0.081007,1.546116,0.011840,-0.323049,-0.000000,-0.017669,-0.000000,-0.045154,-0.000000,0.007853
1.020000,0.000000,0.112057,0.000000,0.286368,0.000000,-0.049803,-0.000965,0.107098,0.000524,0.281951,-0.000047,-0.048512,-0.005287,0.272034,0.003489,0.720210,-0.000157,-0.126964,0.488067,2.493936,-0.083207,1.557642,0.011996,-0.322807,-0.000000,-0.023556,-0.000000,-0.060198,-0.000000,0.010469
1.024000,0.000000,0.113200,0.000000,0.289289,0.000000,-0.050311,-0.000986,0.108189,0.000538,0.284838,-0.000048,-0.049020,-0.005169,0.273261,0.003579,0.722886,-0.000155,-0.127422,0.498367,2.519543,-0.085458,1.569113,0.012150,-0.322565,-0.000000,-0.029441,-0.000000,-0.075237,-0.000000,0.013085
1.028000,0.000000,0.114347,0.000000,0.292219,0.000000,-0.050821,-0.001007,0.109285,0.000552,0.287736,-0.000048,-0.049531,-0.005046,0.274518,0.003666,0.725530,-0.000152,-0.127874,0.508422,2.544659,-0.087757,1.580525,0.012300,-0.322326,-0.000000,-0.035323,-0.000000,-0.090269,-0.000000,0.015699
1.032000,0.000000,0.115498,0.000000,0.295161,0.000000,-0.051332,-0.001027,0.110386,0.000567,0.290645,-0.000049,-0.050043,-0.004922,0.275803,0.003749,0.728140,-0.000149,-0.128318,0.518225,2.569200,-0.090101,1.591871,0.012445,-0.322088,-0.000000,-0.041201,-0.000000,-0.105292,-0.000000,0.018312
1.036000,0.000000,0.116653,0.000000,0.298112,0.000000,-0.051846,-0.001046,0.111493,0.000582,0.293564,-0.000050,-0.050558,-0.004796,0.277112,0.003826,0.730715,-0.000144,-0.128756,0.527776,2.593089,-0.092487,1.603149,0.012586,-0.321852,-0.000000,-0.047076,-0.000000,-0.120304,-0.000000,0.020923
1.040000,0.000000,0.117811,0.000000,0.301073,0.000000,-0.052361,-0.001065,0.112604,0.000598,0.296493,-0.000050,-0.051074,-0.004670,0.278443,0.003899,0.733255,-0.000139,-0.129187,0.537075,2.616256,-0.094910,1.614353,0.012721,-0.321618,-0.000000,-0.052946,-0.000000,-0.135306,-0.000000,0.023531
1.044000,0.000000,0.118974,0.000000,0.304045,0.000000,-0.052877,-0.001083,0.113722,0.000614,0.299432,-0.000051,-0.051591,-0.004546,0.279789,0.003966,0.735758,-0.000134,-0.129612,0.546126,2.638638,-0.097368,1.625485,0.012850,-0.321386,-0.000000,-0.058811,-0.000000,-0.150294,-0.000000,0.026138
1.048000,0.000000,0.120140,0.000000,0.307025,0.000000,-0.053396,-0.001101,0.114844,0.000630,0.302381,-0.000051,-0.052111,-0.004424,0.281148,0.004028,0.738224,-0.000127,-0.130029,0.554932,2.660181,-0.099857,1.636542,0.012972,-0.321156,-0.000000,-0.064670,-0.000000,-0.165268,-0.000000,0.028742
1.052000,0.000000,0.121311,0.000000,0.310016,0.000000,-0.053916,-0.001118,0.115972,0.000646,0.305340,-0.000052,-0.052632,-0.004305,0.282515,0.004083,0.740649,-0.000121,-0.130441,0.563501,2.680840,-0.102371,1.647528,0.013087,-0.320927,-0.000000,-0.070523,-0.000000,-0.180225,-0.000000,0.031344
1.056000,0.000000,0.122484,0.000000,0.313016,0.000000,-0.054438,-0.001135,0.117106,0.000662,0.308309,-0.000052,-0.053154,-0.004190,0.283886,0.004132,0.743034,-0.000113,-0.130845,0.571840,2.700580,-0.104908,1.658446,0.013194,-0.320701,-0.000000,-0.076369,-0.000000,-0.195166,-0.000000,0.033942
1.060000,0.000000,0.123662,0.000000,0.316025,0.000000,-0.054961,-0.001152,0.118245,0.000679,0.311287,-0.000053,-0.053679,-0.004080,0.285254,0.004174,0.745377,-0.000106,-0.131243,0.579961,2.719375,-0.107462,1.669301,0.013294,-0.320475,-0.000000,-0.082208,-0.000000,-0.210088,-0.000000,0.036537
1.064000,0.000000,0.124843,0.000000,0.319043,0.000000,-0.055486,-0.001168,0.119389,0.000696,0.314274,-0.000053,-0.054204,-0.003976,0.286615,0.004209,0.747676,-0.000098,-0.131634,0.587875,2.737208,-0.110031,1.680099,0.013385,-0.320251,-0.000000,-0.088039,-0.000000,-0.224989,-0.000000,0.039129
1.068000,0.000000,0.126028,0.000000,0.322070,0.000000,-0.056012,-0.001183,0.120539,0.000713,0.317270,-0.000053,-0.054732,-0.003879,0.287965,0.004238,0.749932,-0.000090,-0.132019,0.595596,2.754074,-0.112609,1.690846,0.013467,-0.320028,-0.000000,-0.093862,-0.000000,-0.239869,-0.000000,0.041716
1.072000,0.000000,0.127216,0.000000,0.325106,0.000000,-0.056540,-0.001199,0.121694,0.000730,0.320275,-0.000054,-0.055261,-0.003789,0.289298,0.004260,0.752143,-0.000082,-0.132397,0.603139,2.769977,-0.115192,1.701550,0.013542,-0.319805,-0.000000,-0.099675,-0.000000,-0.254726,-0.000000,0.044300
1.076000,0.000000,0.128407,0.000000,0.328151,0.000000,-0.057070,-0.001214,0.122854,0.000747,0.323289,-0.000054,-0.055791,-0.003708,0.290609,0.004275,0.754308,-0.000073,-0.132768,0.610522,2.784928,-0.117777,1.712217,0.013608,-0.319583,-0.000000,-0.105479,-0.000000,-0.269558,-0.000000,0.046880
1.080000,0.000000,0.129602,0.000000,0.331204,0.000000,-0.057601,-0.001228,0.124020,0.000764,0.326312,-0.000054,-0.056323,-0.003636,0.291894,0.004284,0.756429,-0.000065,-0.133132,0.617762,2.798953,-0.120361,1.722856,0.013666,-0.319360,-0.000000,-0.111273,-0.000000,-0.284364,-0.000000,0.049455
1.084000,0.000000,0.130799,0.000000,0.334265,0.000000,-0.058133,-0.001243,0.125191,0.000781,0.329343,-0.000055,-0.056856,-0.003574,0.293147,0.004287,0.758503,-0.000057,-0.133490,0.624879,2.812081,-0.122938,1.733472,0.013715,-0.319137,-0.000000,-0.117056,-0.000000,-0.299142,-0.000000,0.052025
1.088000,0.000000,0.132000,0.000000,0.337335,0.000000,-0.058667,-0.001257,0.126366,0.000798,0.332382,-0.000055,-0.057391,-0.003522,0.294364,0.004283,0.760532,-0.000049,-0.133841,0.631896,2.824356,-0.125507,1.744073,0.013757,-0.318913,-0.000000,-0.122827,-0.000000,-0.313892,-0.000000,0.054590
1.092000,0.000000,0.133205,0.000000,0.340412,0.000000,-0.059202,-0.001271,0.127547,0.000815,0.335429,-0.000055,-0.057927,-0.003481,0.295541,0.004275,0.762515,-0.000041,-0.134185,0.638832,2.835826,-0.128064,1.754664,0.013792,-0.318688,-0.000000,-0.128587,-0.000000,-0.328612,-0.000000,0.057150
1.096000,0.000000,0.134412,0.000000,0.343497,0.000000,-0.059739,-0.001285,0.128732,0.000832,0.338484,-0.000055,-0.058464,-0.003451,0.296674,0.004261,0.764453,-0.000034,-0.134522,0.645712,2.846549,-0.130607,1.765253,0.013819,-0.318462,-0.000000,-0.134334,-0.000000,-0.343299,-0.000000,0.059704
1.100000,0.000000,0.135622,0.000000,0.346590,0.000000,-0.060276,-0.001298,0.129921,0.000849,0.341546,-0.000055,-0.059003,-0.003433,0.297759,0.004242,0.766345,-0.000027,-0.134853,0.652558,2.856588,-0.133134,1.775845,0.013840,-0.318234,-0.000000,-0.140069,-0.000000,-0.357954,-0.000000,0.062253
1.104000,0.000000,0.136835,0.000000,0.349690,0.000000,-0.060816,-0.001312,0.131115,0.000866,0.344616,-0.000055,-0.059543,-0.003426,0.298792,0.004220,0.768190,-0.000021,-0.135176,0.659394,2.866016,-0.135643,1.786446,0.013855,-0.318005,-0.000000,-0.145790,-0.000000,-0.372573,-0.000000,0.064795
1.108000,0.000000,0.138051,0.000000,0.352798,0.000000,-0.061356,-0.001326,0.132313,0.000883,0.347693,-0.000055,-0.060085,-0.003431,0.299771,0.004195,0.769990,-0.000015,-0.135492,0.666241,2.874909,-0.138132,1.797062,0.013864,-0.317774,-0.000000,-0.151496,-0.000000,-0.387157,-0.000000,0.067332
1.112000,0.000000,0.139270,0.000000,0.355912,0.000000,-0.061898,-0.001339,0.133514,0.000900,0.350778,-0.000055,-0.060627,-0.003446,0.300693,0.004166,0.771743,-0.000010,-0.135801,0.673123,2.883349,-0.140601,1.807699,0.013869,-0.317540,-0.000000,-0.157188,-0.000000,-0.401703,-0.000000,0.069861
1.116000,0.000000,0.140492,0.000000,0.359034,0.000000,-0.062441,-0.001353,0.134719,0.000916,0.353869,-0.000055,-0.061171,-0.003473,0.301556,0.004136,0.773449,-0.000005,-0.136103,0.680061,2.891421,-0.143049,1.818362,0.013869,-0.317304,-0.000000,-0.162865,-0.000000,-0.416210,-0.000000,0.072384
1.120000,0.000000,0.141716,0.000000,0.362162,0.000000,-0.062985,-0.001367,0.135927,0.000933,0.356967,-0.000055,-0.061716,-0.003510,0.302358,0.004105,0.775110,-0.000001,-0.136398,0.687076,2.899215,-0.145477,1.829058,0.013866,-0.317066,-0.000000,-0.168525,-0.000000,-0.430676,-0.000000,0.074900
1.124000,0.000000,0.142942,0.000000,0.365297,0.000000,-0.063530,-0.001381,0.137138,0.000949,0.360071,-0.000055,-0.062262,-0.003557,0.303098,0.004073,0.776723,0.000002,-0.136685,0.694189,2.906823,-0.147886,1.839791,0.013861,-0.316825,-0.000000,-0.174170,-0.000000,-0.445101,-0.000000,0.077409
1.128000,0.000000,0.144172,0.000000,0.368439,0.000000,-0.064076,-0.001396,0.138353,0.000965,0.363182,-0.000055,-0.062809,-0.003614,0.303776,0.004042,0.778290,0.000005,-0.136965,0.701417,2.914336,-0.150275,1.850567,0.013854,-0.316580,-0.000000,-0.179797,-0.000000,-0.459482,-0.000000,0.079910
1.132000,0.000000,0.145403,0.000000,0.371587,0.000000,-0.064624,-0.001410,0.139569,0.000981,0.366299,-0.000055,-0.063358,-0.003679,0.304389,0.004011,0.779810,0.000006,-0.137238,0.708777,2.921848,-0.152647,1.861391,0.013845,-0.316332,-0.000000,-0.185407,-0.000000,-0.473819,-0.000000,0.082403
1.136000,0.000000,0.146638,0.000000,0.374741,0.000000,-0.065172,-0.001425,0.140788,0.000997,0.369422,-0.000055,-0.063907,-0.003752,0.304940,0.003983,0.781284,0.000007,-0.137504,0.716287,2.929452,-0.155005,1.872266,0.013837,-0.316081,-0.000000,-0.190999,-0.000000,-0.488109,-0.000000,0.084888
1.140000,0.000000,0.147874,0.000000,0.377900,0.000000,-0.065722,-0.001440,0.142009,0.001013,0.372550,-0.000055,-0.064458,-0.003832,0.305428,0.003958,0.782711,0.000007,-0.137762,0.723959,2.937239,-0.157349,1.883198,0.013828,-0.315827,-0.000000,-0.196572,-0.000000,-0.502351,-0.000000,0.087365
1.144000,0.000000,0.149113,0.000000,0.381066,0.000000,-0.066272,-0.001456,0.143232,0.001029,0.375685,-0.000055,-0.065009,-0.003919,0.305855,0.003936,0.784093,0.000007,-0.138013,0.731807,2.945298,-0.159684,1.894188,0.013822,-0.315568,-0.000000,-0.202126,-0.000000,-0.516545,-0.000000,0.089834
1.148000,0.000000,0.150354,0.000000,0.384237,0.000000,-0.066824,-0.001472,0.144456,0.001045,0.378824,-0.000055,-0.065562,-0.004011,0.306221,0.003918,0.785429,0.000006,-0.138257,0.739841,2.953714,-0.162013,1.905239,0.013817,-0.315306,-0.000000,-0.207660,-0.000000,-0.530687,-0.000000,0.092293
1.152000,0.000000,0.151597,0.000000,0.387414,0.000000,-0.067376,-0.001488,0.145682,0.001060,0.381969,-0.000055,-0.066115,-0.004108,0.306530,0.003905,0.786719,0.000003,-0.138492,0.748071,2.962569,-0.164340,1.916353,0.013815,-0.315040,-0.000000,-0.213174,-0.000000,-0.544778,-0.000000,0.094744
1.156000,0.000000,0.152842,0.000000,0.390595,0.000000,-0.067930,-0.001505,0.146909,0.001076,0.385119,-0.000055,-0.066670,-0.004209,0.306783,0.003898,0.787965,0.000001,-0.138721,0.756503,2.971939,-0.166668,1.927529,0.013816,-0.314770,-0.000000,-0.218667,-0.000000,-0.558815,-0.000000,0.097185
1.160000,0.000000,0.154089,0.000000,0.393782,0.000000,-0.068484,-0.001522,0.148136,0.001092,0.388274,-0.000055,-0.067225,-0.004312,0.306983,0.003897,0.789167,-0.000003,-0.138941,0.765144,2.981895,-0.169002,1.938769,0.013822,-0.314496,-0.000000,-0.224138,-0.000000,-0.572798,-0.000000,0.099617
1.164000,0.000000,0.155338,0.000000,0.396974,0.000000,-0.069039,-0.001539,0.149365,0.001107,0.391434,-0.000055,-0.067781,-0.004418,0.307132,0.003902,0.790325,-0.000007,-0.139154,0.773997,2.992502,-0.171346,1.950071,0.013832,-0.314218,-0.000000,-0.229588,-0.000000,-0.586724,-0.000000,0.102039
1.168000,0.000000,0.156588,0.000000,0.400170,0.000000,-0.069595,-0.001557,0.150594,0.001123,0.394598,-0.000055,-0.068338,-0.004524,0.307236,0.003915,0.791438,-0.000012,-0.139359,0.783062,3.003818,-0.173707,1.961433,0.013847,-0.313936,-0.000000,-0.235014,-0.000000,-0.600592,-0.000000,0.104451
1.172000,0.000000,0.157841,0.000000,0.403371,0.000000,-0.070152,-0.001576,0.151823,0.001139,0.397766,-0.000055,-0.068896,-0.004630,0.307296,0.003935,0.792509,-0.000017,-0.139556,0.792341,3.015893,-0.176087,1.972854,0.013868,-0.313651,-0.000000,-0.240418,-0.000000,-0.614401,-0.000000,0.106852
1.176000,0.000000,0.159095,0.000000,0.406576,0.000000,-0.070709,-0.001594,0.153052,0.001154,0.400939,-0.000055,-0.069455,-0.004735,0.307317,0.003964,0.793537,-0.000023,-0.139745,0.801831,3.028769,-0.178494,1.984331,0.013896,-0.313362,-0.000000,-0.245798,-0.000000,-0.628149,-0.000000,0.109243
1.180000,0.000000,0.160351,0.000000,0.409786,0.000000,-0.071267,-0.001613,0.154281,0.001170,0.404115,-0.000056,-0.070014,-0.004839,0.307303,0.004000,0.794522,-0.000029,-0.139927,0.811527,3.042480,-0.180932,1.995859,0.013930,-0.313070,-0.000000,-0.251153,-0.000000,-0.641835,-0.000000,0.111624
1.184000,0.000000,0.161608,0.000000,0.412999,0.000000,-0.071826,-0.001633,0.155510,0.001186,0.407295,-0.000056,-0.070574,-0.004939,0.307258,0.004045,0.795464,-0.000035,-0.140100,0.821423,3.057051,-0.183407,2.007437,0.013971,-0.312774,-0.000000,-0.256484,-0.000000,-0.655458,-0.000000,0.113993
1.188000,0.000000,0.162867,0.000000,0.416216,0.000000,-0.072385,-0.001653,0.156739,0.001203,0.410480,-0.000056,-0.071135,-0.005036,0.307187,0.004099,0.796364,-0.000042,-0.140266,0.831513,3.072500,-0.185923,2.019058,0.014019,-0.312475,-0.000000,-0.261789,-0.000000,-0.669015,-0.000000,0.116351
1.192000,0.000000,0.164128,0.000000,0.419437,0.000000,-0.072946,-0.001673,0.157968,0.001219,0.413667,-0.000056,-0.071696,-0.005128,0.307094,0.004161,0.797222,-0.000049,-0.140423,0.841785,3.088834,-0.188485,2.030720,0.014074,-0.312173,-0.000000,-0.267068,-0.000000,-0.682507,-0.000000,0.118697
1.196000,0.000000,0.165389,0.000000,0.422662,0.000000,-0.073506,-0.001694,0.159196,0.001236,0.416858,-0.000056,-0.072258,-0.005214,0.306983,0.004231,0.798038,-0.000057,-0.140572,0.852231,3.106050,-0.191100,2.042416,0.014137,-0.311869,-0.000000,-0.272320,-0.000000,-0.695930,-0.000000,0.121031
1.200000,0.000000,0.166652,0.000000,0.425889,0.000000,-0.074068,-0.001715,0.160423,0.001253,0.420052,-0.000057,-0.072820,-0.005295,0.306859,0.004310,0.798812,-0.000064,-0.140714,0.862836,3.124141,-0.193771,2.054142,0.014207,-0.311561,-0.000000,-0.277546,-0.000000,-0.709283,-0.000000,0.123354
1.204000,0.000000,0.167916,0.000000,0.429120,0.000000,-0.074630,-0.001736,0.161650,0.001271,0.423249,-0.000057,-0.073383,-0.005369,0.306725,0.004396,0.799545,-0.000071,-0.140847,0.873588,3.143086,-0.196502,2.065891,0.014284,-0.311252,-0.000000,-0.282743,-0.000000,-0.722566,-0.000000,0.125664
1.208000,0.000000,0.169182,0.000000,0.432353,0.000000,-0.075192,-0.001758,0.162877,0.001288,0.426449,-0.000057,-0.073947,-0.005436,0.306588,0.004490,0.800236,-0.000078,-0.140972,0.884472,3.162857,-0.199299,2.077659,0.014369,-0.310940,-0.000000,-0.287913,-0.000000,-0.735777,-0.000000,0.127961
1.212000,0.000000,0.170448,0.000000,0.435589,0.000000,-0.075755,-0.001780,0.164103,0.001307,0.429651,-0.000057,-0.074511,-0.005494,0.306449,0.004592,0.800885,-0.000085,-0.141089,0.895471,3.183421,-0.202165,2.089439,0.014460,-0.310626,-0.000000,-0.293053,-0.000000,-0.748914,-0.000000,0.130246
1.216000,0.000000,0.171715,0.000000,0.438828,0.000000,-0.076318,-0.001802,0.165328,0.001325,0.432856,-0.000058,-0.075076,-0.005545,0.306314,0.004699,0.801493,-0.000092,-0.141197,0.906570,3.204732,-0.205103,2.101225,0.014558,-0.310310,-0.000000,-0.298164,-0.000000,-0.761976,-0.000000,0.132518
1.220000,0.000000,0.172984,0.000000,0.442069,0.000000,-0.076882,-0.001824,0.166553,0.001344,0.436064,-0.000058,-0.075641,-0.005587,0.306185,0.004813,0.802059,-0.000099,-0.141298,0.917752,3.226741,-0.208117,2.113011,0.014663,-0.309993,-0.000000,-0.303246,-0.000000,-0.774961,-0.000000,0.134776
1.224000,0.000000,0.174253,0.000000,0.445312,0.000000,-0.077446,-0.001847,0.167778,0.001364,0.439273,-0.000059,-0.076206,-0.005621,0.306066,0.004932,0.802584,-0.000105,-0.141390,0.928998,3.249391,-0.211208,2.124790,0.014773,-0.309675,-0.000000,-0.308296,-0.000000,-0.787868,-0.000000,0.137021
1.228000,0.000000,0.175522,0.000000,0.448557,0.000000,-0.078010,-0.001869,0.169002,0.001384,0.442485,-0.000059,-0.076771,-0.005645,0.305961,0.005056,0.803068,-0.000111,-0.141474,0.940291,3.272618,-0.214379,2.136556,0.014889,-0.309355,-0.000000,-0.313316,-0.000000,-0.800696,-0.000000,0.139251
1.232000,0.000000,0.176793,0.000000,0.451804,0.000000,-0.078575,-0.001892,0.170225,0.001405,0.445698,-0.000059,-0.077337,-0.005660,0.305872,0.005184,0.803510,-0.000116,-0.141549,0.951612,3.296352,-0.217631,2.148302,0.015010,-0.309035,-0.000000,-0.318304,-0.000000,-0.813443,-0.000000,0.141468
1.236000,0.000000,0.178064,0.000000,0.455053,0.000000,-0.079140,-0.001915,0.171449,0.001426,0.448913,-0.000060,-0.077904,-0.005667,0.305801,0.005314,0.803910,-0.000121,-0.141617,0.962944,3.320522,-0.220965,2.160022,0.015136,-0.308714,-0.000000,-0.323259,-0.000000,-0.826107,-0.000000,0.143671
1.240000,0.000000,0.179336,0.000000,0.458303,0.000000,-0.079705,-0.001937,0.172672,0.001447,0.452130,-0.000060,-0.078470,-0.005664,0.305750,0.005446,0.804269,-0.000125,-0.141676,0.974268,3.345049,-0.224382,2.171711,0.015265,-0.308393,-0.000000,-0.328182,-0.000000,-0.838688,-0.000000,0.145859
1.244000,0.000000,0.180608,0.000000,0.461554,0.000000,-0.080270,-0.001960,0.173895,0.001469,0.455348,-0.000061,-0.079037,-0.005653,0.305721,0.005580,0.804585,-0.000129,-0.141727,0.985567,3.369853,-0.227880,2.183362,0.015397,-0.308072,-0.000000,-0.333072,-0.000000,-0.851183,-0.000000,0.148032
1.248000,0.000000,0.181881,0.000000,0.464807,0.000000,-0.080836,-0.001982,0.175118,0.001492,0.458567,-0.000061,-0.079604,-0.005632,0.305715,0.005714,0.804859,-0.000132,-0.141770,0.996824,3.394850,-0.231459,2.194970,0.015533,-0.307750,-0.000000,-0.337927,-0.000000,-0.863592,-0.000000,0.150190
1.252000,0.000000,0.183154,0.000000,0.468060,0.000000,-0.081402,-0.002005,0.176340,0.001515,0.461786,-0.000062,-0.080171,-0.005604,0.305733,0.005847,0.805090,-0.000135,-0.141804,1.008021,3.419958,-0.235117,2.206529,0.015669,-0.307429,-0.000000,-0.342748,-0.000000,-0.875912,-0.000000,0.152333
1.256000,0.000000,0.184427,0.000000,0.471313,0.000000,-0.081968,-0.002027,0.177563,0.001539,0.465007,-0.000063,-0.080738,-0.005567,0.305775,0.005979,0.805279,-0.000136,-0.141830,1.019143,3.445090,-0.238853,2.218035,0.015808,-0.307108,-0.000000,-0.347534,-0.000000,-0.888143,-0.000000,0.154460
1.260000,0.000000,0.185700,0.000000,0.474568,0.000000,-0.082534,-0.002049,0.178787,0.001563,0.468229,-0.000063,-0.081305,-0.005523,0.305841,0.006107,0.805425,-0.000137,-0.141848,1.030175,3.470163,-0.242664,2.229483,0.015946,-0.306788,-0.000000,-0.352285,-0.000000,-0.900283,-0.000000,0.156571
1.264000,0.000000,0.186974,0.000000,0.477822,0.000000,-0.083100,-0.002071,0.180010,0.001588,0.471451,-0.000064,-0.081872,-0.005472,0.305930,0.006233,0.805527,-0.000138,-0.141858,1.041102,3.495094,-0.246546,2.240869,0.016085,-0.306468,-0.000000,-0.356999,-0.000000,-0.912330,-0.000000,0.158666
1.268000,0.000000,0.188248,0.000000,0.481077,0.000000,-0.083666,-0.002093,0.181234,0.001613,0.474673,-0.000064,-0.082440,-0.005414,0.306042,0.006353,0.805586,-0.000138,-0.141859,1.051911,3.519800,-0.250496,2.252190,0.016222,-0.306149,-0.000000,-0.361676,-0.000000,-0.924284,-0.000000,0.160745
1.272000,0.000000,0.189521,0.000000,0.484332,0.000000,-0.084232,-0.002114,0.182459,0.001639,0.477895,-0.000065,-0.083007,-0.005350,0.306175,0.006469,0.805600,-0.000137,-0.141852,1.062591,3.544203,-0.254509,2.263441,0.016358,-0.305832,-0.000000,-0.366316,-0.000000,-0.936142,-0.000000,0.162807
1.276000,0.000000,0.190795,0.000000,0.487586,0.000000,-0.084798,-0.002136,0.183684,0.001665,0.481117,-0.000065,-0.083574,-0.005280,0.306327,0.006578,0.805571,-0.000135,-0.141837,1.073130,3.568228,-0.258581,2.274620,0.016492,-0.305515,-0.000000,-0.370919,-0.000000,-0.947903,-0.000000,0.164853
1.280000,0.000000,0.192068,0.000000,0.490840,0.000000,-0.085364,-0.002157,0.184910,0.001692,0.484340,-0.000066,-0.084142,-0.005206,0.306497,0.006680,0.805496,-0.000133,-0.141814,1.083518,3.591804,-0.262708,2.285726,0.016623,-0.305199,-0.000000,-0.375482,-0.000000,-0.959566,-0.000000,0.166881
1.284000,0.000000,0.193341,0.000000,0.494094,0.000000,-0.085929,-0.002177,0.186136,0.001718,0.487561,-0.000066,-0.084709,-0.005127,0.306682,0.006775,0.805377,-0.000130,-0.141783,1.093748,3.614866,-0.266882,2.296755,0.016751,-0.304884,-0.000000,-0.380007,-0.000000,-0.971129,-0.000000,0.168892
1.288000,0.000000,0.194614,0.000000,0.497346,0.000000,-0.086495,-0.002197,0.187363,0.001746,0.490782,-0.000067,-0.085275,-0.005045,0.306879,0.006861,0.805212,-0.000127,-0.141744,1.103812,3.637353,-0.271100,2.307706,0.016874,-0.304570,-0.000000,-0.384492,-0.000000,-0.982591,-0.000000,0.170885
1.292000,0.000000,0.195886,0.000000,0.500598,0.000000,-0.087060,-0.002217,0.188591,0.001773,0.494003,-0.000067,-0.085842,-0.004960,0.307085,0.006939,0.805002,-0.000123,-0.141696,1.113706,3.659211,-0.275355,2.318579,0.016994,-0.304257,-0.000000,-0.388937,-0.000000,-0.993951,-0.000000,0.172861
1.296000,0.000000,0.197158,0.000000,0.503848,0.000000,-0.087626,-0.002237,0.189820,0.001801,0.497222,-0.000068,-0.086409,-0.004873,0.307297,0.007008,0.804746,-0.000118,-0.141641,1.123424,3.680393,-0.279640,2.329371,0.017108,-0.303946,-0.000000,-0.393342,-0.000000,-1.005206,-0.000000,0.174818
1.300000,0.000000,0.198429,0.000000,0.507097,0.000000,-0.088191,-0.002256,0.191050,0.001830,0.500440,-0.000068,-0.086975,-0.004785,0.307511,0.007066,0.804444,-0.000113,-0.141577,1.132965,3.700859,-0.283950,2.340084,0.017217,-0.303635,-0.000000,-0.397705,-0.000000,-1.016356,-0.000000,0.176758
1.304000,0.000000,0.199700,0.000000,0.510345,0.000000,-0.088756,-0.002275,0.192280,0.001858,0.503657,-0.000069,-0.087541,-0.004695,0.307724,0.007115,0.804095,-0.000108,-0.141505,1.142326,3.720576,-0.288279,2.350718,0.017320,-0.303326,-0.000000,-0.402026,-0.000000,-1.027399,-0.000000,0.178678
1.308000,0.000000,0.200970,0.000000,0.513591,0.000000,-0.089320,-0.002294,0.193512,0.001886,0.506872,-0.000069,-0.088107,-0.004606,0.307932,0.007154,0.803700,-0.000102,-0.141425,1.151509,3.739519,-0.292620,2.361271,0.017418,-0.303018,-0.000000,-0.406304,-0.000000,-1.038334,-0.000000,0.180580
1.312000,0.000000,0.202240,0.000000,0.516834,0.000000,-0.089884,-0.002312,0.194744,0.001915,0.510086,-0.000070,-0.088672,-0.004517,0.308130,0.007183,0.803259,-0.000097,-0.141338,1.160514,3.757670,-0.296966,2.371747,0.017509,-0.302711,-0.000000,-0.410540,-0.000000,-1.049158,-0.000000,0.182462
1.316000,0.000000,0.203508,0.000000,0.520076,0.000000,-0.090448,-0.002330,0.195977,0.001944,0.513298,-0.000070,-0.089237,-0.004430,0.308316,0.007202,0.802770,-0.000090,-0.141242,1.169344,3.775021,-0.301312,2.382144,0.017594,-0.302404,-0.000000,-0.414732,-0.000000,-1.059872,-0.000000,0.184326
1.320000,0.000000,0.204776,0.000000,0.523315,0.000000,-0.091011,-0.002347,0.197211,0.001973,0.516507,-0.000070,-0.089802,-0.004345,0.308484,0.007210,0.802234,-0.000084,-0.141138,1.178004,3.791570,-0.305652,2.392466,0.017673,-0.302099,-0.000000,-0.418881,-0.000000,-1.070473,-0.000000,0.186169
1.324000,0.000000,0.206042,0.000000,0.526552,0.000000,-0.091574,-0.002364,0.198445,0.002002,0.519715,-0.000071,-0.090366,-0.004262,0.308632,0.007209,0.801651,-0.000078,-0.141026,1.186498,3.807325,-0.309981,2.402712,0.017745,-0.301794,-0.000000,-0.422984,-0.000000,-1.080959,-0.000000,0.187993
1.328000,0.000000,0.207308,0.000000,0.529787,0.000000,-0.092137,-0.002381,0.199680,0.002030,0.522920,-0.000071,-0.090930,-0.004182,0.308754,0.007199,0.801020,-0.000072,-0.140907,1.194833,3.822299,-0.314292,2.412886,0.017811,-0.301490,-0.000000,-0.427042,-0.000000,-1.091330,-0.000000,0.189797
1.332000,0.000000,0.208572,0.000000,0.533018,0.000000,-0.092699,-0.002398,0.200915,0.002059,0.526122,-0.000071,-0.091493,-0.004106,0.308848,0.007179,0.800342,-0.000065,-0.140779,1.203017,3.836517,-0.318582,2.422990,0.017871,-0.301186,-0.000000,-0.431055,-0.000000,-1.101584,-0.000000,0.191580
1.336000,0.000000,0.209836,0.000000,0.536247,0.000000,-0.093260,-0.002414,0.202151,0.002088,0.529322,-0.000071,-0.092055,-0.004034,0.308910,0.007152,0.799617,-0.000059,-0.140643,1.211057,3.850006,-0.322845,2.433025,0.017925,-0.300884,-0.000000,-0.435021,-0.000000,-1.111720,-0.000000,0.193343
1.340000,0.000000,0.211098,0.000000,0.539472,0.000000,-0.093821,-0.002430,0.203386,0.002116,0.532518,-0.000072,-0.092618,-0.003966,0.308935,0.007116,0.798843,-0.000053,-0.140500,1.218963,3.862804,-0.327078,2.442993,0.017972,-0.300581,-0.000000,-0.438940,-0.000000,-1.121735,-0.000000,0.195084
1.344000,0.000000,0.212358,0.000000,0.542694,0.000000,-0.094381,-0.002446,0.204622,0.002145,0.535712,-0.000072,-0.093179,-0.003903,0.308922,0.007073,0.798023,-0.000047,-0.140349,1.226745,3.874954,-0.331276,2.452899,0.018015,-0.300279,-0.000000,-0.442811,-0.000000,-1.131629,-0.000000,0.196805
1.348000,0.000000,0.213618,0.000000,0.545912,0.000000,-0.094941,-0.002461,0.205858,0.002173,0.538902,-0.000072,-0.093740,-0.003846,0.308866,0.007024,0.797154,-0.000042,-0.140189,1.234413,3.886506,-0.335438,2.462743,0.018052,-0.299976,-0.000000,-0.446635,-0.000000,-1.141400,-0.000000,0.198504
1.352000,0.000000,0.214875,0.000000,0.549126,0.000000,-0.095500,-0.002476,0.207093,0.002201,0.542088,-0.000072,-0.094300,-0.003794,0.308766,0.006970,0.796238,-0.000037,-0.140022,1.241979,3.897513,-0.339561,2.472529,0.018084,-0.299674,-0.000000,-0.450410,-0.000000,-1.151047,-0.000000,0.200182
1.356000,0.000000,0.216132,0.000000,0.552337,0.000000,-0.096059,-0.002491,0.208328,0.002229,0.545270,-0.000072,-0.094860,-0.003748,0.308618,0.006910,0.795275,-0.000032,-0.139848,1.249455,3.908036,-0.343642,2.482258,0.018111,-0.299372,-0.000000,-0.454136,-0.000000,-1.160569,-0.000000,0.201838
1.360000,0.000000,0.217386,0.000000,0.555543,0.000000,-0.096616,-0.002506,0.209562,0.002256,0.548449,-0.000072,-0.095419,-0.003709,0.308422,0.006848,0.794264,-0.000028,-0.139665,1.256852,3.918138,-0.347682,2.491935,0.018135,-0.299070,-0.000000,-0.457812,-0.000000,-1.169963,-0.000000,0.203472
1.364000,0.000000,0.218639,0.000000,0.558745,0.000000,-0.097173,-0.002521,0.210795,0.002283,0.551623,-0.000072,-0.095977,-0.003675,0.308174,0.006782,0.793206,-0.000024,-0.139474,1.264184,3.927885,-0.351678,2.501561,0.018155,-0.298767,-0.000000,-0.461437,-0.000000,-1.179228,-0.000000,0.205083
1.368000,0.000000,0.219891,0.000000,0.561943,0.000000,-0.097729,-0.002536,0.212027,0.002310,0.554793,-0.000073,-0.096534,-0.003647,0.307874,0.006715,0.792100,-0.000021,-0.139276,1.271462,3.937349,-0.355632,2.511138,0.018173,-0.298465,-0.000000,-0.465012,-0.000000,-1.188364,-0.000000,0.206672
1.372000,0.000000,0.221140,0.000000,0.565136,0.000000,-0.098284,-0.002550,0.213257,0.002337,0.557959,-0.000073,-0.097090,-0.003626,0.307520,0.006647,0.790948,-0.000018,-0.139070,1.278700,3.946600,-0.359544,2.520670,0.018188,-0.298161,-0.000000,-0.468535,-0.000000,-1.197368,-0.000000,0.208238
1.376000,0.000000,0.222387,0.000000,0.568324,0.000000,-0.098839,-0.002565,0.214486,0.002363,0.561120,-0.000073,-0.097646,-0.003612,0.307113,0.006580,0.789749,-0.000016,-0.138856,1.285910,3.955711,-0.363416,2.530159,0.018201,-0.297857,-0.000000,-0.472006,-0.000000,-1.206238,-0.000000,0.209781
